(G-CODE GENERATED BY FLATCAM v8.994 - www.flatcam.org - Version Date: 2020/11/7)

(Name: Prog.drl_cnc)
(Type: G-code from Geometry)
(Units: MM)

(Created on Saturday, 27 July 2024 at 03:35)

(This preprocessor is the default preprocessor used by FlatCAM.)
(It is made to work with MACH3 compatible motion controllers.)


(TOOLS DIAMETER: )
(Tool: 1 -> Dia: 1.0)

(FEEDRATE Z: )
(Tool: 1 -> Feedrate: 100.0)

(FEEDRATE RAPIDS: )
(Tool: 1 -> Feedrate Rapids: 1500)

(Z_CUT: )
(Tool: 1 -> Z_Cut: -2.0)

(Tools Offset: )
(Tool: 1 -> Offset Z: 0.0)

(Z_MOVE: )
(Tool: 1 -> Z_Move: 2)

(Z Toolchange: 15 mm)
(X,Y Toolchange: 0.0000, 0.0000 mm)
(Z Start: None mm)
(Z End: 15.0 mm)
(X,Y End: None mm)
(Steps per circle: 64)
(Preprocessor Excellon: default)

(X range:  -15.6550 ...   15.6550  mm)
(Y range:  -37.2520 ...   18.0000  mm)

(Spindle Speed: 1000 RPM)
G21
G90
G94

G01 F100.00

M5
G00 Z15.0000
T1
G00 X0.0000 Y0.0000                
M6
(MSG, Change to Tool Dia = 1.0000 ||| Total drills for tool T1 = 15)
M0
G00 Z15.0000

G01 F100.00
M03 S1000
G00 X-15.1550 Y-8.7500
G01 Z-2.0000
G01 Z0
G00 Z2.0000
G00 X-5.0800 Y-34.2120
G01 Z-2.0000
G01 Z0
G00 Z2.0000
G00 X-5.0800 Y-36.7520
G01 Z-2.0000
G01 Z0
G00 Z2.0000
G00 X-2.5400 Y-36.7520
G01 Z-2.0000
G01 Z0
G00 Z2.0000
G00 X-2.5400 Y-34.2120
G01 Z-2.0000
G01 Z0
G00 Z2.0000
G00 X0.0000 Y-34.2120
G01 Z-2.0000
G01 Z0
G00 Z2.0000
G00 X0.0000 Y-36.7520
G01 Z-2.0000
G01 Z0
G00 Z2.0000
G00 X2.5400 Y-36.7520
G01 Z-2.0000
G01 Z0
G00 Z2.0000
G00 X5.0800 Y-36.7520
G01 Z-2.0000
G01 Z0
G00 Z2.0000
G00 X5.0800 Y-34.2120
G01 Z-2.0000
G01 Z0
G00 Z2.0000
G00 X2.5400 Y-34.2120
G01 Z-2.0000
G01 Z0
G00 Z2.0000
G00 X0.0000 Y-17.5000
G01 Z-2.0000
G01 Z0
G00 Z2.0000
G00 X15.1550 Y-8.7500
G01 Z-2.0000
G01 Z0
G00 Z2.0000
G00 X15.1550 Y8.7500
G01 Z-2.0000
G01 Z0
G00 Z2.0000
G00 X0.0000 Y17.5000
G01 Z-2.0000
G01 Z0
G00 Z2.0000
M05
G00 Z15.00


