(G-CODE GENERATED BY FLATCAM v8.994 - www.flatcam.org - Version Date: 2020/11/7)

(Name: Prog-F_Cu.gbr_iso_combined_cnc)
(Type: G-code from Geometry)
(Units: MM)

(Created on Saturday, 27 July 2024 at 03:47)

(This preprocessor is used with a motion controller loaded with GRBL firmware.)
(It is configured to be compatible with almost any version of GRBL firmware.)

(TOOL DIAMETER: 0.1 mm)
(Feedrate_XY: 120.0 mm/min)
(Feedrate_Z: 60.0 mm/min)
(Feedrate rapids 1500.0 mm/min)

(Z_Cut: -0.05 mm)
(Z_Move: 2.0 mm)
(Z Start: None mm)
(Z End: 15.0 mm)
(X,Y End: None mm)
(Steps per circle: 64)
(Steps per circle: 64)
(Preprocessor Geometry: GRBL_11_no_M6)

(X range:  -27.3501 ...   26.8501  mm)
(Y range:  -39.3501 ...   18.4500  mm)

(Spindle Speed: 1000.0 RPM)
G21
G90
G17
G94


G01 F120.00

M5             
G00 Z15.0000
G00 X0.0000 Y0.0000                
T1
(MSG, Change to Tool Dia = 0.1000)
M0
G00 Z15.0000
        
M03 S1000.0
G01 F120.00
G00 X0.4614 Y16.6702
G01 F60.00
G01 Z-0.0500
G01 F120.00
G01 X0.7084 Y16.7918 F120.00
G01 X0.9430 Y16.9395 F120.00
G01 X1.1346 Y17.0510 F120.00
G01 X1.3586 Y17.1227 F120.00
G01 X1.7012 Y17.1499 F120.00
G01 X15.6639 Y17.1499 F120.00
G01 X15.8153 Y17.1433 F120.00
G01 X15.9580 Y17.1245 F120.00
G01 X16.0985 Y17.0933 F120.00
G01 X16.2358 Y17.0501 F120.00
G01 X16.3687 Y16.9950 F120.00
G01 X16.4964 Y16.9286 F120.00
G01 X16.6177 Y16.8512 F120.00
G01 X16.7319 Y16.7636 F120.00
G01 X16.8433 Y16.6616 F120.00
G01 X25.6612 Y7.8436 F120.00
G01 X25.7636 Y7.7319 F120.00
G01 X25.8512 Y7.6177 F120.00
G01 X25.9285 Y7.4963 F120.00
G01 X25.9950 Y7.3687 F120.00
G01 X26.0500 Y7.2358 F120.00
G01 X26.0933 Y7.0985 F120.00
G01 X26.1245 Y6.9580 F120.00
G01 X26.1432 Y6.8153 F120.00
G01 X26.1499 Y6.6635 F120.00
G01 X26.1499 Y-10.1639 F120.00
G01 X26.1433 Y-10.3153 F120.00
G01 X26.1245 Y-10.4580 F120.00
G01 X26.0933 Y-10.5985 F120.00
G01 X26.0501 Y-10.7358 F120.00
G01 X25.9950 Y-10.8687 F120.00
G01 X25.9286 Y-10.9964 F120.00
G01 X25.8512 Y-11.1177 F120.00
G01 X25.7636 Y-11.2319 F120.00
G01 X25.6616 Y-11.3433 F120.00
G01 X8.3382 Y-28.6666 F120.00
G01 X8.3276 Y-28.6777 F120.00
G01 X8.2069 Y-28.8096 F120.00
G01 X8.1901 Y-28.8297 F120.00
G01 X8.0839 Y-28.9681 F120.00
G01 X8.0664 Y-28.9931 F120.00
G01 X7.9726 Y-29.1403 F120.00
G01 X7.9574 Y-29.1668 F120.00
G01 X7.8768 Y-29.3215 F120.00
G01 X7.8657 Y-29.3452 F120.00
G01 X7.7956 Y-29.5145 F120.00
G01 X7.7867 Y-29.5391 F120.00
G01 X7.7342 Y-29.7055 F120.00
G01 X7.7263 Y-29.7350 F120.00
G01 X7.6886 Y-29.9054 F120.00
G01 X7.6839 Y-29.9311 F120.00
G01 X7.6600 Y-30.1128 F120.00
G01 X7.6578 Y-30.1388 F120.00
G01 X7.6502 Y-30.3132 F120.00
G01 X7.6499 Y-30.3284 F120.00
G01 X7.6499 Y-34.7439 F120.00
G01 X7.6415 Y-34.9142 F120.00
G01 X7.6178 Y-35.0743 F120.00
G01 X7.5784 Y-35.2313 F120.00
G01 X7.5239 Y-35.3837 F120.00
G01 X7.4547 Y-35.5300 F120.00
G01 X7.3715 Y-35.6689 F120.00
G01 X7.2750 Y-35.7989 F120.00
G01 X7.1663 Y-35.9188 F120.00
G01 X7.0464 Y-36.0275 F120.00
G01 X6.9164 Y-36.1240 F120.00
G01 X6.7775 Y-36.2072 F120.00
G01 X6.6312 Y-36.2764 F120.00
G01 X6.6097 Y-36.2841 F120.00
G01 X5.8836 Y-35.8681 F120.00
G01 X5.8724 Y-35.8601 F120.00
G01 X5.8450 Y-35.8438 F120.00
G01 X5.8139 Y-35.8291 F120.00
G01 X5.7816 Y-35.8176 F120.00
G01 X5.7483 Y-35.8092 F120.00
G01 X5.7143 Y-35.8042 F120.00
G01 X5.6800 Y-35.8025 F120.00
G01 X4.4800 Y-35.8025 F120.00
G01 X4.4457 Y-35.8042 F120.00
G01 X4.4166 Y-35.8084 F120.00
G01 X4.4069 Y-35.8103 F120.00
G01 X4.3761 Y-35.8183 F120.00
G01 X4.3461 Y-35.8291 F120.00
G01 X4.3194 Y-35.8416 F120.00
G01 X4.3107 Y-35.8462 F120.00
G01 X4.2856 Y-35.8615 F120.00
G01 X4.2618 Y-35.8789 F120.00
G01 X4.2542 Y-35.8852 F120.00
G01 X4.2325 Y-35.9050 F120.00
G01 X4.2127 Y-35.9267 F120.00
G01 X4.2064 Y-35.9343 F120.00
G01 X4.1890 Y-35.9581 F120.00
G01 X4.1713 Y-35.9875 F120.00
G01 X4.1586 Y-36.0141 F120.00
G01 X4.1549 Y-36.0231 F120.00
G01 X4.1444 Y-36.0533 F120.00
G01 X4.1367 Y-36.0842 F120.00
G01 X4.1323 Y-36.1133 F120.00
G01 X4.1313 Y-36.1231 F120.00
G01 X4.1300 Y-36.1525 F120.00
G01 X4.1300 Y-37.3525 F120.00
G01 X4.1313 Y-37.3819 F120.00
G01 X4.1323 Y-37.3917 F120.00
G01 X4.1363 Y-37.4184 F120.00
G01 X4.1438 Y-37.4494 F120.00
G01 X4.1466 Y-37.4588 F120.00
G01 X4.1557 Y-37.4842 F120.00
G01 X4.1586 Y-37.4909 F120.00
G01 X4.1713 Y-37.5175 F120.00
G01 X4.1890 Y-37.5469 F120.00
G01 X4.2094 Y-37.5745 F120.00
G01 X4.2308 Y-37.5982 F120.00
G01 X4.2580 Y-37.6231 F120.00
G01 X4.2815 Y-37.6407 F120.00
G01 X4.2876 Y-37.6449 F120.00
G01 X4.3107 Y-37.6588 F120.00
G01 X4.3194 Y-37.6634 F120.00
G01 X4.3461 Y-37.6759 F120.00
G01 X4.3784 Y-37.6874 F120.00
G01 X4.4117 Y-37.6958 F120.00
G01 X4.4481 Y-37.7010 F120.00
G01 X4.4800 Y-37.7025 F120.00
G01 X5.6800 Y-37.7025 F120.00
G01 X5.7143 Y-37.7008 F120.00
G01 X5.7483 Y-37.6958 F120.00
G01 X5.7769 Y-37.6887 F120.00
G01 X5.7863 Y-37.6859 F120.00
G01 X5.8139 Y-37.6759 F120.00
G01 X5.8406 Y-37.6634 F120.00
G01 X5.8493 Y-37.6588 F120.00
G01 X5.8724 Y-37.6449 F120.00
G01 X5.9001 Y-37.6246 F120.00
G01 X5.9202 Y-37.6068 F120.00
G01 X6.8442 Y-36.9439 F120.00
G01 X6.8856 Y-36.9291 F120.00
G01 X6.9128 Y-36.9178 F120.00
G01 X7.0925 Y-36.8329 F120.00
G01 X7.1228 Y-36.8167 F120.00
G01 X7.2911 Y-36.7158 F120.00
G01 X7.3157 Y-36.6995 F120.00
G01 X7.4774 Y-36.5797 F120.00
G01 X7.5002 Y-36.5612 F120.00
G01 X7.6493 Y-36.4261 F120.00
G01 X7.6736 Y-36.4018 F120.00
G01 X7.8087 Y-36.2527 F120.00
G01 X7.8272 Y-36.2299 F120.00
G01 X7.9442 Y-36.0722 F120.00
G01 X7.9633 Y-36.0436 F120.00
G01 X8.0666 Y-35.8710 F120.00
G01 X8.0804 Y-35.8450 F120.00
G01 X8.1643 Y-35.6676 F120.00
G01 X8.1774 Y-35.6358 F120.00
G01 X8.2435 Y-35.4510 F120.00
G01 X8.2522 Y-35.4229 F120.00
G01 X8.3012 Y-35.2278 F120.00
G01 X8.3071 Y-35.1989 F120.00
G01 X8.3373 Y-34.9950 F120.00
G01 X8.3401 Y-34.9657 F120.00
G01 X8.3498 Y-34.7672 F120.00
G01 X8.3501 Y-34.7525 F120.00
G01 X8.3501 Y-30.3361 F120.00
G01 X8.3567 Y-30.1847 F120.00
G01 X8.3755 Y-30.0420 F120.00
G01 X8.4067 Y-29.9015 F120.00
G01 X8.4499 Y-29.7642 F120.00
G01 X8.5050 Y-29.6313 F120.00
G01 X8.5714 Y-29.5036 F120.00
G01 X8.6488 Y-29.3823 F120.00
G01 X8.7364 Y-29.2681 F120.00
G01 X8.8384 Y-29.1567 F120.00
G01 X26.1618 Y-11.8334 F120.00
G01 X26.1724 Y-11.8223 F120.00
G01 X26.2931 Y-11.6904 F120.00
G01 X26.3099 Y-11.6703 F120.00
G01 X26.4187 Y-11.5284 F120.00
G01 X26.4336 Y-11.5069 F120.00
G01 X26.5296 Y-11.3560 F120.00
G01 X26.5426 Y-11.3332 F120.00
G01 X26.6251 Y-11.1746 F120.00
G01 X26.6361 Y-11.1508 F120.00
G01 X26.7029 Y-10.9896 F120.00
G01 X26.7119 Y-10.9650 F120.00
G01 X26.7658 Y-10.7945 F120.00
G01 X26.7737 Y-10.7650 F120.00
G01 X26.8123 Y-10.5904 F120.00
G01 X26.8168 Y-10.5646 F120.00
G01 X26.8395 Y-10.3916 F120.00
G01 X26.8422 Y-10.3612 F120.00
G01 X26.8498 Y-10.1868 F120.00
G01 X26.8501 Y-10.1716 F120.00
G01 X26.8501 Y6.6716 F120.00
G01 X26.8498 Y6.6868 F120.00
G01 X26.8422 Y6.8612 F120.00
G01 X26.8400 Y6.8872 F120.00
G01 X26.8167 Y7.0646 F120.00
G01 X26.8123 Y7.0904 F120.00
G01 X26.7737 Y7.2650 F120.00
G01 X26.7670 Y7.2903 F120.00
G01 X26.7133 Y7.4609 F120.00
G01 X26.7044 Y7.4855 F120.00
G01 X26.6361 Y7.6508 F120.00
G01 X26.6251 Y7.6746 F120.00
G01 X26.5426 Y7.8332 F120.00
G01 X26.5296 Y7.8560 F120.00
G01 X26.4336 Y8.0068 F120.00
G01 X26.4187 Y8.0283 F120.00
G01 X26.3099 Y8.1703 F120.00
G01 X26.2931 Y8.1904 F120.00
G01 X26.1635 Y8.3316 F120.00
G01 X17.3316 Y17.1635 F120.00
G01 X17.3223 Y17.1724 F120.00
G01 X17.1937 Y17.2902 F120.00
G01 X17.1737 Y17.3071 F120.00
G01 X17.0319 Y17.4161 F120.00
G01 X17.0069 Y17.4336 F120.00
G01 X16.8560 Y17.5296 F120.00
G01 X16.8332 Y17.5426 F120.00
G01 X16.6785 Y17.6232 F120.00
G01 X16.6508 Y17.6361 F120.00
G01 X16.4855 Y17.7045 F120.00
G01 X16.4609 Y17.7133 F120.00
G01 X16.2903 Y17.7670 F120.00
G01 X16.2650 Y17.7737 F120.00
G01 X16.0904 Y17.8123 F120.00
G01 X16.0646 Y17.8168 F120.00
G01 X15.8872 Y17.8400 F120.00
G01 X15.8612 Y17.8422 F120.00
G01 X15.6868 Y17.8498 F120.00
G01 X15.6716 Y17.8501 F120.00
G01 X1.7012 Y17.8501 F120.00
G01 X1.3586 Y17.8773 F120.00
G01 X1.1346 Y17.9491 F120.00
G01 X0.9430 Y18.0605 F120.00
G01 X0.7130 Y18.2055 F120.00
G01 X0.7050 Y18.2101 F120.00
G01 X0.4614 Y18.3298 F120.00
G01 X0.4456 Y18.3390 F120.00
G01 X0.3635 Y18.3777 F120.00
G01 X0.2758 Y18.4091 F120.00
G01 X0.1877 Y18.4312 F120.00
G01 X0.1805 Y18.4326 F120.00
G01 X0.0931 Y18.4454 F120.00
G01 X0.0049 Y18.4499 F120.00
G01 X-0.0049 Y18.4499 F120.00
G01 X-0.0882 Y18.4458 F120.00
G01 X-0.0980 Y18.4448 F120.00
G01 X-0.1853 Y18.4317 F120.00
G01 X-0.2758 Y18.4091 F120.00
G01 X-0.3635 Y18.3777 F120.00
G01 X-0.4478 Y18.3378 F120.00
G01 X-0.5278 Y18.2899 F120.00
G01 X-0.6027 Y18.2344 F120.00
G01 X-0.6718 Y18.1718 F120.00
G01 X-0.7344 Y18.1027 F120.00
G01 X-0.7899 Y18.0278 F120.00
G01 X-0.8378 Y17.9478 F120.00
G01 X-0.8777 Y17.8635 F120.00
G01 X-0.9091 Y17.7758 F120.00
G01 X-0.9317 Y17.6853 F120.00
G01 X-0.9454 Y17.5931 F120.00
G01 X-0.9500 Y17.5000 F120.00
G01 X-0.9454 Y17.4069 F120.00
G01 X-0.9317 Y17.3147 F120.00
G01 X-0.9091 Y17.2242 F120.00
G01 X-0.8777 Y17.1365 F120.00
G01 X-0.8378 Y17.0522 F120.00
G01 X-0.7899 Y16.9722 F120.00
G01 X-0.7344 Y16.8973 F120.00
G01 X-0.6718 Y16.8282 F120.00
G01 X-0.6027 Y16.7656 F120.00
G01 X-0.5278 Y16.7101 F120.00
G01 X-0.4478 Y16.6622 F120.00
G01 X-0.3635 Y16.6223 F120.00
G01 X-0.2758 Y16.5909 F120.00
G01 X-0.1853 Y16.5683 F120.00
G01 X-0.0931 Y16.5546 F120.00
G01 X0.0000 Y16.5500 F120.00
G01 X0.0931 Y16.5546 F120.00
G01 X0.1853 Y16.5683 F120.00
G01 X0.2758 Y16.5909 F120.00
G01 X0.3635 Y16.6223 F120.00
G01 X0.4456 Y16.6610 F120.00
G01 X0.4614 Y16.6702 F120.00
G00 Z2.0000
G00 X0.4375 Y16.7142
G01 F60.00
G01 Z-0.0500
G01 F120.00
G01 X0.6840 Y16.8354 F120.00
G01 X0.9171 Y16.9823 F120.00
G01 X1.1141 Y17.0969 F120.00
G01 X1.3489 Y17.1720 F120.00
G01 X1.6977 Y17.1999 F120.00
G01 X15.6650 Y17.1999 F120.00
G01 X15.8197 Y17.1931 F120.00
G01 X15.9667 Y17.1738 F120.00
G01 X16.1115 Y17.1417 F120.00
G01 X16.2529 Y17.0971 F120.00
G01 X16.3899 Y17.0404 F120.00
G01 X16.5214 Y16.9719 F120.00
G01 X16.6464 Y16.8922 F120.00
G01 X16.7641 Y16.8020 F120.00
G01 X16.8779 Y16.6977 F120.00
G01 X25.6973 Y7.8782 F120.00
G01 X25.8020 Y7.7640 F120.00
G01 X25.8922 Y7.6464 F120.00
G01 X25.9719 Y7.5214 F120.00
G01 X26.0403 Y7.3899 F120.00
G01 X26.0971 Y7.2529 F120.00
G01 X26.1417 Y7.1115 F120.00
G01 X26.1738 Y6.9667 F120.00
G01 X26.1931 Y6.8197 F120.00
G01 X26.1999 Y6.6646 F120.00
G01 X26.1999 Y-10.1650 F120.00
G01 X26.1931 Y-10.3197 F120.00
G01 X26.1738 Y-10.4667 F120.00
G01 X26.1417 Y-10.6115 F120.00
G01 X26.0971 Y-10.7529 F120.00
G01 X26.0404 Y-10.8899 F120.00
G01 X25.9719 Y-11.0214 F120.00
G01 X25.8922 Y-11.1464 F120.00
G01 X25.8020 Y-11.2641 F120.00
G01 X25.6977 Y-11.3779 F120.00
G01 X8.3736 Y-28.7020 F120.00
G01 X8.3645 Y-28.7114 F120.00
G01 X8.2452 Y-28.8417 F120.00
G01 X8.2298 Y-28.8601 F120.00
G01 X8.1236 Y-28.9986 F120.00
G01 X8.1086 Y-29.0200 F120.00
G01 X8.0148 Y-29.1672 F120.00
G01 X8.0017 Y-29.1898 F120.00
G01 X7.9212 Y-29.3446 F120.00
G01 X7.9110 Y-29.3663 F120.00
G01 X7.8425 Y-29.5316 F120.00
G01 X7.8344 Y-29.5541 F120.00
G01 X7.7819 Y-29.7205 F120.00
G01 X7.7751 Y-29.7458 F120.00
G01 X7.7374 Y-29.9162 F120.00
G01 X7.7332 Y-29.9398 F120.00
G01 X7.7098 Y-30.1171 F120.00
G01 X7.7078 Y-30.1410 F120.00
G01 X7.7002 Y-30.3153 F120.00
G01 X7.6999 Y-30.3284 F120.00
G01 X7.6999 Y-34.7451 F120.00
G01 X7.6913 Y-34.9191 F120.00
G01 X7.6669 Y-35.0841 F120.00
G01 X7.6263 Y-35.2458 F120.00
G01 X7.5701 Y-35.4029 F120.00
G01 X7.4988 Y-35.5536 F120.00
G01 X7.4131 Y-35.6967 F120.00
G01 X7.3137 Y-35.8307 F120.00
G01 X7.2017 Y-35.9542 F120.00
G01 X7.0782 Y-36.0662 F120.00
G01 X6.9442 Y-36.1656 F120.00
G01 X6.8011 Y-36.2513 F120.00
G01 X6.6504 Y-36.3226 F120.00
G01 X6.6048 Y-36.3390 F120.00
G01 X5.8562 Y-35.9100 F120.00
G01 X5.8456 Y-35.9024 F120.00
G01 X5.8214 Y-35.8879 F120.00
G01 X5.7948 Y-35.8753 F120.00
G01 X5.7671 Y-35.8654 F120.00
G01 X5.7385 Y-35.8583 F120.00
G01 X5.7106 Y-35.8541 F120.00
G01 X5.6800 Y-35.8525 F120.00
G01 X4.4800 Y-35.8525 F120.00
G01 X4.4482 Y-35.8542 F120.00
G01 X4.4215 Y-35.8583 F120.00
G01 X4.3953 Y-35.8648 F120.00
G01 X4.3652 Y-35.8753 F120.00
G01 X4.3364 Y-35.8891 F120.00
G01 X4.3133 Y-35.9031 F120.00
G01 X4.2897 Y-35.9206 F120.00
G01 X4.2662 Y-35.9421 F120.00
G01 X4.2481 Y-35.9622 F120.00
G01 X4.2306 Y-35.9858 F120.00
G01 X4.2154 Y-36.0111 F120.00
G01 X4.2038 Y-36.0355 F120.00
G01 X4.1926 Y-36.0666 F120.00
G01 X4.1858 Y-36.0940 F120.00
G01 X4.1817 Y-36.1207 F120.00
G01 X4.1800 Y-36.1525 F120.00
G01 X4.1800 Y-37.3525 F120.00
G01 X4.1813 Y-37.3795 F120.00
G01 X4.1858 Y-37.4110 F120.00
G01 X4.1923 Y-37.4372 F120.00
G01 X4.2038 Y-37.4695 F120.00
G01 X4.2154 Y-37.4939 F120.00
G01 X4.2306 Y-37.5192 F120.00
G01 X4.2481 Y-37.5428 F120.00
G01 X4.2670 Y-37.5638 F120.00
G01 X4.2897 Y-37.5844 F120.00
G01 X4.3133 Y-37.6019 F120.00
G01 X4.3386 Y-37.6171 F120.00
G01 X4.3630 Y-37.6287 F120.00
G01 X4.3953 Y-37.6402 F120.00
G01 X4.4215 Y-37.6467 F120.00
G01 X4.4530 Y-37.6512 F120.00
G01 X4.4800 Y-37.6525 F120.00
G01 X5.6800 Y-37.6525 F120.00
G01 X5.7094 Y-37.6511 F120.00
G01 X5.7385 Y-37.6467 F120.00
G01 X5.7694 Y-37.6388 F120.00
G01 X5.7948 Y-37.6297 F120.00
G01 X5.8192 Y-37.6182 F120.00
G01 X5.8456 Y-37.6026 F120.00
G01 X5.8703 Y-37.5844 F120.00
G01 X5.8898 Y-37.5668 F120.00
G01 X6.8153 Y-36.9031 F120.00
G01 X6.8197 Y-36.8996 F120.00
G01 X6.8676 Y-36.8824 F120.00
G01 X6.8926 Y-36.8721 F120.00
G01 X7.0711 Y-36.7877 F120.00
G01 X7.0960 Y-36.7744 F120.00
G01 X7.2654 Y-36.6729 F120.00
G01 X7.2879 Y-36.6579 F120.00
G01 X7.4476 Y-36.5396 F120.00
G01 X7.4703 Y-36.5209 F120.00
G01 X7.6175 Y-36.3874 F120.00
G01 X7.6366 Y-36.3683 F120.00
G01 X7.7684 Y-36.2228 F120.00
G01 X7.7871 Y-36.2001 F120.00
G01 X7.9054 Y-36.0404 F120.00
G01 X7.9204 Y-36.0179 F120.00
G01 X8.0213 Y-35.8496 F120.00
G01 X8.0352 Y-35.8236 F120.00
G01 X8.1201 Y-35.6439 F120.00
G01 X8.1303 Y-35.6190 F120.00
G01 X8.1965 Y-35.4342 F120.00
G01 X8.2050 Y-35.4060 F120.00
G01 X8.2527 Y-35.2156 F120.00
G01 X8.2584 Y-35.1867 F120.00
G01 X8.2872 Y-34.9926 F120.00
G01 X8.2900 Y-34.9657 F120.00
G01 X8.2998 Y-34.7672 F120.00
G01 X8.3001 Y-34.7537 F120.00
G01 X8.3001 Y-30.3350 F120.00
G01 X8.3069 Y-30.1803 F120.00
G01 X8.3262 Y-30.0333 F120.00
G01 X8.3583 Y-29.8885 F120.00
G01 X8.4029 Y-29.7471 F120.00
G01 X8.4596 Y-29.6101 F120.00
G01 X8.5281 Y-29.4786 F120.00
G01 X8.6078 Y-29.3536 F120.00
G01 X8.6980 Y-29.2359 F120.00
G01 X8.8023 Y-29.1221 F120.00
G01 X26.1264 Y-11.7980 F120.00
G01 X26.1355 Y-11.7886 F120.00
G01 X26.2548 Y-11.6583 F120.00
G01 X26.2702 Y-11.6399 F120.00
G01 X26.3777 Y-11.4997 F120.00
G01 X26.3914 Y-11.4800 F120.00
G01 X26.4863 Y-11.3310 F120.00
G01 X26.4983 Y-11.3102 F120.00
G01 X26.5798 Y-11.1534 F120.00
G01 X26.5899 Y-11.1317 F120.00
G01 X26.6567 Y-10.9705 F120.00
G01 X26.6649 Y-10.9479 F120.00
G01 X26.7181 Y-10.7795 F120.00
G01 X26.7249 Y-10.7542 F120.00
G01 X26.7631 Y-10.5817 F120.00
G01 X26.7672 Y-10.5580 F120.00
G01 X26.7900 Y-10.3851 F120.00
G01 X26.7922 Y-10.3590 F120.00
G01 X26.7998 Y-10.1847 F120.00
G01 X26.8001 Y-10.1716 F120.00
G01 X26.8001 Y6.6716 F120.00
G01 X26.7922 Y6.8590 F120.00
G01 X26.7902 Y6.8829 F120.00
G01 X26.7672 Y7.0580 F120.00
G01 X26.7630 Y7.0817 F120.00
G01 X26.7249 Y7.2542 F120.00
G01 X26.7187 Y7.2774 F120.00
G01 X26.6656 Y7.4459 F120.00
G01 X26.6574 Y7.4684 F120.00
G01 X26.5899 Y7.6317 F120.00
G01 X26.5798 Y7.6534 F120.00
G01 X26.4983 Y7.8102 F120.00
G01 X26.4863 Y7.8310 F120.00
G01 X26.3914 Y7.9800 F120.00
G01 X26.3777 Y7.9997 F120.00
G01 X26.2702 Y8.1398 F120.00
G01 X26.2548 Y8.1583 F120.00
G01 X26.1273 Y8.2971 F120.00
G01 X17.2971 Y17.1273 F120.00
G01 X17.2886 Y17.1355 F120.00
G01 X17.1599 Y17.2534 F120.00
G01 X17.1416 Y17.2688 F120.00
G01 X17.0014 Y17.3764 F120.00
G01 X16.9800 Y17.3914 F120.00
G01 X16.8310 Y17.4863 F120.00
G01 X16.8102 Y17.4983 F120.00
G01 X16.6554 Y17.5788 F120.00
G01 X16.6317 Y17.5899 F120.00
G01 X16.4684 Y17.6575 F120.00
G01 X16.4459 Y17.6656 F120.00
G01 X16.2774 Y17.7187 F120.00
G01 X16.2542 Y17.7249 F120.00
G01 X16.0817 Y17.7631 F120.00
G01 X16.0580 Y17.7672 F120.00
G01 X15.8829 Y17.7902 F120.00
G01 X15.8590 Y17.7922 F120.00
G01 X15.6847 Y17.7998 F120.00
G01 X15.6716 Y17.8001 F120.00
G01 X1.6977 Y17.8001 F120.00
G01 X1.3489 Y17.8280 F120.00
G01 X1.1141 Y17.9031 F120.00
G01 X0.9171 Y18.0177 F120.00
G01 X0.6818 Y18.1658 F120.00
G01 X0.4375 Y18.2859 F120.00
G01 X0.4232 Y18.2943 F120.00
G01 X0.3455 Y18.3310 F120.00
G01 X0.2613 Y18.3612 F120.00
G01 X0.1768 Y18.3825 F120.00
G01 X0.0882 Y18.3957 F120.00
G01 X0.0025 Y18.3999 F120.00
G01 X-0.0907 Y18.3954 F120.00
G01 X-0.1756 Y18.3827 F120.00
G01 X-0.2613 Y18.3612 F120.00
G01 X-0.3444 Y18.3315 F120.00
G01 X-0.4243 Y18.2937 F120.00
G01 X-0.5000 Y18.2483 F120.00
G01 X-0.5710 Y18.1957 F120.00
G01 X-0.6364 Y18.1364 F120.00
G01 X-0.6957 Y18.0710 F120.00
G01 X-0.7483 Y18.0000 F120.00
G01 X-0.7937 Y17.9243 F120.00
G01 X-0.8315 Y17.8444 F120.00
G01 X-0.8612 Y17.7613 F120.00
G01 X-0.8827 Y17.6756 F120.00
G01 X-0.8957 Y17.5882 F120.00
G01 X-0.9000 Y17.5000 F120.00
G01 X-0.8957 Y17.4118 F120.00
G01 X-0.8827 Y17.3244 F120.00
G01 X-0.8612 Y17.2387 F120.00
G01 X-0.8315 Y17.1556 F120.00
G01 X-0.7937 Y17.0757 F120.00
G01 X-0.7483 Y17.0000 F120.00
G01 X-0.6957 Y16.9290 F120.00
G01 X-0.6364 Y16.8636 F120.00
G01 X-0.5710 Y16.8043 F120.00
G01 X-0.5000 Y16.7517 F120.00
G01 X-0.4243 Y16.7063 F120.00
G01 X-0.3444 Y16.6685 F120.00
G01 X-0.2613 Y16.6388 F120.00
G01 X-0.1756 Y16.6173 F120.00
G01 X-0.0882 Y16.6043 F120.00
G01 X0.0000 Y16.6000 F120.00
G01 X0.0882 Y16.6043 F120.00
G01 X0.1756 Y16.6173 F120.00
G01 X0.2613 Y16.6388 F120.00
G01 X0.3444 Y16.6685 F120.00
G01 X0.4232 Y16.7057 F120.00
G01 X0.4375 Y16.7142 F120.00
G00 Z2.0000
G00 X-27.3001 Y3.5744
G01 F60.00
G01 Z-0.0500
G01 F120.00
G01 X-27.3001 Y-9.6716 F120.00
G01 X-27.2999 Y-9.6837 F120.00
G01 X-27.2922 Y-9.8590 F120.00
G01 X-27.2902 Y-9.8829 F120.00
G01 X-27.2668 Y-10.0602 F120.00
G01 X-27.2626 Y-10.0838 F120.00
G01 X-27.2243 Y-10.2563 F120.00
G01 X-27.2181 Y-10.2795 F120.00
G01 X-27.1656 Y-10.4459 F120.00
G01 X-27.1567 Y-10.4705 F120.00
G01 X-27.0899 Y-10.6317 F120.00
G01 X-27.0788 Y-10.6554 F120.00
G01 X-26.9983 Y-10.8102 F120.00
G01 X-26.9863 Y-10.8310 F120.00
G01 X-26.8902 Y-10.9818 F120.00
G01 X-26.8764 Y-11.0014 F120.00
G01 X-26.7688 Y-11.1415 F120.00
G01 X-26.7534 Y-11.1599 F120.00
G01 X-26.6355 Y-11.2885 F120.00
G01 X-26.6264 Y-11.2980 F120.00
G01 X-8.8027 Y-29.1218 F120.00
G01 X-8.6980 Y-29.2360 F120.00
G01 X-8.6078 Y-29.3536 F120.00
G01 X-8.5281 Y-29.4786 F120.00
G01 X-8.4597 Y-29.6101 F120.00
G01 X-8.4029 Y-29.7471 F120.00
G01 X-8.3583 Y-29.8885 F120.00
G01 X-8.3262 Y-30.0333 F120.00
G01 X-8.3069 Y-30.1803 F120.00
G01 X-8.3001 Y-30.3354 F120.00
G01 X-8.3001 Y-37.0000 F120.00
G01 X-8.2998 Y-37.0147 F120.00
G01 X-8.2901 Y-37.2108 F120.00
G01 X-8.2875 Y-37.2376 F120.00
G01 X-8.2580 Y-37.4366 F120.00
G01 X-8.2527 Y-37.4631 F120.00
G01 X-8.2044 Y-37.6559 F120.00
G01 X-8.1965 Y-37.6817 F120.00
G01 X-8.1295 Y-37.8688 F120.00
G01 X-8.1191 Y-37.8937 F120.00
G01 X-8.0352 Y-38.0711 F120.00
G01 X-8.0213 Y-38.0971 F120.00
G01 X-7.9204 Y-38.2654 F120.00
G01 X-7.9040 Y-38.2899 F120.00
G01 X-7.7871 Y-38.4476 F120.00
G01 X-7.7700 Y-38.4685 F120.00
G01 X-7.6366 Y-38.6158 F120.00
G01 X-7.6167 Y-38.6358 F120.00
G01 X-7.4703 Y-38.7684 F120.00
G01 X-7.4495 Y-38.7856 F120.00
G01 X-7.2899 Y-38.9040 F120.00
G01 X-7.2675 Y-38.9191 F120.00
G01 X-7.0950 Y-39.0225 F120.00
G01 X-7.0711 Y-39.0352 F120.00
G01 X-6.8914 Y-39.1201 F120.00
G01 X-6.8665 Y-39.1303 F120.00
G01 X-6.6793 Y-39.1972 F120.00
G01 X-6.6535 Y-39.2050 F120.00
G01 X-6.4607 Y-39.2532 F120.00
G01 X-6.4342 Y-39.2584 F120.00
G01 X-6.2376 Y-39.2875 F120.00
G01 X-6.2108 Y-39.2901 F120.00
G01 X-6.0135 Y-39.2998 F120.00
G01 X-6.0000 Y-39.3001 F120.00
G01 X0.5400 Y-39.3001 F120.00
G01 X0.5547 Y-39.2998 F120.00
G01 X0.7508 Y-39.2901 F120.00
G01 X0.7801 Y-39.2872 F120.00
G01 X0.9766 Y-39.2580 F120.00
G01 X1.0031 Y-39.2527 F120.00
G01 X1.1935 Y-39.2050 F120.00
G01 X1.2217 Y-39.1965 F120.00
G01 X1.4088 Y-39.1295 F120.00
G01 X1.4337 Y-39.1191 F120.00
G01 X1.6111 Y-39.0352 F120.00
G01 X1.6371 Y-39.0213 F120.00
G01 X1.8054 Y-38.9204 F120.00
G01 X1.8279 Y-38.9054 F120.00
G01 X1.9895 Y-38.7856 F120.00
G01 X2.0103 Y-38.7684 F120.00
G01 X2.1558 Y-38.6366 F120.00
G01 X2.1766 Y-38.6158 F120.00
G01 X2.3100 Y-38.4685 F120.00
G01 X2.3271 Y-38.4476 F120.00
G01 X2.4440 Y-38.2899 F120.00
G01 X2.4512 Y-38.2793 F120.00
G01 X2.5342 Y-38.1675 F120.00
G01 X2.6727 Y-37.9717 F120.00
G01 X2.7940 Y-37.8076 F120.00
G01 X2.9460 Y-37.6288 F120.00
G01 X3.1692 Y-37.3964 F120.00
G01 X3.1727 Y-37.3923 F120.00
G01 X3.1773 Y-37.3880 F120.00
G01 X3.2372 Y-37.3215 F120.00
G01 X3.2883 Y-37.2525 F120.00
G01 X3.3337 Y-37.1768 F120.00
G01 X3.3715 Y-37.0969 F120.00
G01 X3.4009 Y-37.0149 F120.00
G01 X3.4227 Y-36.9281 F120.00
G01 X3.4357 Y-36.8407 F120.00
G01 X3.4400 Y-36.7525 F120.00
G01 X3.4357 Y-36.6643 F120.00
G01 X3.4227 Y-36.5769 F120.00
G01 X3.4012 Y-36.4912 F120.00
G01 X3.3715 Y-36.4081 F120.00
G01 X3.3337 Y-36.3282 F120.00
G01 X3.2883 Y-36.2525 F120.00
G01 X3.2357 Y-36.1815 F120.00
G01 X3.1764 Y-36.1161 F120.00
G01 X3.1110 Y-36.0568 F120.00
G01 X3.0400 Y-36.0042 F120.00
G01 X2.9643 Y-35.9588 F120.00
G01 X2.8844 Y-35.9210 F120.00
G01 X2.8024 Y-35.8916 F120.00
G01 X2.7132 Y-35.8694 F120.00
G01 X2.6282 Y-35.8568 F120.00
G01 X2.5400 Y-35.8525 F120.00
G01 X2.4518 Y-35.8568 F120.00
G01 X2.3668 Y-35.8694 F120.00
G01 X2.2764 Y-35.8920 F120.00
G01 X2.1956 Y-35.9210 F120.00
G01 X2.1157 Y-35.9588 F120.00
G01 X2.0400 Y-36.0042 F120.00
G01 X1.9710 Y-36.0553 F120.00
G01 X1.9019 Y-36.1179 F120.00
G01 X1.8443 Y-36.1815 F120.00
G01 X1.7924 Y-36.2515 F120.00
G01 X1.7463 Y-36.3282 F120.00
G01 X1.7085 Y-36.4081 F120.00
G01 X1.6788 Y-36.4912 F120.00
G01 X1.6578 Y-36.5745 F120.00
G01 X1.6442 Y-36.6667 F120.00
G01 X1.6400 Y-36.7525 F120.00
G01 X1.6445 Y-36.8419 F120.00
G01 X1.6575 Y-36.9293 F120.00
G01 X1.6784 Y-37.0126 F120.00
G01 X1.6911 Y-37.0484 F120.00
G01 X1.7021 Y-37.1114 F120.00
G01 X1.7033 Y-37.1160 F120.00
G01 X1.7060 Y-37.1237 F120.00
G01 X1.8382 Y-37.3897 F120.00
G01 X1.9556 Y-37.6060 F120.00
G01 X1.9837 Y-37.8117 F120.00
G01 X1.8564 Y-38.0724 F120.00
G01 X1.8543 Y-38.0774 F120.00
G01 X1.7417 Y-38.2017 F120.00
G01 X1.6182 Y-38.3137 F120.00
G01 X1.4842 Y-38.4131 F120.00
G01 X1.3411 Y-38.4988 F120.00
G01 X1.1904 Y-38.5701 F120.00
G01 X1.0333 Y-38.6263 F120.00
G01 X0.8716 Y-38.6669 F120.00
G01 X0.7066 Y-38.6913 F120.00
G01 X0.5326 Y-38.6999 F120.00
G01 X-5.9926 Y-38.6999 F120.00
G01 X-6.1666 Y-38.6913 F120.00
G01 X-6.3316 Y-38.6669 F120.00
G01 X-6.4933 Y-38.6263 F120.00
G01 X-6.6504 Y-38.5701 F120.00
G01 X-6.8011 Y-38.4988 F120.00
G01 X-6.9442 Y-38.4131 F120.00
G01 X-7.0782 Y-38.3137 F120.00
G01 X-7.2017 Y-38.2017 F120.00
G01 X-7.3137 Y-38.0782 F120.00
G01 X-7.4131 Y-37.9442 F120.00
G01 X-7.4988 Y-37.8011 F120.00
G01 X-7.5701 Y-37.6504 F120.00
G01 X-7.6263 Y-37.4933 F120.00
G01 X-7.6669 Y-37.3316 F120.00
G01 X-7.6913 Y-37.1666 F120.00
G01 X-7.6999 Y-36.9926 F120.00
G01 X-7.6999 Y-30.3284 F120.00
G01 X-7.7078 Y-30.1410 F120.00
G01 X-7.7101 Y-30.1149 F120.00
G01 X-7.7328 Y-29.9420 F120.00
G01 X-7.7374 Y-29.9162 F120.00
G01 X-7.7751 Y-29.7458 F120.00
G01 X-7.7813 Y-29.7226 F120.00
G01 X-7.8351 Y-29.5521 F120.00
G01 X-7.8433 Y-29.5295 F120.00
G01 X-7.9101 Y-29.3683 F120.00
G01 X-7.9212 Y-29.3446 F120.00
G01 X-8.0017 Y-29.1898 F120.00
G01 X-8.0137 Y-29.1690 F120.00
G01 X-8.1098 Y-29.0182 F120.00
G01 X-8.1236 Y-28.9986 F120.00
G01 X-8.2312 Y-28.8584 F120.00
G01 X-8.2466 Y-28.8401 F120.00
G01 X-8.3645 Y-28.7115 F120.00
G01 X-8.3736 Y-28.7020 F120.00
G01 X-26.1973 Y-10.8782 F120.00
G01 X-26.3020 Y-10.7640 F120.00
G01 X-26.3922 Y-10.6464 F120.00
G01 X-26.4719 Y-10.5214 F120.00
G01 X-26.5403 Y-10.3899 F120.00
G01 X-26.5971 Y-10.2529 F120.00
G01 X-26.6417 Y-10.1115 F120.00
G01 X-26.6738 Y-9.9667 F120.00
G01 X-26.6931 Y-9.8197 F120.00
G01 X-26.6999 Y-9.6646 F120.00
G01 X-26.6999 Y3.5670 F120.00
G01 X-26.6913 Y3.7410 F120.00
G01 X-26.6669 Y3.9060 F120.00
G01 X-26.6263 Y4.0677 F120.00
G01 X-26.5701 Y4.2248 F120.00
G01 X-26.4988 Y4.3755 F120.00
G01 X-26.4131 Y4.5186 F120.00
G01 X-26.3137 Y4.6526 F120.00
G01 X-26.2017 Y4.7761 F120.00
G01 X-26.0782 Y4.8881 F120.00
G01 X-25.9442 Y4.9875 F120.00
G01 X-25.8011 Y5.0732 F120.00
G01 X-25.6504 Y5.1445 F120.00
G01 X-25.4933 Y5.2007 F120.00
G01 X-25.3316 Y5.2413 F120.00
G01 X-25.1666 Y5.2657 F120.00
G01 X-24.9926 Y5.2743 F120.00
G01 X-24.5874 Y5.2743 F120.00
G01 X-24.4187 Y5.2662 F120.00
G01 X-24.2587 Y5.2432 F120.00
G01 X-24.1015 Y5.2051 F120.00
G01 X-23.9486 Y5.1522 F120.00
G01 X-23.8015 Y5.0850 F120.00
G01 X-23.6615 Y5.0041 F120.00
G01 X-23.5297 Y4.9103 F120.00
G01 X-23.4075 Y4.8044 F120.00
G01 X-23.2959 Y4.6874 F120.00
G01 X-23.1959 Y4.5602 F120.00
G01 X-23.1046 Y4.4182 F120.00
G01 X-16.2559 Y-7.4441 F120.00
G01 X-16.1098 Y-7.7325 F120.00
G01 X-16.0446 Y-7.9521 F120.00
G01 X-16.0319 Y-8.1572 F120.00
G01 X-16.0447 Y-8.4060 F120.00
G01 X-16.0554 Y-8.7488 F120.00
G01 X-16.0508 Y-8.8407 F120.00
G01 X-16.0381 Y-8.9256 F120.00
G01 X-16.0173 Y-9.0089 F120.00
G01 X-15.9869 Y-9.0944 F120.00
G01 X-15.9479 Y-9.1764 F120.00
G01 X-15.9037 Y-9.2500 F120.00
G01 X-15.8519 Y-9.3200 F120.00
G01 X-15.7900 Y-9.3881 F120.00
G01 X-15.7264 Y-9.4457 F120.00
G01 X-15.6554 Y-9.4983 F120.00
G01 X-15.5797 Y-9.5437 F120.00
G01 X-15.5021 Y-9.5805 F120.00
G01 X-15.4143 Y-9.6119 F120.00
G01 X-15.3310 Y-9.6327 F120.00
G01 X-15.2436 Y-9.6457 F120.00
G01 X-15.1554 Y-9.6500 F120.00
G01 X-15.0696 Y-9.6458 F120.00
G01 X-14.9774 Y-9.6322 F120.00
G01 X-14.8941 Y-9.6112 F120.00
G01 X-14.8110 Y-9.5815 F120.00
G01 X-14.7311 Y-9.5437 F120.00
G01 X-14.6575 Y-9.4996 F120.00
G01 X-14.5844 Y-9.4457 F120.00
G01 X-14.5190 Y-9.3864 F120.00
G01 X-14.4613 Y-9.3228 F120.00
G01 X-14.4058 Y-9.2479 F120.00
G01 X-14.3617 Y-9.1743 F120.00
G01 X-14.3239 Y-9.0944 F120.00
G01 X-14.2942 Y-9.0113 F120.00
G01 X-14.2732 Y-8.9280 F120.00
G01 X-14.2596 Y-8.8358 F120.00
G01 X-14.2554 Y-8.7500 F120.00
G01 X-14.2596 Y-8.6630 F120.00
G01 X-14.2727 Y-8.5744 F120.00
G01 X-14.2935 Y-8.4911 F120.00
G01 X-14.3249 Y-8.4033 F120.00
G01 X-14.3617 Y-8.3257 F120.00
G01 X-14.4071 Y-8.2500 F120.00
G01 X-14.4597 Y-8.1790 F120.00
G01 X-14.5181 Y-8.1145 F120.00
G01 X-14.5844 Y-8.0543 F120.00
G01 X-14.6451 Y-8.0093 F120.00
G01 X-14.8251 Y-7.8607 F120.00
G01 X-14.8307 Y-7.8566 F120.00
G01 X-15.0899 Y-7.7145 F120.00
G01 X-15.3130 Y-7.6032 F120.00
G01 X-15.5200 Y-7.4408 F120.00
G01 X-15.7379 Y-7.1409 F120.00
G01 X-22.5883 Y4.7245 F120.00
G01 X-22.5958 Y4.7367 F120.00
G01 X-22.7000 Y4.8987 F120.00
G01 X-22.7152 Y4.9200 F120.00
G01 X-22.8329 Y5.0696 F120.00
G01 X-22.8516 Y5.0912 F120.00
G01 X-22.9829 Y5.2290 F120.00
G01 X-23.0018 Y5.2471 F120.00
G01 X-23.1493 Y5.3748 F120.00
G01 X-23.1699 Y5.3910 F120.00
G01 X-23.3249 Y5.5014 F120.00
G01 X-23.3490 Y5.5168 F120.00
G01 X-23.5138 Y5.6120 F120.00
G01 X-23.5370 Y5.6240 F120.00
G01 X-23.7145 Y5.7051 F120.00
G01 X-23.7388 Y5.7148 F120.00
G01 X-23.9187 Y5.7770 F120.00
G01 X-23.9461 Y5.7851 F120.00
G01 X-24.1310 Y5.8299 F120.00
G01 X-24.1579 Y5.8351 F120.00
G01 X-24.3475 Y5.8624 F120.00
G01 X-24.3735 Y5.8650 F120.00
G01 X-24.5672 Y5.8742 F120.00
G01 X-24.5803 Y5.8745 F120.00
G01 X-25.0012 Y5.8745 F120.00
G01 X-25.0147 Y5.8742 F120.00
G01 X-25.2120 Y5.8645 F120.00
G01 X-25.2401 Y5.8616 F120.00
G01 X-25.4342 Y5.8328 F120.00
G01 X-25.4631 Y5.8271 F120.00
G01 X-25.6535 Y5.7794 F120.00
G01 X-25.6793 Y5.7716 F120.00
G01 X-25.8676 Y5.7043 F120.00
G01 X-25.8937 Y5.6935 F120.00
G01 X-26.0711 Y5.6096 F120.00
G01 X-26.0971 Y5.5957 F120.00
G01 X-26.2654 Y5.4948 F120.00
G01 X-26.2879 Y5.4798 F120.00
G01 X-26.4495 Y5.3600 F120.00
G01 X-26.4703 Y5.3428 F120.00
G01 X-26.6158 Y5.2110 F120.00
G01 X-26.6366 Y5.1902 F120.00
G01 X-26.7684 Y5.0447 F120.00
G01 X-26.7856 Y5.0239 F120.00
G01 X-26.9054 Y4.8623 F120.00
G01 X-26.9204 Y4.8398 F120.00
G01 X-27.0213 Y4.6715 F120.00
G01 X-27.0352 Y4.6455 F120.00
G01 X-27.1191 Y4.4681 F120.00
G01 X-27.1295 Y4.4432 F120.00
G01 X-27.1972 Y4.2537 F120.00
G01 X-27.2050 Y4.2279 F120.00
G01 X-27.2527 Y4.0375 F120.00
G01 X-27.2584 Y4.0086 F120.00
G01 X-27.2872 Y3.8145 F120.00
G01 X-27.2900 Y3.7876 F120.00
G01 X-27.2998 Y3.5891 F120.00
G01 X-27.3001 Y3.5744 F120.00
G00 Z2.0000
G00 X-27.3501 Y3.5744
G01 F60.00
G01 Z-0.0500
G01 F120.00
G01 X-27.3501 Y-9.6716 F120.00
G01 X-27.3498 Y-9.6848 F120.00
G01 X-27.3422 Y-9.8612 F120.00
G01 X-27.3400 Y-9.8872 F120.00
G01 X-27.3161 Y-10.0689 F120.00
G01 X-27.3114 Y-10.0946 F120.00
G01 X-27.2726 Y-10.2692 F120.00
G01 X-27.2658 Y-10.2945 F120.00
G01 X-27.2133 Y-10.4609 F120.00
G01 X-27.2028 Y-10.4896 F120.00
G01 X-27.1361 Y-10.6508 F120.00
G01 X-27.1232 Y-10.6785 F120.00
G01 X-27.0426 Y-10.8332 F120.00
G01 X-27.0296 Y-10.8560 F120.00
G01 X-26.9312 Y-11.0105 F120.00
G01 X-26.9161 Y-11.0319 F120.00
G01 X-26.8071 Y-11.1737 F120.00
G01 X-26.7902 Y-11.1937 F120.00
G01 X-26.6724 Y-11.3223 F120.00
G01 X-26.6618 Y-11.3334 F120.00
G01 X-8.8388 Y-29.1564 F120.00
G01 X-8.7364 Y-29.2681 F120.00
G01 X-8.6488 Y-29.3823 F120.00
G01 X-8.5715 Y-29.5037 F120.00
G01 X-8.5050 Y-29.6313 F120.00
G01 X-8.4500 Y-29.7642 F120.00
G01 X-8.4067 Y-29.9015 F120.00
G01 X-8.3755 Y-30.0420 F120.00
G01 X-8.3568 Y-30.1847 F120.00
G01 X-8.3501 Y-30.3365 F120.00
G01 X-8.3501 Y-37.0000 F120.00
G01 X-8.3497 Y-37.0172 F120.00
G01 X-8.3401 Y-37.2132 F120.00
G01 X-8.3373 Y-37.2425 F120.00
G01 X-8.3071 Y-37.4464 F120.00
G01 X-8.3012 Y-37.4753 F120.00
G01 X-8.2522 Y-37.6704 F120.00
G01 X-8.2435 Y-37.6985 F120.00
G01 X-8.1757 Y-37.8879 F120.00
G01 X-8.1643 Y-37.9151 F120.00
G01 X-8.0804 Y-38.0925 F120.00
G01 X-8.0642 Y-38.1228 F120.00
G01 X-7.9633 Y-38.2911 F120.00
G01 X-7.9442 Y-38.3197 F120.00
G01 X-7.8272 Y-38.4774 F120.00
G01 X-7.8087 Y-38.5002 F120.00
G01 X-7.6736 Y-38.6493 F120.00
G01 X-7.6511 Y-38.6720 F120.00
G01 X-7.5039 Y-38.8054 F120.00
G01 X-7.4812 Y-38.8242 F120.00
G01 X-7.3197 Y-38.9442 F120.00
G01 X-7.2953 Y-38.9606 F120.00
G01 X-7.1185 Y-39.0666 F120.00
G01 X-7.0925 Y-39.0804 F120.00
G01 X-6.9106 Y-39.1663 F120.00
G01 X-6.8833 Y-39.1774 F120.00
G01 X-6.6939 Y-39.2451 F120.00
G01 X-6.6656 Y-39.2535 F120.00
G01 X-6.4705 Y-39.3023 F120.00
G01 X-6.4416 Y-39.3079 F120.00
G01 X-6.2425 Y-39.3373 F120.00
G01 X-6.2132 Y-39.3401 F120.00
G01 X-6.0147 Y-39.3498 F120.00
G01 X-6.0000 Y-39.3501 F120.00
G01 X0.5400 Y-39.3501 F120.00
G01 X0.5572 Y-39.3497 F120.00
G01 X0.7532 Y-39.3401 F120.00
G01 X0.7874 Y-39.3367 F120.00
G01 X0.9864 Y-39.3071 F120.00
G01 X1.0153 Y-39.3012 F120.00
G01 X1.2056 Y-39.2535 F120.00
G01 X1.2385 Y-39.2435 F120.00
G01 X1.4279 Y-39.1757 F120.00
G01 X1.4551 Y-39.1643 F120.00
G01 X1.6325 Y-39.0804 F120.00
G01 X1.6628 Y-39.0642 F120.00
G01 X1.8311 Y-38.9633 F120.00
G01 X1.8577 Y-38.9456 F120.00
G01 X2.0212 Y-38.8242 F120.00
G01 X2.0439 Y-38.8054 F120.00
G01 X2.1893 Y-38.6736 F120.00
G01 X2.2136 Y-38.6493 F120.00
G01 X2.3487 Y-38.5002 F120.00
G01 X2.3672 Y-38.4774 F120.00
G01 X2.4842 Y-38.3197 F120.00
G01 X2.4920 Y-38.3081 F120.00
G01 X2.5743 Y-38.1974 F120.00
G01 X2.7132 Y-38.0010 F120.00
G01 X2.8332 Y-37.8387 F120.00
G01 X2.9831 Y-37.6623 F120.00
G01 X3.2135 Y-37.4225 F120.00
G01 X3.2712 Y-37.3589 F120.00
G01 X3.2774 Y-37.3513 F120.00
G01 X3.3299 Y-37.2803 F120.00
G01 X3.3778 Y-37.2003 F120.00
G01 X3.4177 Y-37.1160 F120.00
G01 X3.4491 Y-37.0283 F120.00
G01 X3.4717 Y-36.9378 F120.00
G01 X3.4854 Y-36.8456 F120.00
G01 X3.4900 Y-36.7525 F120.00
G01 X3.4854 Y-36.6594 F120.00
G01 X3.4717 Y-36.5672 F120.00
G01 X3.4491 Y-36.4767 F120.00
G01 X3.4177 Y-36.3890 F120.00
G01 X3.3778 Y-36.3047 F120.00
G01 X3.3299 Y-36.2247 F120.00
G01 X3.2744 Y-36.1498 F120.00
G01 X3.2118 Y-36.0807 F120.00
G01 X3.1427 Y-36.0181 F120.00
G01 X3.0678 Y-35.9626 F120.00
G01 X2.9878 Y-35.9147 F120.00
G01 X2.9035 Y-35.8748 F120.00
G01 X2.8158 Y-35.8434 F120.00
G01 X2.7301 Y-35.8218 F120.00
G01 X2.7205 Y-35.8199 F120.00
G01 X2.6331 Y-35.8071 F120.00
G01 X2.5400 Y-35.8025 F120.00
G01 X2.4469 Y-35.8071 F120.00
G01 X2.3595 Y-35.8199 F120.00
G01 X2.3499 Y-35.8218 F120.00
G01 X2.2690 Y-35.8421 F120.00
G01 X2.2596 Y-35.8449 F120.00
G01 X2.1765 Y-35.8748 F120.00
G01 X2.0922 Y-35.9147 F120.00
G01 X2.0122 Y-35.9626 F120.00
G01 X1.9412 Y-36.0151 F120.00
G01 X1.9336 Y-36.0213 F120.00
G01 X1.8718 Y-36.0774 F120.00
G01 X1.8649 Y-36.0843 F120.00
G01 X1.8056 Y-36.1498 F120.00
G01 X1.7515 Y-36.2227 F120.00
G01 X1.7475 Y-36.2289 F120.00
G01 X1.7022 Y-36.3047 F120.00
G01 X1.6623 Y-36.3890 F120.00
G01 X1.6309 Y-36.4767 F120.00
G01 X1.6093 Y-36.5624 F120.00
G01 X1.6074 Y-36.5720 F120.00
G01 X1.5952 Y-36.6545 F120.00
G01 X1.5942 Y-36.6643 F120.00
G01 X1.5900 Y-36.7525 F120.00
G01 X1.5942 Y-36.8407 F120.00
G01 X1.5948 Y-36.8481 F120.00
G01 X1.6074 Y-36.9330 F120.00
G01 X1.6088 Y-36.9402 F120.00
G01 X1.6302 Y-37.0259 F120.00
G01 X1.6426 Y-37.0613 F120.00
G01 X1.6531 Y-37.1212 F120.00
G01 X1.6548 Y-37.1282 F120.00
G01 X1.6580 Y-37.1383 F120.00
G01 X1.6627 Y-37.1493 F120.00
G01 X1.7938 Y-37.4127 F120.00
G01 X1.9073 Y-37.6218 F120.00
G01 X1.9321 Y-37.8034 F120.00
G01 X1.8116 Y-38.0502 F120.00
G01 X1.7063 Y-38.1663 F120.00
G01 X1.5864 Y-38.2750 F120.00
G01 X1.4564 Y-38.3715 F120.00
G01 X1.3175 Y-38.4547 F120.00
G01 X1.1712 Y-38.5239 F120.00
G01 X1.0188 Y-38.5784 F120.00
G01 X0.8618 Y-38.6178 F120.00
G01 X0.7017 Y-38.6415 F120.00
G01 X0.5314 Y-38.6499 F120.00
G01 X-5.9914 Y-38.6499 F120.00
G01 X-6.1617 Y-38.6415 F120.00
G01 X-6.3218 Y-38.6178 F120.00
G01 X-6.4788 Y-38.5784 F120.00
G01 X-6.6312 Y-38.5239 F120.00
G01 X-6.7775 Y-38.4547 F120.00
G01 X-6.9164 Y-38.3715 F120.00
G01 X-7.0464 Y-38.2750 F120.00
G01 X-7.1663 Y-38.1663 F120.00
G01 X-7.2750 Y-38.0464 F120.00
G01 X-7.3715 Y-37.9164 F120.00
G01 X-7.4547 Y-37.7775 F120.00
G01 X-7.5239 Y-37.6312 F120.00
G01 X-7.5784 Y-37.4788 F120.00
G01 X-7.6178 Y-37.3218 F120.00
G01 X-7.6415 Y-37.1617 F120.00
G01 X-7.6499 Y-36.9914 F120.00
G01 X-7.6499 Y-30.3284 F120.00
G01 X-7.6502 Y-30.3132 F120.00
G01 X-7.6578 Y-30.1388 F120.00
G01 X-7.6605 Y-30.1084 F120.00
G01 X-7.6833 Y-29.9354 F120.00
G01 X-7.6886 Y-29.9054 F120.00
G01 X-7.7263 Y-29.7350 F120.00
G01 X-7.7330 Y-29.7097 F120.00
G01 X-7.7881 Y-29.5350 F120.00
G01 X-7.7972 Y-29.5104 F120.00
G01 X-7.8639 Y-29.3492 F120.00
G01 X-7.8768 Y-29.3215 F120.00
G01 X-7.9574 Y-29.1668 F120.00
G01 X-7.9704 Y-29.1440 F120.00
G01 X-8.0688 Y-28.9895 F120.00
G01 X-8.0839 Y-28.9681 F120.00
G01 X-8.1929 Y-28.8263 F120.00
G01 X-8.2098 Y-28.8063 F120.00
G01 X-8.3276 Y-28.6777 F120.00
G01 X-8.3382 Y-28.6666 F120.00
G01 X-26.1612 Y-10.8436 F120.00
G01 X-26.2636 Y-10.7319 F120.00
G01 X-26.3512 Y-10.6177 F120.00
G01 X-26.4285 Y-10.4963 F120.00
G01 X-26.4950 Y-10.3687 F120.00
G01 X-26.5500 Y-10.2358 F120.00
G01 X-26.5933 Y-10.0985 F120.00
G01 X-26.6245 Y-9.9580 F120.00
G01 X-26.6432 Y-9.8153 F120.00
G01 X-26.6499 Y-9.6635 F120.00
G01 X-26.6499 Y3.5658 F120.00
G01 X-26.6415 Y3.7361 F120.00
G01 X-26.6178 Y3.8962 F120.00
G01 X-26.5784 Y4.0532 F120.00
G01 X-26.5239 Y4.2056 F120.00
G01 X-26.4547 Y4.3519 F120.00
G01 X-26.3715 Y4.4908 F120.00
G01 X-26.2750 Y4.6208 F120.00
G01 X-26.1663 Y4.7407 F120.00
G01 X-26.0464 Y4.8494 F120.00
G01 X-25.9164 Y4.9459 F120.00
G01 X-25.7775 Y5.0291 F120.00
G01 X-25.6312 Y5.0983 F120.00
G01 X-25.4788 Y5.1528 F120.00
G01 X-25.3218 Y5.1922 F120.00
G01 X-25.1617 Y5.2159 F120.00
G01 X-24.9914 Y5.2243 F120.00
G01 X-24.5886 Y5.2243 F120.00
G01 X-24.4235 Y5.2164 F120.00
G01 X-24.2681 Y5.1941 F120.00
G01 X-24.1156 Y5.1571 F120.00
G01 X-23.9672 Y5.1057 F120.00
G01 X-23.8245 Y5.0405 F120.00
G01 X-23.6885 Y4.9620 F120.00
G01 X-23.5607 Y4.8710 F120.00
G01 X-23.4420 Y4.7682 F120.00
G01 X-23.3337 Y4.6546 F120.00
G01 X-23.2367 Y4.5312 F120.00
G01 X-23.1473 Y4.3921 F120.00
G01 X-16.3006 Y-7.4666 F120.00
G01 X-16.1565 Y-7.7511 F120.00
G01 X-16.0942 Y-7.9609 F120.00
G01 X-16.0819 Y-8.1574 F120.00
G01 X-16.0947 Y-8.4041 F120.00
G01 X-16.1054 Y-8.7500 F120.00
G01 X-16.1008 Y-8.8431 F120.00
G01 X-16.0880 Y-8.9305 F120.00
G01 X-16.0866 Y-8.9377 F120.00
G01 X-16.0658 Y-9.0210 F120.00
G01 X-16.0630 Y-9.0304 F120.00
G01 X-16.0331 Y-9.1135 F120.00
G01 X-15.9954 Y-9.1934 F120.00
G01 X-15.9908 Y-9.2021 F120.00
G01 X-15.9453 Y-9.2778 F120.00
G01 X-15.8898 Y-9.3527 F120.00
G01 X-15.8305 Y-9.4182 F120.00
G01 X-15.8236 Y-9.4251 F120.00
G01 X-15.7581 Y-9.4844 F120.00
G01 X-15.6832 Y-9.5399 F120.00
G01 X-15.6032 Y-9.5878 F120.00
G01 X-15.5234 Y-9.6257 F120.00
G01 X-15.5144 Y-9.6295 F120.00
G01 X-15.4358 Y-9.6576 F120.00
G01 X-15.4264 Y-9.6604 F120.00
G01 X-15.3407 Y-9.6817 F120.00
G01 X-15.2485 Y-9.6954 F120.00
G01 X-15.1554 Y-9.7000 F120.00
G01 X-15.0672 Y-9.6958 F120.00
G01 X-15.0574 Y-9.6948 F120.00
G01 X-14.9749 Y-9.6826 F120.00
G01 X-14.9653 Y-9.6807 F120.00
G01 X-14.8796 Y-9.6591 F120.00
G01 X-14.7919 Y-9.6277 F120.00
G01 X-14.7076 Y-9.5878 F120.00
G01 X-14.6318 Y-9.5425 F120.00
G01 X-14.6236 Y-9.5371 F120.00
G01 X-14.5527 Y-9.4844 F120.00
G01 X-14.4836 Y-9.4218 F120.00
G01 X-14.4242 Y-9.3564 F120.00
G01 X-14.4180 Y-9.3488 F120.00
G01 X-14.3683 Y-9.2818 F120.00
G01 X-14.3629 Y-9.2736 F120.00
G01 X-14.3176 Y-9.1978 F120.00
G01 X-14.2777 Y-9.1135 F120.00
G01 X-14.2463 Y-9.0258 F120.00
G01 X-14.2247 Y-8.9401 F120.00
G01 X-14.2228 Y-8.9305 F120.00
G01 X-14.2106 Y-8.8480 F120.00
G01 X-14.2096 Y-8.8382 F120.00
G01 X-14.2054 Y-8.7500 F120.00
G01 X-14.2098 Y-8.6593 F120.00
G01 X-14.2106 Y-8.6520 F120.00
G01 X-14.2237 Y-8.5647 F120.00
G01 X-14.2450 Y-8.4790 F120.00
G01 X-14.2478 Y-8.4696 F120.00
G01 X-14.2759 Y-8.3910 F120.00
G01 X-14.2797 Y-8.3820 F120.00
G01 X-14.3176 Y-8.3022 F120.00
G01 X-14.3655 Y-8.2222 F120.00
G01 X-14.4210 Y-8.1473 F120.00
G01 X-14.4819 Y-8.0800 F120.00
G01 X-14.4872 Y-8.0749 F120.00
G01 X-14.5527 Y-8.0156 F120.00
G01 X-14.6142 Y-7.9699 F120.00
G01 X-14.7933 Y-7.8221 F120.00
G01 X-14.8027 Y-7.8152 F120.00
G01 X-14.8107 Y-7.8103 F120.00
G01 X-15.0667 Y-7.6702 F120.00
G01 X-15.2862 Y-7.5607 F120.00
G01 X-15.4837 Y-7.4057 F120.00
G01 X-15.6966 Y-7.1124 F120.00
G01 X-22.5450 Y4.7495 F120.00
G01 X-22.5537 Y4.7637 F120.00
G01 X-22.6593 Y4.9277 F120.00
G01 X-22.6759 Y4.9509 F120.00
G01 X-22.7936 Y5.1006 F120.00
G01 X-22.8154 Y5.1257 F120.00
G01 X-22.9467 Y5.2635 F120.00
G01 X-22.9691 Y5.2849 F120.00
G01 X-23.1184 Y5.4141 F120.00
G01 X-23.1409 Y5.4317 F120.00
G01 X-23.2959 Y5.5421 F120.00
G01 X-23.3240 Y5.5601 F120.00
G01 X-23.4888 Y5.6553 F120.00
G01 X-23.5141 Y5.6685 F120.00
G01 X-23.6959 Y5.7515 F120.00
G01 X-23.7225 Y5.7620 F120.00
G01 X-23.9023 Y5.8243 F120.00
G01 X-23.9343 Y5.8336 F120.00
G01 X-24.1193 Y5.8785 F120.00
G01 X-24.1496 Y5.8845 F120.00
G01 X-24.3404 Y5.9119 F120.00
G01 X-24.3688 Y5.9147 F120.00
G01 X-24.5661 Y5.9242 F120.00
G01 X-24.5803 Y5.9245 F120.00
G01 X-25.0025 Y5.9245 F120.00
G01 X-25.0172 Y5.9241 F120.00
G01 X-25.2157 Y5.9143 F120.00
G01 X-25.2474 Y5.9111 F120.00
G01 X-25.4416 Y5.8823 F120.00
G01 X-25.4753 Y5.8756 F120.00
G01 X-25.6656 Y5.8279 F120.00
G01 X-25.6939 Y5.8195 F120.00
G01 X-25.8856 Y5.7510 F120.00
G01 X-25.9151 Y5.7387 F120.00
G01 X-26.0925 Y5.6548 F120.00
G01 X-26.1228 Y5.6386 F120.00
G01 X-26.2911 Y5.5377 F120.00
G01 X-26.3157 Y5.5214 F120.00
G01 X-26.4812 Y5.3986 F120.00
G01 X-26.5039 Y5.3798 F120.00
G01 X-26.6493 Y5.2480 F120.00
G01 X-26.6736 Y5.2237 F120.00
G01 X-26.8054 Y5.0783 F120.00
G01 X-26.8242 Y5.0556 F120.00
G01 X-26.9470 Y4.8901 F120.00
G01 X-26.9633 Y4.8655 F120.00
G01 X-27.0642 Y4.6972 F120.00
G01 X-27.0804 Y4.6669 F120.00
G01 X-27.1643 Y4.4895 F120.00
G01 X-27.1757 Y4.4623 F120.00
G01 X-27.2451 Y4.2683 F120.00
G01 X-27.2535 Y4.2400 F120.00
G01 X-27.3012 Y4.0497 F120.00
G01 X-27.3079 Y4.0160 F120.00
G01 X-27.3367 Y3.8218 F120.00
G01 X-27.3397 Y3.7925 F120.00
G01 X-27.3497 Y3.5916 F120.00
G01 X-27.3501 Y3.5744 F120.00
G00 Z2.0000
G00 X-17.3497 Y-15.5172
G01 F60.00
G01 Z-0.0500
G01 F120.00
G01 X-17.3401 Y-15.7132 F120.00
G01 X-17.3373 Y-15.7425 F120.00
G01 X-17.3071 Y-15.9464 F120.00
G01 X-17.3012 Y-15.9753 F120.00
G01 X-17.2522 Y-16.1704 F120.00
G01 X-17.2435 Y-16.1985 F120.00
G01 X-17.1774 Y-16.3833 F120.00
G01 X-17.1643 Y-16.4151 F120.00
G01 X-17.0804 Y-16.5925 F120.00
G01 X-17.0642 Y-16.6228 F120.00
G01 X-16.9633 Y-16.7911 F120.00
G01 X-16.9470 Y-16.8157 F120.00
G01 X-16.8272 Y-16.9774 F120.00
G01 X-16.8087 Y-17.0002 F120.00
G01 X-16.6703 Y-17.1529 F120.00
G01 X-16.6493 Y-17.1736 F120.00
G01 X-16.5002 Y-17.3087 F120.00
G01 X-16.4774 Y-17.3272 F120.00
G01 X-16.3157 Y-17.4470 F120.00
G01 X-16.2911 Y-17.4633 F120.00
G01 X-16.1228 Y-17.5642 F120.00
G01 X-16.0925 Y-17.5804 F120.00
G01 X-15.9151 Y-17.6643 F120.00
G01 X-15.8833 Y-17.6774 F120.00
G01 X-15.6985 Y-17.7435 F120.00
G01 X-15.6704 Y-17.7522 F120.00
G01 X-15.4753 Y-17.8012 F120.00
G01 X-15.4440 Y-17.8075 F120.00
G01 X-15.2474 Y-17.8367 F120.00
G01 X-15.2181 Y-17.8397 F120.00
G01 X-15.0172 Y-17.8497 F120.00
G01 X-15.0000 Y-17.8501 F120.00
G01 X-1.8015 Y-17.8501 F120.00
G01 X-1.4374 Y-17.8803 F120.00
G01 X-1.1998 Y-17.9597 F120.00
G01 X-0.9969 Y-18.0821 F120.00
G01 X-0.7474 Y-18.2431 F120.00
G01 X-0.4900 Y-18.3709 F120.00
G01 X-0.4692 Y-18.3831 F120.00
G01 X-0.3827 Y-18.4239 F120.00
G01 X-0.2903 Y-18.4569 F120.00
G01 X-0.1999 Y-18.4797 F120.00
G01 X-0.1903 Y-18.4816 F120.00
G01 X-0.1029 Y-18.4946 F120.00
G01 X-0.0931 Y-18.4955 F120.00
G01 X0.0000 Y-18.5000 F120.00
G01 X0.0931 Y-18.4955 F120.00
G01 X0.1029 Y-18.4946 F120.00
G01 X0.1951 Y-18.4808 F120.00
G01 X0.2856 Y-18.4582 F120.00
G01 X0.2949 Y-18.4554 F120.00
G01 X0.3781 Y-18.4256 F120.00
G01 X0.3872 Y-18.4219 F120.00
G01 X0.4714 Y-18.3819 F120.00
G01 X0.5556 Y-18.3315 F120.00
G01 X0.6344 Y-18.2730 F120.00
G01 X0.7071 Y-18.2071 F120.00
G01 X0.7730 Y-18.1344 F120.00
G01 X0.8315 Y-18.0556 F120.00
G01 X0.8819 Y-17.9714 F120.00
G01 X0.9219 Y-17.8872 F120.00
G01 X0.9256 Y-17.8781 F120.00
G01 X0.9554 Y-17.7949 F120.00
G01 X0.9582 Y-17.7856 F120.00
G01 X0.9808 Y-17.6951 F120.00
G01 X0.9946 Y-17.6029 F120.00
G01 X0.9955 Y-17.5931 F120.00
G01 X1.0000 Y-17.5000 F120.00
G01 X0.9952 Y-17.4020 F120.00
G01 X0.9808 Y-17.3049 F120.00
G01 X0.9569 Y-17.2097 F120.00
G01 X0.9239 Y-17.1173 F120.00
G01 X0.8819 Y-17.0286 F120.00
G01 X0.8315 Y-16.9444 F120.00
G01 X0.7760 Y-16.8695 F120.00
G01 X0.7698 Y-16.8619 F120.00
G01 X0.7071 Y-16.7929 F120.00
G01 X0.6381 Y-16.7302 F120.00
G01 X0.6305 Y-16.7240 F120.00
G01 X0.5596 Y-16.6714 F120.00
G01 X0.5514 Y-16.6659 F120.00
G01 X0.4714 Y-16.6181 F120.00
G01 X0.3827 Y-16.5761 F120.00
G01 X0.2903 Y-16.5431 F120.00
G01 X0.1951 Y-16.5192 F120.00
G01 X0.0980 Y-16.5048 F120.00
G01 X0.0049 Y-16.5001 F120.00
G01 X-0.0049 Y-16.5001 F120.00
G01 X-0.0980 Y-16.5048 F120.00
G01 X-0.1903 Y-16.5184 F120.00
G01 X-0.1999 Y-16.5203 F120.00
G01 X-0.2903 Y-16.5431 F120.00
G01 X-0.3781 Y-16.5744 F120.00
G01 X-0.3872 Y-16.5781 F120.00
G01 X-0.4692 Y-16.6169 F120.00
G01 X-0.4899 Y-16.6291 F120.00
G01 X-0.7450 Y-16.7556 F120.00
G01 X-0.7535 Y-16.7605 F120.00
G01 X-0.9969 Y-16.9179 F120.00
G01 X-1.1998 Y-17.0403 F120.00
G01 X-1.4374 Y-17.1196 F120.00
G01 X-1.8015 Y-17.1499 F120.00
G01 X-14.9914 Y-17.1499 F120.00
G01 X-15.1617 Y-17.1415 F120.00
G01 X-15.3218 Y-17.1178 F120.00
G01 X-15.4788 Y-17.0784 F120.00
G01 X-15.6312 Y-17.0239 F120.00
G01 X-15.7775 Y-16.9547 F120.00
G01 X-15.9164 Y-16.8715 F120.00
G01 X-16.0464 Y-16.7750 F120.00
G01 X-16.1663 Y-16.6663 F120.00
G01 X-16.2750 Y-16.5464 F120.00
G01 X-16.3715 Y-16.4164 F120.00
G01 X-16.4547 Y-16.2775 F120.00
G01 X-16.5239 Y-16.1312 F120.00
G01 X-16.5784 Y-15.9788 F120.00
G01 X-16.6178 Y-15.8218 F120.00
G01 X-16.6415 Y-15.6617 F120.00
G01 X-16.6495 Y-15.5000 F120.00
G01 X-16.6415 Y-15.3383 F120.00
G01 X-16.6178 Y-15.1782 F120.00
G01 X-16.5784 Y-15.0212 F120.00
G01 X-16.5239 Y-14.8688 F120.00
G01 X-16.4547 Y-14.7225 F120.00
G01 X-16.3715 Y-14.5836 F120.00
G01 X-16.2750 Y-14.4536 F120.00
G01 X-16.1663 Y-14.3337 F120.00
G01 X-16.0464 Y-14.2250 F120.00
G01 X-15.9164 Y-14.1285 F120.00
G01 X-15.7775 Y-14.0453 F120.00
G01 X-15.6312 Y-13.9761 F120.00
G01 X-15.4788 Y-13.9216 F120.00
G01 X-15.3218 Y-13.8822 F120.00
G01 X-15.1617 Y-13.8585 F120.00
G01 X-14.9914 Y-13.8501 F120.00
G01 X1.9914 Y-13.8501 F120.00
G01 X2.1617 Y-13.8585 F120.00
G01 X2.3218 Y-13.8822 F120.00
G01 X2.4788 Y-13.9216 F120.00
G01 X2.6312 Y-13.9761 F120.00
G01 X2.7775 Y-14.0453 F120.00
G01 X2.9164 Y-14.1285 F120.00
G01 X3.0464 Y-14.2250 F120.00
G01 X3.1663 Y-14.3337 F120.00
G01 X3.2750 Y-14.4536 F120.00
G01 X3.3715 Y-14.5836 F120.00
G01 X3.4547 Y-14.7225 F120.00
G01 X3.5239 Y-14.8688 F120.00
G01 X3.5784 Y-15.0212 F120.00
G01 X3.6178 Y-15.1782 F120.00
G01 X3.6415 Y-15.3383 F120.00
G01 X3.6499 Y-15.5086 F120.00
G01 X3.6499 Y-18.6639 F120.00
G01 X3.6433 Y-18.8153 F120.00
G01 X3.6245 Y-18.9580 F120.00
G01 X3.5933 Y-19.0985 F120.00
G01 X3.5501 Y-19.2358 F120.00
G01 X3.4950 Y-19.3687 F120.00
G01 X3.4286 Y-19.4964 F120.00
G01 X3.3512 Y-19.6177 F120.00
G01 X3.2636 Y-19.7319 F120.00
G01 X3.1616 Y-19.8433 F120.00
G01 X-2.2018 Y-25.2066 F120.00
G01 X-2.2124 Y-25.2177 F120.00
G01 X-2.3302 Y-25.3463 F120.00
G01 X-2.3499 Y-25.3697 F120.00
G01 X-2.4587 Y-25.5116 F120.00
G01 X-2.4736 Y-25.5331 F120.00
G01 X-2.5674 Y-25.6803 F120.00
G01 X-2.5826 Y-25.7068 F120.00
G01 X-2.6651 Y-25.8654 F120.00
G01 X-2.6761 Y-25.8892 F120.00
G01 X-2.7429 Y-26.0504 F120.00
G01 X-2.7533 Y-26.0791 F120.00
G01 X-2.8058 Y-26.2455 F120.00
G01 X-2.8132 Y-26.2729 F120.00
G01 X-2.8523 Y-26.4496 F120.00
G01 X-2.8568 Y-26.4754 F120.00
G01 X-2.8795 Y-26.6484 F120.00
G01 X-2.8822 Y-26.6788 F120.00
G01 X-2.8901 Y-26.8660 F120.00
G01 X-2.8901 Y-32.5113 F120.00
G01 X-2.9173 Y-32.8539 F120.00
G01 X-2.9891 Y-33.0779 F120.00
G01 X-3.1005 Y-33.2695 F120.00
G01 X-3.2488 Y-33.5051 F120.00
G01 X-3.3698 Y-33.7511 F120.00
G01 X-3.3790 Y-33.7669 F120.00
G01 X-3.4157 Y-33.8445 F120.00
G01 X-3.4186 Y-33.8512 F120.00
G01 X-3.4476 Y-33.9321 F120.00
G01 X-3.4504 Y-33.9415 F120.00
G01 X-3.4717 Y-34.0272 F120.00
G01 X-3.4848 Y-34.1145 F120.00
G01 X-3.4858 Y-34.1243 F120.00
G01 X-3.4900 Y-34.2125 F120.00
G01 X-3.4854 Y-34.3056 F120.00
G01 X-3.4726 Y-34.3930 F120.00
G01 X-3.4707 Y-34.4026 F120.00
G01 X-3.4491 Y-34.4883 F120.00
G01 X-3.4195 Y-34.5715 F120.00
G01 X-3.4157 Y-34.5805 F120.00
G01 X-3.3778 Y-34.6603 F120.00
G01 X-3.3325 Y-34.7361 F120.00
G01 X-3.3271 Y-34.7443 F120.00
G01 X-3.2744 Y-34.8152 F120.00
G01 X-3.2151 Y-34.8807 F120.00
G01 X-3.2082 Y-34.8876 F120.00
G01 X-3.1427 Y-34.9469 F120.00
G01 X-3.0678 Y-35.0024 F120.00
G01 X-2.9921 Y-35.0479 F120.00
G01 X-2.9834 Y-35.0525 F120.00
G01 X-2.9035 Y-35.0902 F120.00
G01 X-2.8204 Y-35.1201 F120.00
G01 X-2.8110 Y-35.1229 F120.00
G01 X-2.7253 Y-35.1442 F120.00
G01 X-2.6380 Y-35.1573 F120.00
G01 X-2.6282 Y-35.1583 F120.00
G01 X-2.5400 Y-35.1625 F120.00
G01 X-2.4518 Y-35.1583 F120.00
G01 X-2.4420 Y-35.1573 F120.00
G01 X-2.3547 Y-35.1442 F120.00
G01 X-2.2690 Y-35.1229 F120.00
G01 X-2.2596 Y-35.1201 F120.00
G01 X-2.1765 Y-35.0902 F120.00
G01 X-2.0966 Y-35.0525 F120.00
G01 X-2.0879 Y-35.0479 F120.00
G01 X-2.0122 Y-35.0024 F120.00
G01 X-1.9392 Y-34.9484 F120.00
G01 X-1.9336 Y-34.9437 F120.00
G01 X-1.8682 Y-34.8843 F120.00
G01 X-1.8056 Y-34.8152 F120.00
G01 X-1.7501 Y-34.7403 F120.00
G01 X-1.7046 Y-34.6646 F120.00
G01 X-1.7000 Y-34.6559 F120.00
G01 X-1.6643 Y-34.5805 F120.00
G01 X-1.6605 Y-34.5715 F120.00
G01 X-1.6309 Y-34.4883 F120.00
G01 X-1.6093 Y-34.4026 F120.00
G01 X-1.6074 Y-34.3930 F120.00
G01 X-1.5946 Y-34.3056 F120.00
G01 X-1.5901 Y-34.2174 F120.00
G01 X-1.5900 Y-34.2100 F120.00
G01 X-1.5946 Y-34.1194 F120.00
G01 X-1.6083 Y-34.0272 F120.00
G01 X-1.6309 Y-33.9367 F120.00
G01 X-1.6605 Y-33.8535 F120.00
G01 X-1.6633 Y-33.8467 F120.00
G01 X-1.7010 Y-33.7669 F120.00
G01 X-1.7102 Y-33.7511 F120.00
G01 X-1.8312 Y-33.5052 F120.00
G01 X-1.9795 Y-33.2695 F120.00
G01 X-2.0910 Y-33.0779 F120.00
G01 X-2.1627 Y-32.8539 F120.00
G01 X-2.1899 Y-32.5113 F120.00
G01 X-2.1899 Y-26.8761 F120.00
G01 X-2.1833 Y-26.7247 F120.00
G01 X-2.1645 Y-26.5820 F120.00
G01 X-2.1333 Y-26.4415 F120.00
G01 X-2.0901 Y-26.3042 F120.00
G01 X-2.0350 Y-26.1713 F120.00
G01 X-1.9686 Y-26.0436 F120.00
G01 X-1.8912 Y-25.9223 F120.00
G01 X-1.8036 Y-25.8081 F120.00
G01 X-1.7016 Y-25.6967 F120.00
G01 X3.6635 Y-20.3316 F120.00
G01 X3.6724 Y-20.3223 F120.00
G01 X3.7931 Y-20.1904 F120.00
G01 X3.8099 Y-20.1703 F120.00
G01 X3.9187 Y-20.0284 F120.00
G01 X3.9336 Y-20.0069 F120.00
G01 X4.0296 Y-19.8560 F120.00
G01 X4.0426 Y-19.8332 F120.00
G01 X4.1242 Y-19.6765 F120.00
G01 X4.1361 Y-19.6508 F120.00
G01 X4.2045 Y-19.4855 F120.00
G01 X4.2133 Y-19.4609 F120.00
G01 X4.2658 Y-19.2945 F120.00
G01 X4.2726 Y-19.2692 F120.00
G01 X4.3114 Y-19.0946 F120.00
G01 X4.3161 Y-19.0689 F120.00
G01 X4.3395 Y-18.8916 F120.00
G01 X4.3422 Y-18.8612 F120.00
G01 X4.3498 Y-18.6868 F120.00
G01 X4.3501 Y-18.6716 F120.00
G01 X4.3501 Y-15.5000 F120.00
G01 X4.3497 Y-15.4828 F120.00
G01 X4.3401 Y-15.2868 F120.00
G01 X4.3367 Y-15.2526 F120.00
G01 X4.3079 Y-15.0584 F120.00
G01 X4.3012 Y-15.0247 F120.00
G01 X4.2535 Y-14.8344 F120.00
G01 X4.2451 Y-14.8061 F120.00
G01 X4.1757 Y-14.6121 F120.00
G01 X4.1643 Y-14.5849 F120.00
G01 X4.0804 Y-14.4075 F120.00
G01 X4.0642 Y-14.3772 F120.00
G01 X3.9633 Y-14.2089 F120.00
G01 X3.9470 Y-14.1843 F120.00
G01 X3.8258 Y-14.0207 F120.00
G01 X3.8054 Y-13.9961 F120.00
G01 X3.6703 Y-13.8471 F120.00
G01 X3.6493 Y-13.8264 F120.00
G01 X3.5039 Y-13.6946 F120.00
G01 X3.4812 Y-13.6758 F120.00
G01 X3.3197 Y-13.5558 F120.00
G01 X3.2953 Y-13.5394 F120.00
G01 X3.1228 Y-13.4358 F120.00
G01 X3.0925 Y-13.4196 F120.00
G01 X2.9106 Y-13.3337 F120.00
G01 X2.8833 Y-13.3226 F120.00
G01 X2.6985 Y-13.2565 F120.00
G01 X2.6656 Y-13.2465 F120.00
G01 X2.4753 Y-13.1988 F120.00
G01 X2.4416 Y-13.1921 F120.00
G01 X2.2425 Y-13.1627 F120.00
G01 X2.2132 Y-13.1599 F120.00
G01 X2.0172 Y-13.1503 F120.00
G01 X2.0000 Y-13.1499 F120.00
G01 X-15.0000 Y-13.1499 F120.00
G01 X-15.0172 Y-13.1503 F120.00
G01 X-15.2157 Y-13.1601 F120.00
G01 X-15.2474 Y-13.1633 F120.00
G01 X-15.4464 Y-13.1929 F120.00
G01 X-15.4753 Y-13.1988 F120.00
G01 X-15.6704 Y-13.2478 F120.00
G01 X-15.6985 Y-13.2565 F120.00
G01 X-15.8879 Y-13.3243 F120.00
G01 X-15.9151 Y-13.3357 F120.00
G01 X-16.0969 Y-13.4219 F120.00
G01 X-16.1228 Y-13.4358 F120.00
G01 X-16.2953 Y-13.5394 F120.00
G01 X-16.3197 Y-13.5558 F120.00
G01 X-16.4812 Y-13.6758 F120.00
G01 X-16.5039 Y-13.6946 F120.00
G01 X-16.6529 Y-13.8297 F120.00
G01 X-16.6736 Y-13.8507 F120.00
G01 X-16.8054 Y-13.9961 F120.00
G01 X-16.8272 Y-14.0226 F120.00
G01 X-16.9470 Y-14.1843 F120.00
G01 X-16.9633 Y-14.2089 F120.00
G01 X-17.0642 Y-14.3772 F120.00
G01 X-17.0804 Y-14.4075 F120.00
G01 X-17.1643 Y-14.5849 F120.00
G01 X-17.1774 Y-14.6167 F120.00
G01 X-17.2435 Y-14.8015 F120.00
G01 X-17.2522 Y-14.8296 F120.00
G01 X-17.3012 Y-15.0247 F120.00
G01 X-17.3071 Y-15.0536 F120.00
G01 X-17.3367 Y-15.2526 F120.00
G01 X-17.3397 Y-15.2819 F120.00
G01 X-17.3497 Y-15.4828 F120.00
G01 X-17.3500 Y-15.5000 F120.00
G01 X-17.3497 Y-15.5172 F120.00
G00 Z2.0000
G00 X-17.2998 Y-15.5147
G01 F60.00
G01 Z-0.0500
G01 F120.00
G01 X-17.2901 Y-15.7108 F120.00
G01 X-17.2875 Y-15.7376 F120.00
G01 X-17.2580 Y-15.9366 F120.00
G01 X-17.2527 Y-15.9631 F120.00
G01 X-17.2044 Y-16.1559 F120.00
G01 X-17.1965 Y-16.1817 F120.00
G01 X-17.1303 Y-16.3665 F120.00
G01 X-17.1191 Y-16.3937 F120.00
G01 X-17.0352 Y-16.5711 F120.00
G01 X-17.0213 Y-16.5971 F120.00
G01 X-16.9204 Y-16.7654 F120.00
G01 X-16.9054 Y-16.7879 F120.00
G01 X-16.7871 Y-16.9476 F120.00
G01 X-16.7700 Y-16.9685 F120.00
G01 X-16.6349 Y-17.1175 F120.00
G01 X-16.6158 Y-17.1366 F120.00
G01 X-16.4685 Y-17.2700 F120.00
G01 X-16.4476 Y-17.2871 F120.00
G01 X-16.2879 Y-17.4054 F120.00
G01 X-16.2654 Y-17.4204 F120.00
G01 X-16.0971 Y-17.5213 F120.00
G01 X-16.0711 Y-17.5352 F120.00
G01 X-15.8937 Y-17.6191 F120.00
G01 X-15.8665 Y-17.6303 F120.00
G01 X-15.6817 Y-17.6965 F120.00
G01 X-15.6559 Y-17.7044 F120.00
G01 X-15.4631 Y-17.7527 F120.00
G01 X-15.4354 Y-17.7583 F120.00
G01 X-15.2401 Y-17.7872 F120.00
G01 X-15.2132 Y-17.7900 F120.00
G01 X-15.0147 Y-17.7998 F120.00
G01 X-15.0000 Y-17.8001 F120.00
G01 X-1.7979 Y-17.8001 F120.00
G01 X-1.4273 Y-17.8310 F120.00
G01 X-1.1787 Y-17.9140 F120.00
G01 X-0.9704 Y-18.0396 F120.00
G01 X-0.7239 Y-18.1989 F120.00
G01 X-0.4660 Y-18.3270 F120.00
G01 X-0.4467 Y-18.3384 F120.00
G01 X-0.3635 Y-18.3777 F120.00
G01 X-0.2758 Y-18.4091 F120.00
G01 X-0.1829 Y-18.4322 F120.00
G01 X-0.0907 Y-18.4456 F120.00
G01 X0.0000 Y-18.4500 F120.00
G01 X0.0907 Y-18.4456 F120.00
G01 X0.1853 Y-18.4317 F120.00
G01 X0.2734 Y-18.4097 F120.00
G01 X0.3658 Y-18.3767 F120.00
G01 X0.4478 Y-18.3378 F120.00
G01 X0.5278 Y-18.2899 F120.00
G01 X0.6027 Y-18.2344 F120.00
G01 X0.6718 Y-18.1718 F120.00
G01 X0.7344 Y-18.1027 F120.00
G01 X0.7899 Y-18.0278 F120.00
G01 X0.8378 Y-17.9478 F120.00
G01 X0.8767 Y-17.8658 F120.00
G01 X0.9097 Y-17.7734 F120.00
G01 X0.9317 Y-17.6853 F120.00
G01 X0.9456 Y-17.5907 F120.00
G01 X0.9500 Y-17.5000 F120.00
G01 X0.9454 Y-17.4069 F120.00
G01 X0.9317 Y-17.3147 F120.00
G01 X0.9091 Y-17.2242 F120.00
G01 X0.8777 Y-17.1365 F120.00
G01 X0.8378 Y-17.0522 F120.00
G01 X0.7899 Y-16.9722 F120.00
G01 X0.7359 Y-16.8993 F120.00
G01 X0.6718 Y-16.8282 F120.00
G01 X0.6045 Y-16.7672 F120.00
G01 X0.5257 Y-16.7088 F120.00
G01 X0.4478 Y-16.6622 F120.00
G01 X0.3635 Y-16.6223 F120.00
G01 X0.2758 Y-16.5909 F120.00
G01 X0.1853 Y-16.5683 F120.00
G01 X0.0907 Y-16.5544 F120.00
G01 X-0.0000 Y-16.5500 F120.00
G01 X-0.0907 Y-16.5544 F120.00
G01 X-0.1853 Y-16.5683 F120.00
G01 X-0.2769 Y-16.5913 F120.00
G01 X-0.3658 Y-16.6233 F120.00
G01 X-0.4467 Y-16.6616 F120.00
G01 X-0.4659 Y-16.6730 F120.00
G01 X-0.7215 Y-16.7997 F120.00
G01 X-0.7263 Y-16.8025 F120.00
G01 X-0.9704 Y-16.9603 F120.00
G01 X-1.1787 Y-17.0860 F120.00
G01 X-1.4273 Y-17.1690 F120.00
G01 X-1.7980 Y-17.1999 F120.00
G01 X-14.9926 Y-17.1999 F120.00
G01 X-15.1666 Y-17.1913 F120.00
G01 X-15.3316 Y-17.1669 F120.00
G01 X-15.4933 Y-17.1263 F120.00
G01 X-15.6504 Y-17.0701 F120.00
G01 X-15.8011 Y-16.9988 F120.00
G01 X-15.9442 Y-16.9131 F120.00
G01 X-16.0782 Y-16.8137 F120.00
G01 X-16.2017 Y-16.7017 F120.00
G01 X-16.3137 Y-16.5782 F120.00
G01 X-16.4131 Y-16.4442 F120.00
G01 X-16.4988 Y-16.3011 F120.00
G01 X-16.5701 Y-16.1504 F120.00
G01 X-16.6263 Y-15.9933 F120.00
G01 X-16.6669 Y-15.8316 F120.00
G01 X-16.6913 Y-15.6666 F120.00
G01 X-16.6995 Y-15.5000 F120.00
G01 X-16.6913 Y-15.3334 F120.00
G01 X-16.6669 Y-15.1684 F120.00
G01 X-16.6263 Y-15.0067 F120.00
G01 X-16.5701 Y-14.8496 F120.00
G01 X-16.4988 Y-14.6989 F120.00
G01 X-16.4131 Y-14.5558 F120.00
G01 X-16.3137 Y-14.4218 F120.00
G01 X-16.2017 Y-14.2983 F120.00
G01 X-16.0782 Y-14.1863 F120.00
G01 X-15.9442 Y-14.0869 F120.00
G01 X-15.8011 Y-14.0012 F120.00
G01 X-15.6504 Y-13.9299 F120.00
G01 X-15.4933 Y-13.8737 F120.00
G01 X-15.3316 Y-13.8331 F120.00
G01 X-15.1666 Y-13.8087 F120.00
G01 X-14.9926 Y-13.8001 F120.00
G01 X1.9926 Y-13.8001 F120.00
G01 X2.1666 Y-13.8087 F120.00
G01 X2.3316 Y-13.8331 F120.00
G01 X2.4933 Y-13.8737 F120.00
G01 X2.6504 Y-13.9299 F120.00
G01 X2.8011 Y-14.0012 F120.00
G01 X2.9442 Y-14.0869 F120.00
G01 X3.0782 Y-14.1863 F120.00
G01 X3.2017 Y-14.2983 F120.00
G01 X3.3137 Y-14.4218 F120.00
G01 X3.4131 Y-14.5558 F120.00
G01 X3.4988 Y-14.6989 F120.00
G01 X3.5701 Y-14.8496 F120.00
G01 X3.6263 Y-15.0067 F120.00
G01 X3.6669 Y-15.1684 F120.00
G01 X3.6913 Y-15.3334 F120.00
G01 X3.6999 Y-15.5074 F120.00
G01 X3.6999 Y-18.6650 F120.00
G01 X3.6931 Y-18.8197 F120.00
G01 X3.6738 Y-18.9667 F120.00
G01 X3.6417 Y-19.1115 F120.00
G01 X3.5971 Y-19.2529 F120.00
G01 X3.5404 Y-19.3899 F120.00
G01 X3.4719 Y-19.5214 F120.00
G01 X3.3922 Y-19.6464 F120.00
G01 X3.3020 Y-19.7641 F120.00
G01 X3.1977 Y-19.8779 F120.00
G01 X-2.1664 Y-25.2420 F120.00
G01 X-2.1755 Y-25.2514 F120.00
G01 X-2.2934 Y-25.3801 F120.00
G01 X-2.3102 Y-25.4001 F120.00
G01 X-2.4177 Y-25.5403 F120.00
G01 X-2.4314 Y-25.5600 F120.00
G01 X-2.5252 Y-25.7072 F120.00
G01 X-2.5383 Y-25.7298 F120.00
G01 X-2.6198 Y-25.8866 F120.00
G01 X-2.6299 Y-25.9083 F120.00
G01 X-2.6967 Y-26.0695 F120.00
G01 X-2.7056 Y-26.0941 F120.00
G01 X-2.7581 Y-26.2605 F120.00
G01 X-2.7644 Y-26.2837 F120.00
G01 X-2.8031 Y-26.4583 F120.00
G01 X-2.8072 Y-26.4820 F120.00
G01 X-2.8300 Y-26.6549 F120.00
G01 X-2.8322 Y-26.6810 F120.00
G01 X-2.8401 Y-26.8672 F120.00
G01 X-2.8401 Y-32.5148 F120.00
G01 X-2.8680 Y-32.8636 F120.00
G01 X-2.9431 Y-33.0984 F120.00
G01 X-3.0577 Y-33.2954 F120.00
G01 X-3.2051 Y-33.5295 F120.00
G01 X-3.3259 Y-33.7750 F120.00
G01 X-3.3343 Y-33.7893 F120.00
G01 X-3.3719 Y-33.8692 F120.00
G01 X-3.4019 Y-33.9536 F120.00
G01 X-3.4227 Y-34.0369 F120.00
G01 X-3.4354 Y-34.1218 F120.00
G01 X-3.4400 Y-34.2125 F120.00
G01 X-3.4357 Y-34.3007 F120.00
G01 X-3.4222 Y-34.3905 F120.00
G01 X-3.4012 Y-34.4738 F120.00
G01 X-3.3724 Y-34.5546 F120.00
G01 X-3.3337 Y-34.6368 F120.00
G01 X-3.2869 Y-34.7145 F120.00
G01 X-3.2357 Y-34.7835 F120.00
G01 X-3.1781 Y-34.8471 F120.00
G01 X-3.1110 Y-34.9082 F120.00
G01 X-3.0400 Y-34.9608 F120.00
G01 X-2.9664 Y-35.0050 F120.00
G01 X-2.8844 Y-35.0440 F120.00
G01 X-2.7989 Y-35.0744 F120.00
G01 X-2.7156 Y-35.0952 F120.00
G01 X-2.6307 Y-35.1079 F120.00
G01 X-2.5400 Y-35.1125 F120.00
G01 X-2.4493 Y-35.1079 F120.00
G01 X-2.3644 Y-35.0952 F120.00
G01 X-2.2811 Y-35.0744 F120.00
G01 X-2.1956 Y-35.0440 F120.00
G01 X-2.1136 Y-35.0050 F120.00
G01 X-2.0400 Y-34.9608 F120.00
G01 X-1.9700 Y-34.9090 F120.00
G01 X-1.9036 Y-34.8489 F120.00
G01 X-1.8443 Y-34.7835 F120.00
G01 X-1.7917 Y-34.7125 F120.00
G01 X-1.7452 Y-34.6346 F120.00
G01 X-1.7076 Y-34.5546 F120.00
G01 X-1.6788 Y-34.4738 F120.00
G01 X-1.6578 Y-34.3905 F120.00
G01 X-1.6443 Y-34.3007 F120.00
G01 X-1.6400 Y-34.2113 F120.00
G01 X-1.6443 Y-34.1243 F120.00
G01 X-1.6573 Y-34.0369 F120.00
G01 X-1.6788 Y-33.9512 F120.00
G01 X-1.7090 Y-33.8670 F120.00
G01 X-1.7457 Y-33.7893 F120.00
G01 X-1.7541 Y-33.7750 F120.00
G01 X-1.8748 Y-33.5296 F120.00
G01 X-2.0223 Y-33.2954 F120.00
G01 X-2.1369 Y-33.0984 F120.00
G01 X-2.2120 Y-32.8636 F120.00
G01 X-2.2399 Y-32.5148 F120.00
G01 X-2.2399 Y-26.8750 F120.00
G01 X-2.2331 Y-26.7203 F120.00
G01 X-2.2138 Y-26.5733 F120.00
G01 X-2.1817 Y-26.4285 F120.00
G01 X-2.1371 Y-26.2871 F120.00
G01 X-2.0804 Y-26.1501 F120.00
G01 X-2.0119 Y-26.0186 F120.00
G01 X-1.9322 Y-25.8936 F120.00
G01 X-1.8420 Y-25.7759 F120.00
G01 X-1.7377 Y-25.6621 F120.00
G01 X3.6273 Y-20.2971 F120.00
G01 X3.6355 Y-20.2886 F120.00
G01 X3.7548 Y-20.1583 F120.00
G01 X3.7702 Y-20.1399 F120.00
G01 X3.8777 Y-19.9997 F120.00
G01 X3.8914 Y-19.9800 F120.00
G01 X3.9863 Y-19.8310 F120.00
G01 X3.9983 Y-19.8102 F120.00
G01 X4.0793 Y-19.6544 F120.00
G01 X4.0899 Y-19.6317 F120.00
G01 X4.1575 Y-19.4684 F120.00
G01 X4.1656 Y-19.4459 F120.00
G01 X4.2181 Y-19.2795 F120.00
G01 X4.2244 Y-19.2563 F120.00
G01 X4.2626 Y-19.0838 F120.00
G01 X4.2668 Y-19.0602 F120.00
G01 X4.2900 Y-18.8851 F120.00
G01 X4.2922 Y-18.8590 F120.00
G01 X4.2998 Y-18.6847 F120.00
G01 X4.3001 Y-18.6716 F120.00
G01 X4.3001 Y-15.5000 F120.00
G01 X4.2998 Y-15.4853 F120.00
G01 X4.2901 Y-15.2892 F120.00
G01 X4.2872 Y-15.2599 F120.00
G01 X4.2584 Y-15.0658 F120.00
G01 X4.2527 Y-15.0369 F120.00
G01 X4.2050 Y-14.8465 F120.00
G01 X4.1972 Y-14.8207 F120.00
G01 X4.1295 Y-14.6312 F120.00
G01 X4.1191 Y-14.6063 F120.00
G01 X4.0352 Y-14.4289 F120.00
G01 X4.0213 Y-14.4029 F120.00
G01 X3.9204 Y-14.2346 F120.00
G01 X3.9054 Y-14.2121 F120.00
G01 X3.7863 Y-14.0515 F120.00
G01 X3.7684 Y-14.0297 F120.00
G01 X3.6349 Y-13.8825 F120.00
G01 X3.6158 Y-13.8634 F120.00
G01 X3.4703 Y-13.7316 F120.00
G01 X3.4495 Y-13.7144 F120.00
G01 X3.2899 Y-13.5960 F120.00
G01 X3.2675 Y-13.5809 F120.00
G01 X3.0971 Y-13.4787 F120.00
G01 X3.0711 Y-13.4648 F120.00
G01 X2.8914 Y-13.3799 F120.00
G01 X2.8665 Y-13.3697 F120.00
G01 X2.6817 Y-13.3035 F120.00
G01 X2.6535 Y-13.2950 F120.00
G01 X2.4631 Y-13.2473 F120.00
G01 X2.4342 Y-13.2416 F120.00
G01 X2.2376 Y-13.2125 F120.00
G01 X2.2108 Y-13.2099 F120.00
G01 X2.0147 Y-13.2002 F120.00
G01 X2.0000 Y-13.1999 F120.00
G01 X-15.0000 Y-13.1999 F120.00
G01 X-15.0147 Y-13.2002 F120.00
G01 X-15.2120 Y-13.2099 F120.00
G01 X-15.2401 Y-13.2128 F120.00
G01 X-15.4366 Y-13.2420 F120.00
G01 X-15.4631 Y-13.2473 F120.00
G01 X-15.6559 Y-13.2956 F120.00
G01 X-15.6817 Y-13.3035 F120.00
G01 X-15.8688 Y-13.3705 F120.00
G01 X-15.8937 Y-13.3809 F120.00
G01 X-16.0733 Y-13.4660 F120.00
G01 X-16.0971 Y-13.4787 F120.00
G01 X-16.2675 Y-13.5809 F120.00
G01 X-16.2899 Y-13.5960 F120.00
G01 X-16.4495 Y-13.7144 F120.00
G01 X-16.4703 Y-13.7316 F120.00
G01 X-16.6175 Y-13.8651 F120.00
G01 X-16.6366 Y-13.8842 F120.00
G01 X-16.7684 Y-14.0297 F120.00
G01 X-16.7871 Y-14.0524 F120.00
G01 X-16.9054 Y-14.2121 F120.00
G01 X-16.9204 Y-14.2346 F120.00
G01 X-17.0213 Y-14.4029 F120.00
G01 X-17.0352 Y-14.4289 F120.00
G01 X-17.1191 Y-14.6063 F120.00
G01 X-17.1303 Y-14.6335 F120.00
G01 X-17.1965 Y-14.8183 F120.00
G01 X-17.2044 Y-14.8441 F120.00
G01 X-17.2527 Y-15.0369 F120.00
G01 X-17.2580 Y-15.0634 F120.00
G01 X-17.2872 Y-15.2599 F120.00
G01 X-17.2900 Y-15.2868 F120.00
G01 X-17.2998 Y-15.4853 F120.00
G01 X-17.2998 Y-15.5147 F120.00
G00 Z2.0000
G00 X-4.1801 Y-34.2100
G01 F60.00
G01 Z-0.0500
G01 F120.00
G01 X-4.1843 Y-34.1243 F120.00
G01 X-4.1973 Y-34.0369 F120.00
G01 X-4.2188 Y-33.9512 F120.00
G01 X-4.2485 Y-33.8681 F120.00
G01 X-4.2863 Y-33.7882 F120.00
G01 X-4.3317 Y-33.7125 F120.00
G01 X-4.3843 Y-33.6415 F120.00
G01 X-4.4436 Y-33.5761 F120.00
G01 X-4.5090 Y-33.5168 F120.00
G01 X-4.5800 Y-33.4642 F120.00
G01 X-4.6557 Y-33.4188 F120.00
G01 X-4.7356 Y-33.3810 F120.00
G01 X-4.8187 Y-33.3513 F120.00
G01 X-4.9044 Y-33.3298 F120.00
G01 X-4.9918 Y-33.3168 F120.00
G01 X-5.0800 Y-33.3125 F120.00
G01 X-5.1682 Y-33.3168 F120.00
G01 X-5.2556 Y-33.3298 F120.00
G01 X-5.3413 Y-33.3513 F120.00
G01 X-5.4244 Y-33.3810 F120.00
G01 X-5.5043 Y-33.4188 F120.00
G01 X-5.5800 Y-33.4642 F120.00
G01 X-5.6510 Y-33.5168 F120.00
G01 X-5.7164 Y-33.5761 F120.00
G01 X-5.7757 Y-33.6415 F120.00
G01 X-5.8283 Y-33.7125 F120.00
G01 X-5.8737 Y-33.7882 F120.00
G01 X-5.9115 Y-33.8681 F120.00
G01 X-5.9412 Y-33.9512 F120.00
G01 X-5.9627 Y-34.0369 F120.00
G01 X-5.9757 Y-34.1243 F120.00
G01 X-5.9800 Y-34.2125 F120.00
G01 X-5.9757 Y-34.3007 F120.00
G01 X-5.9627 Y-34.3881 F120.00
G01 X-5.9412 Y-34.4738 F120.00
G01 X-5.9115 Y-34.5569 F120.00
G01 X-5.8737 Y-34.6368 F120.00
G01 X-5.8283 Y-34.7125 F120.00
G01 X-5.7757 Y-34.7835 F120.00
G01 X-5.7164 Y-34.8489 F120.00
G01 X-5.6510 Y-34.9082 F120.00
G01 X-5.5800 Y-34.9608 F120.00
G01 X-5.5043 Y-35.0062 F120.00
G01 X-5.4244 Y-35.0440 F120.00
G01 X-5.3413 Y-35.0737 F120.00
G01 X-5.2556 Y-35.0952 F120.00
G01 X-5.1682 Y-35.1082 F120.00
G01 X-5.0800 Y-35.1125 F120.00
G01 X-4.9918 Y-35.1082 F120.00
G01 X-4.9044 Y-35.0952 F120.00
G01 X-4.8187 Y-35.0737 F120.00
G01 X-4.7356 Y-35.0440 F120.00
G01 X-4.6557 Y-35.0062 F120.00
G01 X-4.5800 Y-34.9608 F120.00
G01 X-4.5090 Y-34.9082 F120.00
G01 X-4.4436 Y-34.8489 F120.00
G01 X-4.3843 Y-34.7835 F120.00
G01 X-4.3317 Y-34.7125 F120.00
G01 X-4.2863 Y-34.6368 F120.00
G01 X-4.2485 Y-34.5569 F120.00
G01 X-4.2188 Y-34.4738 F120.00
G01 X-4.1973 Y-34.3881 F120.00
G01 X-4.1843 Y-34.3007 F120.00
G01 X-4.1801 Y-34.2100 F120.00
G00 Z2.0000
G00 X-4.1301 Y-34.2076
G01 F60.00
G01 Z-0.0500
G01 F120.00
G01 X-4.1346 Y-34.1194 F120.00
G01 X-4.1483 Y-34.0272 F120.00
G01 X-4.1709 Y-33.9367 F120.00
G01 X-4.2023 Y-33.8490 F120.00
G01 X-4.2422 Y-33.7647 F120.00
G01 X-4.2901 Y-33.6847 F120.00
G01 X-4.3456 Y-33.6098 F120.00
G01 X-4.4082 Y-33.5407 F120.00
G01 X-4.4773 Y-33.4781 F120.00
G01 X-4.5522 Y-33.4226 F120.00
G01 X-4.6322 Y-33.3747 F120.00
G01 X-4.7165 Y-33.3348 F120.00
G01 X-4.8042 Y-33.3034 F120.00
G01 X-4.8947 Y-33.2808 F120.00
G01 X-4.9869 Y-33.2671 F120.00
G01 X-5.0800 Y-33.2625 F120.00
G01 X-5.1731 Y-33.2671 F120.00
G01 X-5.2653 Y-33.2808 F120.00
G01 X-5.3558 Y-33.3034 F120.00
G01 X-5.4435 Y-33.3348 F120.00
G01 X-5.5278 Y-33.3747 F120.00
G01 X-5.6078 Y-33.4226 F120.00
G01 X-5.6827 Y-33.4781 F120.00
G01 X-5.7518 Y-33.5407 F120.00
G01 X-5.8144 Y-33.6098 F120.00
G01 X-5.8699 Y-33.6847 F120.00
G01 X-5.9178 Y-33.7647 F120.00
G01 X-5.9577 Y-33.8490 F120.00
G01 X-5.9891 Y-33.9367 F120.00
G01 X-6.0117 Y-34.0272 F120.00
G01 X-6.0254 Y-34.1194 F120.00
G01 X-6.0300 Y-34.2125 F120.00
G01 X-6.0254 Y-34.3056 F120.00
G01 X-6.0117 Y-34.3978 F120.00
G01 X-5.9891 Y-34.4883 F120.00
G01 X-5.9577 Y-34.5760 F120.00
G01 X-5.9178 Y-34.6603 F120.00
G01 X-5.8699 Y-34.7403 F120.00
G01 X-5.8144 Y-34.8152 F120.00
G01 X-5.7518 Y-34.8843 F120.00
G01 X-5.6827 Y-34.9469 F120.00
G01 X-5.6078 Y-35.0024 F120.00
G01 X-5.5278 Y-35.0503 F120.00
G01 X-5.4435 Y-35.0902 F120.00
G01 X-5.3558 Y-35.1216 F120.00
G01 X-5.2653 Y-35.1442 F120.00
G01 X-5.1731 Y-35.1579 F120.00
G01 X-5.0800 Y-35.1625 F120.00
G01 X-4.9869 Y-35.1579 F120.00
G01 X-4.8947 Y-35.1442 F120.00
G01 X-4.8042 Y-35.1216 F120.00
G01 X-4.7165 Y-35.0902 F120.00
G01 X-4.6322 Y-35.0503 F120.00
G01 X-4.5522 Y-35.0024 F120.00
G01 X-4.4773 Y-34.9469 F120.00
G01 X-4.4082 Y-34.8843 F120.00
G01 X-4.3456 Y-34.8152 F120.00
G01 X-4.2901 Y-34.7403 F120.00
G01 X-4.2422 Y-34.6603 F120.00
G01 X-4.2023 Y-34.5760 F120.00
G01 X-4.1709 Y-34.4883 F120.00
G01 X-4.1483 Y-34.3978 F120.00
G01 X-4.1346 Y-34.3056 F120.00
G01 X-4.1301 Y-34.2174 F120.00
G01 X-4.1301 Y-34.2076 F120.00
G00 Z2.0000
G00 X-4.1301 Y-36.7476
G01 F60.00
G01 Z-0.0500
G01 F120.00
G01 X-4.1346 Y-36.6594 F120.00
G01 X-4.1483 Y-36.5672 F120.00
G01 X-4.1709 Y-36.4767 F120.00
G01 X-4.2023 Y-36.3890 F120.00
G01 X-4.2422 Y-36.3047 F120.00
G01 X-4.2901 Y-36.2247 F120.00
G01 X-4.3456 Y-36.1498 F120.00
G01 X-4.4082 Y-36.0807 F120.00
G01 X-4.4773 Y-36.0181 F120.00
G01 X-4.5522 Y-35.9626 F120.00
G01 X-4.6322 Y-35.9147 F120.00
G01 X-4.7165 Y-35.8748 F120.00
G01 X-4.8042 Y-35.8434 F120.00
G01 X-4.8947 Y-35.8208 F120.00
G01 X-4.9869 Y-35.8071 F120.00
G01 X-5.0800 Y-35.8025 F120.00
G01 X-5.1731 Y-35.8071 F120.00
G01 X-5.2653 Y-35.8208 F120.00
G01 X-5.3558 Y-35.8434 F120.00
G01 X-5.4435 Y-35.8748 F120.00
G01 X-5.5278 Y-35.9147 F120.00
G01 X-5.6078 Y-35.9626 F120.00
G01 X-5.6827 Y-36.0181 F120.00
G01 X-5.7518 Y-36.0807 F120.00
G01 X-5.8144 Y-36.1498 F120.00
G01 X-5.8699 Y-36.2247 F120.00
G01 X-5.9178 Y-36.3047 F120.00
G01 X-5.9577 Y-36.3890 F120.00
G01 X-5.9891 Y-36.4767 F120.00
G01 X-6.0117 Y-36.5672 F120.00
G01 X-6.0254 Y-36.6594 F120.00
G01 X-6.0300 Y-36.7525 F120.00
G01 X-6.0254 Y-36.8456 F120.00
G01 X-6.0117 Y-36.9378 F120.00
G01 X-5.9891 Y-37.0283 F120.00
G01 X-5.9577 Y-37.1160 F120.00
G01 X-5.9178 Y-37.2003 F120.00
G01 X-5.8699 Y-37.2803 F120.00
G01 X-5.8144 Y-37.3552 F120.00
G01 X-5.7518 Y-37.4243 F120.00
G01 X-5.6827 Y-37.4869 F120.00
G01 X-5.6078 Y-37.5424 F120.00
G01 X-5.5278 Y-37.5903 F120.00
G01 X-5.4435 Y-37.6302 F120.00
G01 X-5.3558 Y-37.6616 F120.00
G01 X-5.2653 Y-37.6842 F120.00
G01 X-5.1731 Y-37.6979 F120.00
G01 X-5.0800 Y-37.7025 F120.00
G01 X-4.9869 Y-37.6979 F120.00
G01 X-4.8947 Y-37.6842 F120.00
G01 X-4.8042 Y-37.6616 F120.00
G01 X-4.7165 Y-37.6302 F120.00
G01 X-4.6322 Y-37.5903 F120.00
G01 X-4.5522 Y-37.5424 F120.00
G01 X-4.4773 Y-37.4869 F120.00
G01 X-4.4082 Y-37.4243 F120.00
G01 X-4.3456 Y-37.3552 F120.00
G01 X-4.2901 Y-37.2803 F120.00
G01 X-4.2422 Y-37.2003 F120.00
G01 X-4.2023 Y-37.1160 F120.00
G01 X-4.1709 Y-37.0283 F120.00
G01 X-4.1483 Y-36.9378 F120.00
G01 X-4.1346 Y-36.8456 F120.00
G01 X-4.1301 Y-36.7574 F120.00
G01 X-4.1301 Y-36.7476 F120.00
G00 Z2.0000
G00 X-4.1801 Y-36.7500
G01 F60.00
G01 Z-0.0500
G01 F120.00
G01 X-4.1843 Y-36.6643 F120.00
G01 X-4.1973 Y-36.5769 F120.00
G01 X-4.2188 Y-36.4912 F120.00
G01 X-4.2485 Y-36.4081 F120.00
G01 X-4.2863 Y-36.3282 F120.00
G01 X-4.3317 Y-36.2525 F120.00
G01 X-4.3843 Y-36.1815 F120.00
G01 X-4.4436 Y-36.1161 F120.00
G01 X-4.5090 Y-36.0568 F120.00
G01 X-4.5800 Y-36.0042 F120.00
G01 X-4.6557 Y-35.9588 F120.00
G01 X-4.7356 Y-35.9210 F120.00
G01 X-4.8187 Y-35.8913 F120.00
G01 X-4.9044 Y-35.8698 F120.00
G01 X-4.9918 Y-35.8568 F120.00
G01 X-5.0800 Y-35.8525 F120.00
G01 X-5.1682 Y-35.8568 F120.00
G01 X-5.2556 Y-35.8698 F120.00
G01 X-5.3413 Y-35.8913 F120.00
G01 X-5.4244 Y-35.9210 F120.00
G01 X-5.5043 Y-35.9588 F120.00
G01 X-5.5800 Y-36.0042 F120.00
G01 X-5.6510 Y-36.0568 F120.00
G01 X-5.7164 Y-36.1161 F120.00
G01 X-5.7757 Y-36.1815 F120.00
G01 X-5.8283 Y-36.2525 F120.00
G01 X-5.8737 Y-36.3282 F120.00
G01 X-5.9115 Y-36.4081 F120.00
G01 X-5.9412 Y-36.4912 F120.00
G01 X-5.9627 Y-36.5769 F120.00
G01 X-5.9757 Y-36.6643 F120.00
G01 X-5.9800 Y-36.7525 F120.00
G01 X-5.9757 Y-36.8407 F120.00
G01 X-5.9627 Y-36.9281 F120.00
G01 X-5.9412 Y-37.0138 F120.00
G01 X-5.9115 Y-37.0969 F120.00
G01 X-5.8737 Y-37.1768 F120.00
G01 X-5.8283 Y-37.2525 F120.00
G01 X-5.7757 Y-37.3235 F120.00
G01 X-5.7164 Y-37.3889 F120.00
G01 X-5.6510 Y-37.4482 F120.00
G01 X-5.5800 Y-37.5008 F120.00
G01 X-5.5043 Y-37.5462 F120.00
G01 X-5.4244 Y-37.5840 F120.00
G01 X-5.3413 Y-37.6137 F120.00
G01 X-5.2556 Y-37.6352 F120.00
G01 X-5.1682 Y-37.6482 F120.00
G01 X-5.0800 Y-37.6525 F120.00
G01 X-4.9918 Y-37.6482 F120.00
G01 X-4.9044 Y-37.6352 F120.00
G01 X-4.8187 Y-37.6137 F120.00
G01 X-4.7356 Y-37.5840 F120.00
G01 X-4.6557 Y-37.5462 F120.00
G01 X-4.5800 Y-37.5008 F120.00
G01 X-4.5090 Y-37.4482 F120.00
G01 X-4.4436 Y-37.3889 F120.00
G01 X-4.3843 Y-37.3235 F120.00
G01 X-4.3317 Y-37.2525 F120.00
G01 X-4.2863 Y-37.1768 F120.00
G01 X-4.2485 Y-37.0969 F120.00
G01 X-4.2188 Y-37.0138 F120.00
G01 X-4.1973 Y-36.9281 F120.00
G01 X-4.1843 Y-36.8407 F120.00
G01 X-4.1801 Y-36.7500 F120.00
G00 Z2.0000
G00 X-1.6401 Y-36.7500
G01 F60.00
G01 Z-0.0500
G01 F120.00
G01 X-1.6443 Y-36.6643 F120.00
G01 X-1.6573 Y-36.5769 F120.00
G01 X-1.6788 Y-36.4912 F120.00
G01 X-1.7085 Y-36.4081 F120.00
G01 X-1.7463 Y-36.3282 F120.00
G01 X-1.7917 Y-36.2525 F120.00
G01 X-1.8443 Y-36.1815 F120.00
G01 X-1.9036 Y-36.1161 F120.00
G01 X-1.9690 Y-36.0568 F120.00
G01 X-2.0400 Y-36.0042 F120.00
G01 X-2.1157 Y-35.9588 F120.00
G01 X-2.1956 Y-35.9210 F120.00
G01 X-2.2787 Y-35.8913 F120.00
G01 X-2.3644 Y-35.8698 F120.00
G01 X-2.4518 Y-35.8568 F120.00
G01 X-2.5400 Y-35.8525 F120.00
G01 X-2.6282 Y-35.8568 F120.00
G01 X-2.7156 Y-35.8698 F120.00
G01 X-2.8013 Y-35.8913 F120.00
G01 X-2.8844 Y-35.9210 F120.00
G01 X-2.9643 Y-35.9588 F120.00
G01 X-3.0400 Y-36.0042 F120.00
G01 X-3.1110 Y-36.0568 F120.00
G01 X-3.1764 Y-36.1161 F120.00
G01 X-3.2357 Y-36.1815 F120.00
G01 X-3.2883 Y-36.2525 F120.00
G01 X-3.3337 Y-36.3282 F120.00
G01 X-3.3715 Y-36.4081 F120.00
G01 X-3.4012 Y-36.4912 F120.00
G01 X-3.4227 Y-36.5769 F120.00
G01 X-3.4357 Y-36.6643 F120.00
G01 X-3.4400 Y-36.7525 F120.00
G01 X-3.4357 Y-36.8407 F120.00
G01 X-3.4227 Y-36.9281 F120.00
G01 X-3.4012 Y-37.0138 F120.00
G01 X-3.3715 Y-37.0969 F120.00
G01 X-3.3337 Y-37.1768 F120.00
G01 X-3.2883 Y-37.2525 F120.00
G01 X-3.2357 Y-37.3235 F120.00
G01 X-3.1764 Y-37.3889 F120.00
G01 X-3.1110 Y-37.4482 F120.00
G01 X-3.0400 Y-37.5008 F120.00
G01 X-2.9643 Y-37.5462 F120.00
G01 X-2.8844 Y-37.5840 F120.00
G01 X-2.8013 Y-37.6137 F120.00
G01 X-2.7156 Y-37.6352 F120.00
G01 X-2.6282 Y-37.6482 F120.00
G01 X-2.5400 Y-37.6525 F120.00
G01 X-2.4518 Y-37.6482 F120.00
G01 X-2.3644 Y-37.6352 F120.00
G01 X-2.2787 Y-37.6137 F120.00
G01 X-2.1956 Y-37.5840 F120.00
G01 X-2.1157 Y-37.5462 F120.00
G01 X-2.0400 Y-37.5008 F120.00
G01 X-1.9690 Y-37.4482 F120.00
G01 X-1.9036 Y-37.3889 F120.00
G01 X-1.8443 Y-37.3235 F120.00
G01 X-1.7917 Y-37.2525 F120.00
G01 X-1.7463 Y-37.1768 F120.00
G01 X-1.7085 Y-37.0969 F120.00
G01 X-1.6788 Y-37.0138 F120.00
G01 X-1.6573 Y-36.9281 F120.00
G01 X-1.6443 Y-36.8407 F120.00
G01 X-1.6401 Y-36.7500 F120.00
G00 Z2.0000
G00 X-1.5901 Y-36.7476
G01 F60.00
G01 Z-0.0500
G01 F120.00
G01 X-1.5946 Y-36.6594 F120.00
G01 X-1.6083 Y-36.5672 F120.00
G01 X-1.6309 Y-36.4767 F120.00
G01 X-1.6623 Y-36.3890 F120.00
G01 X-1.7022 Y-36.3047 F120.00
G01 X-1.7501 Y-36.2247 F120.00
G01 X-1.8056 Y-36.1498 F120.00
G01 X-1.8682 Y-36.0807 F120.00
G01 X-1.9373 Y-36.0181 F120.00
G01 X-2.0122 Y-35.9626 F120.00
G01 X-2.0922 Y-35.9147 F120.00
G01 X-2.1765 Y-35.8748 F120.00
G01 X-2.2642 Y-35.8434 F120.00
G01 X-2.3547 Y-35.8208 F120.00
G01 X-2.4469 Y-35.8071 F120.00
G01 X-2.5400 Y-35.8025 F120.00
G01 X-2.6331 Y-35.8071 F120.00
G01 X-2.7253 Y-35.8208 F120.00
G01 X-2.8158 Y-35.8434 F120.00
G01 X-2.9035 Y-35.8748 F120.00
G01 X-2.9878 Y-35.9147 F120.00
G01 X-3.0678 Y-35.9626 F120.00
G01 X-3.1427 Y-36.0181 F120.00
G01 X-3.2118 Y-36.0807 F120.00
G01 X-3.2744 Y-36.1498 F120.00
G01 X-3.3299 Y-36.2247 F120.00
G01 X-3.3778 Y-36.3047 F120.00
G01 X-3.4177 Y-36.3890 F120.00
G01 X-3.4491 Y-36.4767 F120.00
G01 X-3.4717 Y-36.5672 F120.00
G01 X-3.4854 Y-36.6594 F120.00
G01 X-3.4900 Y-36.7525 F120.00
G01 X-3.4854 Y-36.8456 F120.00
G01 X-3.4717 Y-36.9378 F120.00
G01 X-3.4491 Y-37.0283 F120.00
G01 X-3.4177 Y-37.1160 F120.00
G01 X-3.3778 Y-37.2003 F120.00
G01 X-3.3299 Y-37.2803 F120.00
G01 X-3.2744 Y-37.3552 F120.00
G01 X-3.2118 Y-37.4243 F120.00
G01 X-3.1427 Y-37.4869 F120.00
G01 X-3.0678 Y-37.5424 F120.00
G01 X-2.9878 Y-37.5903 F120.00
G01 X-2.9035 Y-37.6302 F120.00
G01 X-2.8158 Y-37.6616 F120.00
G01 X-2.7253 Y-37.6842 F120.00
G01 X-2.6331 Y-37.6979 F120.00
G01 X-2.5400 Y-37.7025 F120.00
G01 X-2.4469 Y-37.6979 F120.00
G01 X-2.3547 Y-37.6842 F120.00
G01 X-2.2642 Y-37.6616 F120.00
G01 X-2.1765 Y-37.6302 F120.00
G01 X-2.0922 Y-37.5903 F120.00
G01 X-2.0122 Y-37.5424 F120.00
G01 X-1.9373 Y-37.4869 F120.00
G01 X-1.8682 Y-37.4243 F120.00
G01 X-1.8056 Y-37.3552 F120.00
G01 X-1.7501 Y-37.2803 F120.00
G01 X-1.7022 Y-37.2003 F120.00
G01 X-1.6623 Y-37.1160 F120.00
G01 X-1.6309 Y-37.0283 F120.00
G01 X-1.6083 Y-36.9378 F120.00
G01 X-1.5946 Y-36.8456 F120.00
G01 X-1.5901 Y-36.7574 F120.00
G01 X-1.5901 Y-36.7476 F120.00
G00 Z2.0000
G00 X0.8999 Y-36.7500
G01 F60.00
G01 Z-0.0500
G01 F120.00
G01 X0.8957 Y-36.6643 F120.00
G01 X0.8827 Y-36.5769 F120.00
G01 X0.8612 Y-36.4912 F120.00
G01 X0.8315 Y-36.4081 F120.00
G01 X0.7937 Y-36.3282 F120.00
G01 X0.7483 Y-36.2525 F120.00
G01 X0.6957 Y-36.1815 F120.00
G01 X0.6364 Y-36.1161 F120.00
G01 X0.5710 Y-36.0568 F120.00
G01 X0.5000 Y-36.0042 F120.00
G01 X0.4243 Y-35.9588 F120.00
G01 X0.3444 Y-35.9210 F120.00
G01 X0.2613 Y-35.8913 F120.00
G01 X0.1756 Y-35.8698 F120.00
G01 X0.0882 Y-35.8568 F120.00
G01 X-0.0000 Y-35.8525 F120.00
G01 X-0.0882 Y-35.8568 F120.00
G01 X-0.1756 Y-35.8698 F120.00
G01 X-0.2613 Y-35.8913 F120.00
G01 X-0.3444 Y-35.9210 F120.00
G01 X-0.4243 Y-35.9588 F120.00
G01 X-0.5000 Y-36.0042 F120.00
G01 X-0.5710 Y-36.0568 F120.00
G01 X-0.6364 Y-36.1161 F120.00
G01 X-0.6957 Y-36.1815 F120.00
G01 X-0.7483 Y-36.2525 F120.00
G01 X-0.7937 Y-36.3282 F120.00
G01 X-0.8315 Y-36.4081 F120.00
G01 X-0.8612 Y-36.4912 F120.00
G01 X-0.8827 Y-36.5769 F120.00
G01 X-0.8957 Y-36.6643 F120.00
G01 X-0.9000 Y-36.7525 F120.00
G01 X-0.8957 Y-36.8407 F120.00
G01 X-0.8827 Y-36.9281 F120.00
G01 X-0.8612 Y-37.0138 F120.00
G01 X-0.8315 Y-37.0969 F120.00
G01 X-0.7937 Y-37.1768 F120.00
G01 X-0.7483 Y-37.2525 F120.00
G01 X-0.6957 Y-37.3235 F120.00
G01 X-0.6364 Y-37.3889 F120.00
G01 X-0.5710 Y-37.4482 F120.00
G01 X-0.5000 Y-37.5008 F120.00
G01 X-0.4243 Y-37.5462 F120.00
G01 X-0.3444 Y-37.5840 F120.00
G01 X-0.2613 Y-37.6137 F120.00
G01 X-0.1756 Y-37.6352 F120.00
G01 X-0.0882 Y-37.6482 F120.00
G01 X0.0000 Y-37.6525 F120.00
G01 X0.0882 Y-37.6482 F120.00
G01 X0.1756 Y-37.6352 F120.00
G01 X0.2613 Y-37.6137 F120.00
G01 X0.3444 Y-37.5840 F120.00
G01 X0.4243 Y-37.5462 F120.00
G01 X0.5000 Y-37.5008 F120.00
G01 X0.5710 Y-37.4482 F120.00
G01 X0.6364 Y-37.3889 F120.00
G01 X0.6957 Y-37.3235 F120.00
G01 X0.7483 Y-37.2525 F120.00
G01 X0.7937 Y-37.1768 F120.00
G01 X0.8315 Y-37.0969 F120.00
G01 X0.8612 Y-37.0138 F120.00
G01 X0.8827 Y-36.9281 F120.00
G01 X0.8957 Y-36.8407 F120.00
G01 X0.8999 Y-36.7500 F120.00
G00 Z2.0000
G00 X0.9499 Y-36.7476
G01 F60.00
G01 Z-0.0500
G01 F120.00
G01 X0.9454 Y-36.6594 F120.00
G01 X0.9317 Y-36.5672 F120.00
G01 X0.9091 Y-36.4767 F120.00
G01 X0.8777 Y-36.3890 F120.00
G01 X0.8378 Y-36.3047 F120.00
G01 X0.7899 Y-36.2247 F120.00
G01 X0.7344 Y-36.1498 F120.00
G01 X0.6718 Y-36.0807 F120.00
G01 X0.6027 Y-36.0181 F120.00
G01 X0.5278 Y-35.9626 F120.00
G01 X0.4478 Y-35.9147 F120.00
G01 X0.3635 Y-35.8748 F120.00
G01 X0.2758 Y-35.8434 F120.00
G01 X0.1853 Y-35.8208 F120.00
G01 X0.0931 Y-35.8071 F120.00
G01 X-0.0000 Y-35.8025 F120.00
G01 X-0.0931 Y-35.8071 F120.00
G01 X-0.1853 Y-35.8208 F120.00
G01 X-0.2758 Y-35.8434 F120.00
G01 X-0.3635 Y-35.8748 F120.00
G01 X-0.4478 Y-35.9147 F120.00
G01 X-0.5278 Y-35.9626 F120.00
G01 X-0.6027 Y-36.0181 F120.00
G01 X-0.6718 Y-36.0807 F120.00
G01 X-0.7344 Y-36.1498 F120.00
G01 X-0.7899 Y-36.2247 F120.00
G01 X-0.8378 Y-36.3047 F120.00
G01 X-0.8777 Y-36.3890 F120.00
G01 X-0.9091 Y-36.4767 F120.00
G01 X-0.9317 Y-36.5672 F120.00
G01 X-0.9454 Y-36.6594 F120.00
G01 X-0.9500 Y-36.7525 F120.00
G01 X-0.9454 Y-36.8456 F120.00
G01 X-0.9317 Y-36.9378 F120.00
G01 X-0.9091 Y-37.0283 F120.00
G01 X-0.8777 Y-37.1160 F120.00
G01 X-0.8378 Y-37.2003 F120.00
G01 X-0.7899 Y-37.2803 F120.00
G01 X-0.7344 Y-37.3552 F120.00
G01 X-0.6718 Y-37.4243 F120.00
G01 X-0.6027 Y-37.4869 F120.00
G01 X-0.5278 Y-37.5424 F120.00
G01 X-0.4478 Y-37.5903 F120.00
G01 X-0.3635 Y-37.6302 F120.00
G01 X-0.2758 Y-37.6616 F120.00
G01 X-0.1853 Y-37.6842 F120.00
G01 X-0.0931 Y-37.6979 F120.00
G01 X0.0000 Y-37.7025 F120.00
G01 X0.0931 Y-37.6979 F120.00
G01 X0.1853 Y-37.6842 F120.00
G01 X0.2758 Y-37.6616 F120.00
G01 X0.3635 Y-37.6302 F120.00
G01 X0.4478 Y-37.5903 F120.00
G01 X0.5278 Y-37.5424 F120.00
G01 X0.6027 Y-37.4869 F120.00
G01 X0.6718 Y-37.4243 F120.00
G01 X0.7344 Y-37.3552 F120.00
G01 X0.7899 Y-37.2803 F120.00
G01 X0.8378 Y-37.2003 F120.00
G01 X0.8777 Y-37.1160 F120.00
G01 X0.9091 Y-37.0283 F120.00
G01 X0.9317 Y-36.9378 F120.00
G01 X0.9454 Y-36.8456 F120.00
G01 X0.9499 Y-36.7574 F120.00
G01 X0.9499 Y-36.7476 F120.00
G00 Z2.0000
G00 X-0.7859 Y-33.7750
G01 F60.00
G01 Z-0.0500
G01 F120.00
G01 X-0.7948 Y-33.7904 F120.00
G01 X-0.8324 Y-33.8704 F120.00
G01 X-0.8612 Y-33.9512 F120.00
G01 X-0.8831 Y-34.0393 F120.00
G01 X-0.8957 Y-34.1243 F120.00
G01 X-0.9000 Y-34.2125 F120.00
G01 X-0.8957 Y-34.3007 F120.00
G01 X-0.8822 Y-34.3905 F120.00
G01 X-0.8612 Y-34.4738 F120.00
G01 X-0.8315 Y-34.5569 F120.00
G01 X-0.7937 Y-34.6368 F120.00
G01 X-0.7483 Y-34.7125 F120.00
G01 X-0.6957 Y-34.7835 F120.00
G01 X-0.6364 Y-34.8489 F120.00
G01 X-0.5710 Y-34.9082 F120.00
G01 X-0.4979 Y-34.9621 F120.00
G01 X-0.4243 Y-35.0062 F120.00
G01 X-0.3444 Y-35.0440 F120.00
G01 X-0.2613 Y-35.0737 F120.00
G01 X-0.1756 Y-35.0952 F120.00
G01 X-0.0882 Y-35.1082 F120.00
G01 X0.0000 Y-35.1125 F120.00
G01 X0.0882 Y-35.1082 F120.00
G01 X0.1756 Y-35.0952 F120.00
G01 X0.2613 Y-35.0737 F120.00
G01 X0.3444 Y-35.0440 F120.00
G01 X0.4243 Y-35.0062 F120.00
G01 X0.5000 Y-34.9608 F120.00
G01 X0.5710 Y-34.9082 F120.00
G01 X0.6364 Y-34.8489 F120.00
G01 X0.6957 Y-34.7835 F120.00
G01 X0.7490 Y-34.7115 F120.00
G01 X0.7937 Y-34.6368 F120.00
G01 X0.8315 Y-34.5569 F120.00
G01 X0.8612 Y-34.4738 F120.00
G01 X0.8827 Y-34.3881 F120.00
G01 X0.8957 Y-34.3007 F120.00
G01 X0.9000 Y-34.2125 F120.00
G01 X0.8957 Y-34.1243 F120.00
G01 X0.8827 Y-34.0369 F120.00
G01 X0.8612 Y-33.9512 F120.00
G01 X0.8315 Y-33.8681 F120.00
G01 X0.7943 Y-33.7893 F120.00
G01 X0.7859 Y-33.7750 F120.00
G01 X0.6658 Y-33.5307 F120.00
G01 X0.5177 Y-33.2954 F120.00
G01 X0.4031 Y-33.0984 F120.00
G01 X0.3280 Y-32.8636 F120.00
G01 X0.3001 Y-32.5148 F120.00
G01 X0.3001 Y-30.7439 F120.00
G01 X0.3069 Y-30.5892 F120.00
G01 X0.3262 Y-30.4422 F120.00
G01 X0.3583 Y-30.2974 F120.00
G01 X0.4029 Y-30.1560 F120.00
G01 X0.4596 Y-30.0190 F120.00
G01 X0.5281 Y-29.8875 F120.00
G01 X0.6078 Y-29.7625 F120.00
G01 X0.6980 Y-29.6448 F120.00
G01 X0.8022 Y-29.5311 F120.00
G01 X6.9805 Y-23.3529 F120.00
G01 X6.9895 Y-23.3434 F120.00
G01 X7.1074 Y-23.2148 F120.00
G01 X7.1229 Y-23.1964 F120.00
G01 X7.2305 Y-23.0563 F120.00
G01 X7.2443 Y-23.0367 F120.00
G01 X7.3392 Y-22.8877 F120.00
G01 X7.3460 Y-22.8765 F120.00
G01 X14.5729 Y-10.3591 F120.00
G01 X14.7908 Y-10.0592 F120.00
G01 X14.9978 Y-9.8968 F120.00
G01 X15.2209 Y-9.7855 F120.00
G01 X15.4761 Y-9.6459 F120.00
G01 X15.4838 Y-9.6408 F120.00
G01 X15.6657 Y-9.4907 F120.00
G01 X15.7264 Y-9.4457 F120.00
G01 X15.7918 Y-9.3864 F120.00
G01 X15.8526 Y-9.3190 F120.00
G01 X15.9037 Y-9.2500 F120.00
G01 X15.9485 Y-9.1753 F120.00
G01 X15.9869 Y-9.0944 F120.00
G01 X16.0166 Y-9.0113 F120.00
G01 X16.0381 Y-8.9256 F120.00
G01 X16.0511 Y-8.8382 F120.00
G01 X16.0554 Y-8.7500 F120.00
G01 X16.0511 Y-8.6618 F120.00
G01 X16.0381 Y-8.5744 F120.00
G01 X16.0173 Y-8.4911 F120.00
G01 X15.9869 Y-8.4056 F120.00
G01 X15.9502 Y-8.3279 F120.00
G01 X15.9023 Y-8.2480 F120.00
G01 X15.8511 Y-8.1790 F120.00
G01 X15.7918 Y-8.1136 F120.00
G01 X15.7264 Y-8.0543 F120.00
G01 X15.6544 Y-8.0010 F120.00
G01 X15.5797 Y-7.9563 F120.00
G01 X15.4998 Y-7.9185 F120.00
G01 X15.4167 Y-7.8888 F120.00
G01 X15.3310 Y-7.8673 F120.00
G01 X15.2436 Y-7.8543 F120.00
G01 X15.1554 Y-7.8500 F120.00
G01 X15.0672 Y-7.8543 F120.00
G01 X14.9798 Y-7.8673 F120.00
G01 X14.8941 Y-7.8888 F120.00
G01 X14.8110 Y-7.9185 F120.00
G01 X14.7311 Y-7.9563 F120.00
G01 X14.6554 Y-8.0017 F120.00
G01 X14.5844 Y-8.0543 F120.00
G01 X14.5190 Y-8.1136 F120.00
G01 X14.4597 Y-8.1790 F120.00
G01 X14.4058 Y-8.2521 F120.00
G01 X14.3617 Y-8.3257 F120.00
G01 X14.3249 Y-8.4033 F120.00
G01 X14.2949 Y-8.4864 F120.00
G01 X14.2727 Y-8.5744 F120.00
G01 X14.2597 Y-8.6618 F120.00
G01 X14.2554 Y-8.7512 F120.00
G01 X14.2661 Y-9.0941 F120.00
G01 X14.2789 Y-9.3429 F120.00
G01 X14.2662 Y-9.5479 F120.00
G01 X14.2010 Y-9.7675 F120.00
G01 X14.0549 Y-10.0559 F120.00
G01 X6.8295 Y-22.5707 F120.00
G01 X6.7463 Y-22.7013 F120.00
G01 X6.6560 Y-22.8189 F120.00
G01 X6.5512 Y-22.9333 F120.00
G01 X0.3736 Y-29.1108 F120.00
G01 X0.3645 Y-29.1203 F120.00
G01 X0.2466 Y-29.2490 F120.00
G01 X0.2312 Y-29.2673 F120.00
G01 X0.1236 Y-29.4075 F120.00
G01 X0.1086 Y-29.4289 F120.00
G01 X0.0137 Y-29.5779 F120.00
G01 X0.0017 Y-29.5987 F120.00
G01 X-0.0788 Y-29.7535 F120.00
G01 X-0.0899 Y-29.7772 F120.00
G01 X-0.1575 Y-29.9405 F120.00
G01 X-0.1656 Y-29.9630 F120.00
G01 X-0.2181 Y-30.1294 F120.00
G01 X-0.2249 Y-30.1547 F120.00
G01 X-0.2631 Y-30.3272 F120.00
G01 X-0.2672 Y-30.3509 F120.00
G01 X-0.2900 Y-30.5239 F120.00
G01 X-0.2922 Y-30.5499 F120.00
G01 X-0.2998 Y-30.7242 F120.00
G01 X-0.3001 Y-30.7373 F120.00
G01 X-0.3001 Y-32.5148 F120.00
G01 X-0.3280 Y-32.8636 F120.00
G01 X-0.4031 Y-33.0984 F120.00
G01 X-0.5177 Y-33.2954 F120.00
G01 X-0.6645 Y-33.5284 F120.00
G01 X-0.7859 Y-33.7750 F120.00
G00 Z2.0000
G00 X-0.8298 Y-33.7511
G01 F60.00
G01 Z-0.0500
G01 F120.00
G01 X-0.8366 Y-33.7625 F120.00
G01 X-0.8400 Y-33.7691 F120.00
G01 X-0.8757 Y-33.8445 F120.00
G01 X-0.8795 Y-33.8535 F120.00
G01 X-0.9091 Y-33.9367 F120.00
G01 X-0.9307 Y-34.0224 F120.00
G01 X-0.9326 Y-34.0320 F120.00
G01 X-0.9454 Y-34.1194 F120.00
G01 X-0.9500 Y-34.2125 F120.00
G01 X-0.9454 Y-34.3056 F120.00
G01 X-0.9326 Y-34.3930 F120.00
G01 X-0.9307 Y-34.4026 F120.00
G01 X-0.9091 Y-34.4883 F120.00
G01 X-0.8777 Y-34.5760 F120.00
G01 X-0.8378 Y-34.6603 F120.00
G01 X-0.7899 Y-34.7403 F120.00
G01 X-0.7344 Y-34.8152 F120.00
G01 X-0.6718 Y-34.8843 F120.00
G01 X-0.6027 Y-34.9469 F120.00
G01 X-0.5318 Y-34.9996 F120.00
G01 X-0.5236 Y-35.0050 F120.00
G01 X-0.4478 Y-35.0503 F120.00
G01 X-0.3635 Y-35.0902 F120.00
G01 X-0.2758 Y-35.1216 F120.00
G01 X-0.1853 Y-35.1442 F120.00
G01 X-0.0931 Y-35.1579 F120.00
G01 X0.0000 Y-35.1625 F120.00
G01 X0.0931 Y-35.1579 F120.00
G01 X0.1853 Y-35.1442 F120.00
G01 X0.2758 Y-35.1216 F120.00
G01 X0.3635 Y-35.0902 F120.00
G01 X0.4478 Y-35.0503 F120.00
G01 X0.5278 Y-35.0024 F120.00
G01 X0.6027 Y-34.9469 F120.00
G01 X0.6718 Y-34.8843 F120.00
G01 X0.7344 Y-34.8152 F120.00
G01 X0.7871 Y-34.7443 F120.00
G01 X0.7912 Y-34.7382 F120.00
G01 X0.8378 Y-34.6603 F120.00
G01 X0.8777 Y-34.5760 F120.00
G01 X0.9091 Y-34.4883 F120.00
G01 X0.9317 Y-34.3978 F120.00
G01 X0.9454 Y-34.3056 F120.00
G01 X0.9500 Y-34.2125 F120.00
G01 X0.9454 Y-34.1194 F120.00
G01 X0.9317 Y-34.0272 F120.00
G01 X0.9091 Y-33.9367 F120.00
G01 X0.8777 Y-33.8490 F120.00
G01 X0.8390 Y-33.7669 F120.00
G01 X0.8298 Y-33.7511 F120.00
G01 X0.7101 Y-33.5075 F120.00
G01 X0.7055 Y-33.4995 F120.00
G01 X0.5605 Y-33.2695 F120.00
G01 X0.4490 Y-33.0779 F120.00
G01 X0.3773 Y-32.8539 F120.00
G01 X0.3501 Y-32.5113 F120.00
G01 X0.3501 Y-30.7450 F120.00
G01 X0.3567 Y-30.5936 F120.00
G01 X0.3755 Y-30.4509 F120.00
G01 X0.4067 Y-30.3104 F120.00
G01 X0.4499 Y-30.1731 F120.00
G01 X0.5050 Y-30.0402 F120.00
G01 X0.5714 Y-29.9125 F120.00
G01 X0.6488 Y-29.7912 F120.00
G01 X0.7364 Y-29.6770 F120.00
G01 X0.8384 Y-29.5657 F120.00
G01 X7.0158 Y-23.3882 F120.00
G01 X7.0264 Y-23.3772 F120.00
G01 X7.1443 Y-23.2485 F120.00
G01 X7.1612 Y-23.2285 F120.00
G01 X7.2701 Y-23.0867 F120.00
G01 X7.2852 Y-23.0653 F120.00
G01 X7.3814 Y-22.9146 F120.00
G01 X7.3893 Y-22.9015 F120.00
G01 X14.6142 Y-10.3876 F120.00
G01 X14.8271 Y-10.0943 F120.00
G01 X15.0246 Y-9.9393 F120.00
G01 X15.2441 Y-9.8298 F120.00
G01 X15.5001 Y-9.6897 F120.00
G01 X15.5081 Y-9.6848 F120.00
G01 X15.5157 Y-9.6794 F120.00
G01 X15.6966 Y-9.5301 F120.00
G01 X15.7581 Y-9.4844 F120.00
G01 X15.8272 Y-9.4218 F120.00
G01 X15.8866 Y-9.3564 F120.00
G01 X15.8928 Y-9.3488 F120.00
G01 X15.9453 Y-9.2778 F120.00
G01 X15.9920 Y-9.2000 F120.00
G01 X15.9954 Y-9.1934 F120.00
G01 X16.0331 Y-9.1135 F120.00
G01 X16.0645 Y-9.0258 F120.00
G01 X16.0871 Y-8.9353 F120.00
G01 X16.1008 Y-8.8431 F120.00
G01 X16.1054 Y-8.7500 F120.00
G01 X16.1008 Y-8.6569 F120.00
G01 X16.0871 Y-8.5647 F120.00
G01 X16.0658 Y-8.4790 F120.00
G01 X16.0630 Y-8.4696 F120.00
G01 X16.0331 Y-8.3865 F120.00
G01 X15.9954 Y-8.3066 F120.00
G01 X15.9908 Y-8.2979 F120.00
G01 X15.9479 Y-8.2264 F120.00
G01 X15.9425 Y-8.2182 F120.00
G01 X15.8898 Y-8.1473 F120.00
G01 X15.8272 Y-8.0782 F120.00
G01 X15.7581 Y-8.0156 F120.00
G01 X15.6872 Y-7.9629 F120.00
G01 X15.6811 Y-7.9588 F120.00
G01 X15.6032 Y-7.9122 F120.00
G01 X15.5189 Y-7.8723 F120.00
G01 X15.4312 Y-7.8409 F120.00
G01 X15.3407 Y-7.8183 F120.00
G01 X15.2485 Y-7.8046 F120.00
G01 X15.1554 Y-7.8000 F120.00
G01 X15.0623 Y-7.8046 F120.00
G01 X14.9701 Y-7.8183 F120.00
G01 X14.8796 Y-7.8409 F120.00
G01 X14.7919 Y-7.8723 F120.00
G01 X14.7076 Y-7.9122 F120.00
G01 X14.6276 Y-7.9601 F120.00
G01 X14.5527 Y-8.0156 F120.00
G01 X14.4836 Y-8.0782 F120.00
G01 X14.4210 Y-8.1473 F120.00
G01 X14.3683 Y-8.2182 F120.00
G01 X14.3629 Y-8.2264 F120.00
G01 X14.3176 Y-8.3022 F120.00
G01 X14.2797 Y-8.3820 F120.00
G01 X14.2759 Y-8.3910 F120.00
G01 X14.2478 Y-8.4696 F120.00
G01 X14.2450 Y-8.4790 F120.00
G01 X14.2237 Y-8.5647 F120.00
G01 X14.2102 Y-8.6544 F120.00
G01 X14.2055 Y-8.7451 F120.00
G01 X14.2054 Y-8.7531 F120.00
G01 X14.2162 Y-9.0963 F120.00
G01 X14.2289 Y-9.3426 F120.00
G01 X14.2166 Y-9.5391 F120.00
G01 X14.1543 Y-9.7489 F120.00
G01 X14.0101 Y-10.0334 F120.00
G01 X6.7867 Y-22.5447 F120.00
G01 X6.7053 Y-22.6726 F120.00
G01 X6.6177 Y-22.7867 F120.00
G01 X6.5151 Y-22.8987 F120.00
G01 X0.3382 Y-29.0755 F120.00
G01 X0.3276 Y-29.0866 F120.00
G01 X0.2098 Y-29.2152 F120.00
G01 X0.1928 Y-29.2352 F120.00
G01 X0.0839 Y-29.3770 F120.00
G01 X0.0664 Y-29.4021 F120.00
G01 X-0.0296 Y-29.5529 F120.00
G01 X-0.0426 Y-29.5757 F120.00
G01 X-0.1232 Y-29.7304 F120.00
G01 X-0.1361 Y-29.7581 F120.00
G01 X-0.2045 Y-29.9234 F120.00
G01 X-0.2133 Y-29.9480 F120.00
G01 X-0.2658 Y-30.1144 F120.00
G01 X-0.2737 Y-30.1439 F120.00
G01 X-0.3123 Y-30.3185 F120.00
G01 X-0.3168 Y-30.3443 F120.00
G01 X-0.3395 Y-30.5173 F120.00
G01 X-0.3422 Y-30.5478 F120.00
G01 X-0.3498 Y-30.7221 F120.00
G01 X-0.3501 Y-30.7373 F120.00
G01 X-0.3501 Y-32.5113 F120.00
G01 X-0.3773 Y-32.8539 F120.00
G01 X-0.4491 Y-33.0779 F120.00
G01 X-0.5605 Y-33.2695 F120.00
G01 X-0.7082 Y-33.5040 F120.00
G01 X-0.8298 Y-33.7511 F120.00
G00 Z2.0000
G00 X3.4399 Y-34.2100
G01 F60.00
G01 Z-0.0500
G01 F120.00
G01 X3.4357 Y-34.1243 F120.00
G01 X3.4227 Y-34.0369 F120.00
G01 X3.4012 Y-33.9512 F120.00
G01 X3.3715 Y-33.8681 F120.00
G01 X3.3337 Y-33.7882 F120.00
G01 X3.2883 Y-33.7125 F120.00
G01 X3.2357 Y-33.6415 F120.00
G01 X3.1764 Y-33.5761 F120.00
G01 X3.1110 Y-33.5168 F120.00
G01 X3.0400 Y-33.4642 F120.00
G01 X2.9643 Y-33.4188 F120.00
G01 X2.8844 Y-33.3810 F120.00
G01 X2.8013 Y-33.3513 F120.00
G01 X2.7156 Y-33.3298 F120.00
G01 X2.6282 Y-33.3168 F120.00
G01 X2.5400 Y-33.3125 F120.00
G01 X2.4518 Y-33.3168 F120.00
G01 X2.3644 Y-33.3298 F120.00
G01 X2.2787 Y-33.3513 F120.00
G01 X2.1956 Y-33.3810 F120.00
G01 X2.1157 Y-33.4188 F120.00
G01 X2.0400 Y-33.4642 F120.00
G01 X1.9690 Y-33.5168 F120.00
G01 X1.9036 Y-33.5761 F120.00
G01 X1.8443 Y-33.6415 F120.00
G01 X1.7917 Y-33.7125 F120.00
G01 X1.7463 Y-33.7882 F120.00
G01 X1.7085 Y-33.8681 F120.00
G01 X1.6788 Y-33.9512 F120.00
G01 X1.6573 Y-34.0369 F120.00
G01 X1.6443 Y-34.1243 F120.00
G01 X1.6400 Y-34.2125 F120.00
G01 X1.6443 Y-34.3007 F120.00
G01 X1.6573 Y-34.3881 F120.00
G01 X1.6788 Y-34.4738 F120.00
G01 X1.7085 Y-34.5569 F120.00
G01 X1.7463 Y-34.6368 F120.00
G01 X1.7917 Y-34.7125 F120.00
G01 X1.8443 Y-34.7835 F120.00
G01 X1.9036 Y-34.8489 F120.00
G01 X1.9690 Y-34.9082 F120.00
G01 X2.0400 Y-34.9608 F120.00
G01 X2.1157 Y-35.0062 F120.00
G01 X2.1956 Y-35.0440 F120.00
G01 X2.2787 Y-35.0737 F120.00
G01 X2.3644 Y-35.0952 F120.00
G01 X2.4518 Y-35.1082 F120.00
G01 X2.5400 Y-35.1125 F120.00
G01 X2.6282 Y-35.1082 F120.00
G01 X2.7156 Y-35.0952 F120.00
G01 X2.8013 Y-35.0737 F120.00
G01 X2.8844 Y-35.0440 F120.00
G01 X2.9643 Y-35.0062 F120.00
G01 X3.0400 Y-34.9608 F120.00
G01 X3.1110 Y-34.9082 F120.00
G01 X3.1764 Y-34.8489 F120.00
G01 X3.2357 Y-34.7835 F120.00
G01 X3.2883 Y-34.7125 F120.00
G01 X3.3337 Y-34.6368 F120.00
G01 X3.3715 Y-34.5569 F120.00
G01 X3.4012 Y-34.4738 F120.00
G01 X3.4227 Y-34.3881 F120.00
G01 X3.4357 Y-34.3007 F120.00
G01 X3.4399 Y-34.2100 F120.00
G00 Z2.0000
G00 X3.4899 Y-34.2076
G01 F60.00
G01 Z-0.0500
G01 F120.00
G01 X3.4854 Y-34.1194 F120.00
G01 X3.4717 Y-34.0272 F120.00
G01 X3.4491 Y-33.9367 F120.00
G01 X3.4177 Y-33.8490 F120.00
G01 X3.3778 Y-33.7647 F120.00
G01 X3.3299 Y-33.6847 F120.00
G01 X3.2744 Y-33.6098 F120.00
G01 X3.2118 Y-33.5407 F120.00
G01 X3.1427 Y-33.4781 F120.00
G01 X3.0678 Y-33.4226 F120.00
G01 X2.9878 Y-33.3747 F120.00
G01 X2.9035 Y-33.3348 F120.00
G01 X2.8158 Y-33.3034 F120.00
G01 X2.7253 Y-33.2808 F120.00
G01 X2.6331 Y-33.2671 F120.00
G01 X2.5400 Y-33.2625 F120.00
G01 X2.4469 Y-33.2671 F120.00
G01 X2.3547 Y-33.2808 F120.00
G01 X2.2642 Y-33.3034 F120.00
G01 X2.1765 Y-33.3348 F120.00
G01 X2.0922 Y-33.3747 F120.00
G01 X2.0122 Y-33.4226 F120.00
G01 X1.9373 Y-33.4781 F120.00
G01 X1.8682 Y-33.5407 F120.00
G01 X1.8056 Y-33.6098 F120.00
G01 X1.7501 Y-33.6847 F120.00
G01 X1.7022 Y-33.7647 F120.00
G01 X1.6623 Y-33.8490 F120.00
G01 X1.6309 Y-33.9367 F120.00
G01 X1.6083 Y-34.0272 F120.00
G01 X1.5946 Y-34.1194 F120.00
G01 X1.5900 Y-34.2125 F120.00
G01 X1.5946 Y-34.3056 F120.00
G01 X1.6083 Y-34.3978 F120.00
G01 X1.6309 Y-34.4883 F120.00
G01 X1.6623 Y-34.5760 F120.00
G01 X1.7022 Y-34.6603 F120.00
G01 X1.7501 Y-34.7403 F120.00
G01 X1.8056 Y-34.8152 F120.00
G01 X1.8682 Y-34.8843 F120.00
G01 X1.9373 Y-34.9469 F120.00
G01 X2.0122 Y-35.0024 F120.00
G01 X2.0922 Y-35.0503 F120.00
G01 X2.1765 Y-35.0902 F120.00
G01 X2.2642 Y-35.1216 F120.00
G01 X2.3547 Y-35.1442 F120.00
G01 X2.4469 Y-35.1579 F120.00
G01 X2.5400 Y-35.1625 F120.00
G01 X2.6331 Y-35.1579 F120.00
G01 X2.7253 Y-35.1442 F120.00
G01 X2.8158 Y-35.1216 F120.00
G01 X2.9035 Y-35.0902 F120.00
G01 X2.9878 Y-35.0503 F120.00
G01 X3.0678 Y-35.0024 F120.00
G01 X3.1427 Y-34.9469 F120.00
G01 X3.2118 Y-34.8843 F120.00
G01 X3.2744 Y-34.8152 F120.00
G01 X3.3299 Y-34.7403 F120.00
G01 X3.3778 Y-34.6603 F120.00
G01 X3.4177 Y-34.5760 F120.00
G01 X3.4491 Y-34.4883 F120.00
G01 X3.4717 Y-34.3978 F120.00
G01 X3.4854 Y-34.3056 F120.00
G01 X3.4899 Y-34.2174 F120.00
G01 X3.4899 Y-34.2076 F120.00
G00 Z2.0000
G00 X4.2502 Y-33.7511
G01 F60.00
G01 Z-0.0500
G01 F120.00
G01 X4.2434 Y-33.7625 F120.00
G01 X4.2400 Y-33.7691 F120.00
G01 X4.2043 Y-33.8445 F120.00
G01 X4.2005 Y-33.8535 F120.00
G01 X4.1709 Y-33.9367 F120.00
G01 X4.1493 Y-34.0224 F120.00
G01 X4.1474 Y-34.0320 F120.00
G01 X4.1346 Y-34.1194 F120.00
G01 X4.1300 Y-34.2125 F120.00
G01 X4.1346 Y-34.3056 F120.00
G01 X4.1474 Y-34.3930 F120.00
G01 X4.1493 Y-34.4026 F120.00
G01 X4.1709 Y-34.4883 F120.00
G01 X4.2023 Y-34.5760 F120.00
G01 X4.2422 Y-34.6603 F120.00
G01 X4.2901 Y-34.7403 F120.00
G01 X4.3456 Y-34.8152 F120.00
G01 X4.4082 Y-34.8843 F120.00
G01 X4.4773 Y-34.9469 F120.00
G01 X4.5522 Y-35.0024 F120.00
G01 X4.6322 Y-35.0503 F120.00
G01 X4.7165 Y-35.0902 F120.00
G01 X4.8042 Y-35.1216 F120.00
G01 X4.8899 Y-35.1432 F120.00
G01 X4.8995 Y-35.1451 F120.00
G01 X4.9820 Y-35.1573 F120.00
G01 X4.9918 Y-35.1583 F120.00
G01 X5.0800 Y-35.1625 F120.00
G01 X5.1682 Y-35.1583 F120.00
G01 X5.1780 Y-35.1573 F120.00
G01 X5.2653 Y-35.1442 F120.00
G01 X5.3558 Y-35.1216 F120.00
G01 X5.4435 Y-35.0902 F120.00
G01 X5.5278 Y-35.0503 F120.00
G01 X5.6078 Y-35.0024 F120.00
G01 X5.6827 Y-34.9469 F120.00
G01 X5.7518 Y-34.8843 F120.00
G01 X5.8128 Y-34.8171 F120.00
G01 X5.8174 Y-34.8113 F120.00
G01 X5.8699 Y-34.7403 F120.00
G01 X5.9178 Y-34.6603 F120.00
G01 X5.9577 Y-34.5760 F120.00
G01 X5.9876 Y-34.4929 F120.00
G01 X5.9904 Y-34.4835 F120.00
G01 X6.0107 Y-34.4026 F120.00
G01 X6.0126 Y-34.3930 F120.00
G01 X6.0254 Y-34.3056 F120.00
G01 X6.0299 Y-34.2174 F120.00
G01 X6.0299 Y-34.2076 F120.00
G01 X6.0254 Y-34.1194 F120.00
G01 X6.0122 Y-34.0296 F120.00
G01 X6.0107 Y-34.0224 F120.00
G01 X5.9891 Y-33.9367 F120.00
G01 X5.9577 Y-33.8490 F120.00
G01 X5.9190 Y-33.7669 F120.00
G01 X5.9098 Y-33.7511 F120.00
G01 X5.7913 Y-33.5098 F120.00
G01 X5.7855 Y-33.4995 F120.00
G01 X5.6405 Y-33.2695 F120.00
G01 X5.5290 Y-33.0779 F120.00
G01 X5.4573 Y-32.8539 F120.00
G01 X5.4301 Y-32.5113 F120.00
G01 X5.4301 Y-30.2561 F120.00
G01 X5.4367 Y-30.1047 F120.00
G01 X5.4555 Y-29.9620 F120.00
G01 X5.4867 Y-29.8215 F120.00
G01 X5.5299 Y-29.6842 F120.00
G01 X5.5850 Y-29.5513 F120.00
G01 X5.6514 Y-29.4236 F120.00
G01 X5.7288 Y-29.3023 F120.00
G01 X5.8164 Y-29.1881 F120.00
G01 X5.9184 Y-29.0767 F120.00
G01 X22.7231 Y-12.2720 F120.00
G01 X22.8527 Y-12.1308 F120.00
G01 X22.8694 Y-12.1107 F120.00
G01 X22.9756 Y-11.9723 F120.00
G01 X22.9932 Y-11.9473 F120.00
G01 X23.0869 Y-11.8001 F120.00
G01 X23.1001 Y-11.7775 F120.00
G01 X23.1847 Y-11.6150 F120.00
G01 X23.1957 Y-11.5912 F120.00
G01 X23.2624 Y-11.4300 F120.00
G01 X23.2729 Y-11.4013 F120.00
G01 X23.3253 Y-11.2349 F120.00
G01 X23.3322 Y-11.2097 F120.00
G01 X23.3719 Y-11.0308 F120.00
G01 X23.3763 Y-11.0050 F120.00
G01 X23.3991 Y-10.8320 F120.00
G01 X23.4018 Y-10.8016 F120.00
G01 X23.4097 Y-10.6145 F120.00
G01 X23.4097 Y-5.4763 F120.00
G01 X23.4094 Y-5.4611 F120.00
G01 X23.4017 Y-5.2867 F120.00
G01 X23.3996 Y-5.2607 F120.00
G01 X23.3763 Y-5.0833 F120.00
G01 X23.3719 Y-5.0575 F120.00
G01 X23.3332 Y-4.8829 F120.00
G01 X23.3266 Y-4.8576 F120.00
G01 X23.2729 Y-4.6870 F120.00
G01 X23.2632 Y-4.6603 F120.00
G01 X23.1957 Y-4.4971 F120.00
G01 X23.1847 Y-4.4733 F120.00
G01 X23.1022 Y-4.3147 F120.00
G01 X23.0948 Y-4.3013 F120.00
G01 X16.3006 Y7.4666 F120.00
G01 X16.1565 Y7.7511 F120.00
G01 X16.0942 Y7.9609 F120.00
G01 X16.0819 Y8.1574 F120.00
G01 X16.0947 Y8.4039 F120.00
G01 X16.1054 Y8.7475 F120.00
G01 X16.1012 Y8.8382 F120.00
G01 X16.1002 Y8.8480 F120.00
G01 X16.0880 Y8.9305 F120.00
G01 X16.0861 Y8.9401 F120.00
G01 X16.0645 Y9.0258 F120.00
G01 X16.0340 Y9.1113 F120.00
G01 X16.0311 Y9.1180 F120.00
G01 X15.9932 Y9.1978 F120.00
G01 X15.9479 Y9.2736 F120.00
G01 X15.9425 Y9.2818 F120.00
G01 X15.8898 Y9.3527 F120.00
G01 X15.8305 Y9.4182 F120.00
G01 X15.8236 Y9.4251 F120.00
G01 X15.7618 Y9.4812 F120.00
G01 X15.7542 Y9.4874 F120.00
G01 X15.6832 Y9.5399 F120.00
G01 X15.6032 Y9.5878 F120.00
G01 X15.5189 Y9.6277 F120.00
G01 X15.4358 Y9.6576 F120.00
G01 X15.4264 Y9.6604 F120.00
G01 X15.3407 Y9.6817 F120.00
G01 X15.2534 Y9.6948 F120.00
G01 X15.2436 Y9.6958 F120.00
G01 X15.1554 Y9.7000 F120.00
G01 X15.0672 Y9.6958 F120.00
G01 X15.0574 Y9.6948 F120.00
G01 X14.9701 Y9.6817 F120.00
G01 X14.8796 Y9.6591 F120.00
G01 X14.7964 Y9.6295 F120.00
G01 X14.7874 Y9.6257 F120.00
G01 X14.7076 Y9.5878 F120.00
G01 X14.6276 Y9.5399 F120.00
G01 X14.5527 Y9.4844 F120.00
G01 X14.4872 Y9.4251 F120.00
G01 X14.4803 Y9.4182 F120.00
G01 X14.4210 Y9.3527 F120.00
G01 X14.3683 Y9.2818 F120.00
G01 X14.3629 Y9.2736 F120.00
G01 X14.3176 Y9.1978 F120.00
G01 X14.2777 Y9.1135 F120.00
G01 X14.2478 Y9.0304 F120.00
G01 X14.2450 Y9.0210 F120.00
G01 X14.2237 Y8.9353 F120.00
G01 X14.2100 Y8.8431 F120.00
G01 X14.2054 Y8.7500 F120.00
G01 X14.2096 Y8.6618 F120.00
G01 X14.2106 Y8.6520 F120.00
G01 X14.2237 Y8.5647 F120.00
G01 X14.2450 Y8.4790 F120.00
G01 X14.2478 Y8.4696 F120.00
G01 X14.2777 Y8.3865 F120.00
G01 X14.3164 Y8.3044 F120.00
G01 X14.3629 Y8.2264 F120.00
G01 X14.3683 Y8.2182 F120.00
G01 X14.4210 Y8.1473 F120.00
G01 X14.4836 Y8.0782 F120.00
G01 X14.5527 Y8.0156 F120.00
G01 X14.6142 Y7.9699 F120.00
G01 X14.7951 Y7.8206 F120.00
G01 X14.8027 Y7.8152 F120.00
G01 X14.8107 Y7.8103 F120.00
G01 X15.0667 Y7.6702 F120.00
G01 X15.2862 Y7.5607 F120.00
G01 X15.4837 Y7.4057 F120.00
G01 X15.6966 Y7.1124 F120.00
G01 X22.4846 Y-4.6448 F120.00
G01 X22.5546 Y-4.7792 F120.00
G01 X22.6096 Y-4.9121 F120.00
G01 X22.6529 Y-5.0494 F120.00
G01 X22.6840 Y-5.1899 F120.00
G01 X22.7028 Y-5.3326 F120.00
G01 X22.7094 Y-5.4842 F120.00
G01 X22.7094 Y-10.6044 F120.00
G01 X22.7028 Y-10.7558 F120.00
G01 X22.6841 Y-10.8984 F120.00
G01 X22.6529 Y-11.0389 F120.00
G01 X22.6096 Y-11.1762 F120.00
G01 X22.5546 Y-11.3091 F120.00
G01 X22.4881 Y-11.4368 F120.00
G01 X22.4108 Y-11.5581 F120.00
G01 X22.3232 Y-11.6723 F120.00
G01 X22.2207 Y-11.7842 F120.00
G01 X5.4182 Y-28.5866 F120.00
G01 X5.4076 Y-28.5977 F120.00
G01 X5.2898 Y-28.7263 F120.00
G01 X5.2715 Y-28.7480 F120.00
G01 X5.1613 Y-28.8916 F120.00
G01 X5.1464 Y-28.9131 F120.00
G01 X5.0526 Y-29.0603 F120.00
G01 X5.0374 Y-29.0868 F120.00
G01 X4.9549 Y-29.2454 F120.00
G01 X4.9439 Y-29.2692 F120.00
G01 X4.8771 Y-29.4304 F120.00
G01 X4.8667 Y-29.4591 F120.00
G01 X4.8142 Y-29.6255 F120.00
G01 X4.8074 Y-29.6508 F120.00
G01 X4.7681 Y-29.8275 F120.00
G01 X4.7632 Y-29.8554 F120.00
G01 X4.7400 Y-30.0328 F120.00
G01 X4.7378 Y-30.0588 F120.00
G01 X4.7299 Y-30.2460 F120.00
G01 X4.7299 Y-32.5113 F120.00
G01 X4.7027 Y-32.8539 F120.00
G01 X4.6309 Y-33.0779 F120.00
G01 X4.5195 Y-33.2695 F120.00
G01 X4.3718 Y-33.5040 F120.00
G01 X4.2502 Y-33.7511 F120.00
G00 Z2.0000
G00 X4.2941 Y-33.7750
G01 F60.00
G01 Z-0.0500
G01 F120.00
G01 X4.2857 Y-33.7893 F120.00
G01 X4.2485 Y-33.8681 F120.00
G01 X4.2188 Y-33.9512 F120.00
G01 X4.1973 Y-34.0369 F120.00
G01 X4.1843 Y-34.1243 F120.00
G01 X4.1800 Y-34.2125 F120.00
G01 X4.1843 Y-34.3007 F120.00
G01 X4.1973 Y-34.3881 F120.00
G01 X4.2188 Y-34.4738 F120.00
G01 X4.2485 Y-34.5569 F120.00
G01 X4.2863 Y-34.6368 F120.00
G01 X4.3317 Y-34.7125 F120.00
G01 X4.3843 Y-34.7835 F120.00
G01 X4.4436 Y-34.8489 F120.00
G01 X4.5090 Y-34.9082 F120.00
G01 X4.5800 Y-34.9608 F120.00
G01 X4.6557 Y-35.0062 F120.00
G01 X4.7356 Y-35.0440 F120.00
G01 X4.8187 Y-35.0737 F120.00
G01 X4.9044 Y-35.0952 F120.00
G01 X4.9918 Y-35.1082 F120.00
G01 X5.0800 Y-35.1125 F120.00
G01 X5.1682 Y-35.1082 F120.00
G01 X5.2556 Y-35.0952 F120.00
G01 X5.3413 Y-35.0737 F120.00
G01 X5.4244 Y-35.0440 F120.00
G01 X5.5043 Y-35.0062 F120.00
G01 X5.5800 Y-34.9608 F120.00
G01 X5.6510 Y-34.9082 F120.00
G01 X5.7164 Y-34.8489 F120.00
G01 X5.7757 Y-34.7835 F120.00
G01 X5.8283 Y-34.7125 F120.00
G01 X5.8737 Y-34.6368 F120.00
G01 X5.9115 Y-34.5569 F120.00
G01 X5.9412 Y-34.4738 F120.00
G01 X5.9627 Y-34.3881 F120.00
G01 X5.9754 Y-34.3032 F120.00
G01 X5.9799 Y-34.2100 F120.00
G01 X5.9757 Y-34.1243 F120.00
G01 X5.9625 Y-34.0357 F120.00
G01 X5.9412 Y-33.9512 F120.00
G01 X5.9110 Y-33.8670 F120.00
G01 X5.8743 Y-33.7893 F120.00
G01 X5.8659 Y-33.7750 F120.00
G01 X5.7458 Y-33.5307 F120.00
G01 X5.5977 Y-33.2954 F120.00
G01 X5.4831 Y-33.0984 F120.00
G01 X5.4080 Y-32.8636 F120.00
G01 X5.3801 Y-32.5148 F120.00
G01 X5.3801 Y-30.2550 F120.00
G01 X5.3869 Y-30.1003 F120.00
G01 X5.4062 Y-29.9533 F120.00
G01 X5.4383 Y-29.8085 F120.00
G01 X5.4829 Y-29.6671 F120.00
G01 X5.5396 Y-29.5301 F120.00
G01 X5.6081 Y-29.3986 F120.00
G01 X5.6878 Y-29.2736 F120.00
G01 X5.7780 Y-29.1559 F120.00
G01 X5.8823 Y-29.0421 F120.00
G01 X22.6869 Y-12.2376 F120.00
G01 X22.8144 Y-12.0987 F120.00
G01 X22.8298 Y-12.0803 F120.00
G01 X22.9360 Y-11.9419 F120.00
G01 X22.9510 Y-11.9204 F120.00
G01 X23.0447 Y-11.7733 F120.00
G01 X23.0568 Y-11.7525 F120.00
G01 X23.1394 Y-11.5939 F120.00
G01 X23.1495 Y-11.5721 F120.00
G01 X23.2162 Y-11.4109 F120.00
G01 X23.2252 Y-11.3863 F120.00
G01 X23.2777 Y-11.2199 F120.00
G01 X23.2839 Y-11.1967 F120.00
G01 X23.3226 Y-11.0221 F120.00
G01 X23.3267 Y-10.9985 F120.00
G01 X23.3495 Y-10.8255 F120.00
G01 X23.3518 Y-10.7994 F120.00
G01 X23.3597 Y-10.6132 F120.00
G01 X23.3597 Y-5.4763 F120.00
G01 X23.3594 Y-5.4632 F120.00
G01 X23.3518 Y-5.2889 F120.00
G01 X23.3497 Y-5.2650 F120.00
G01 X23.3267 Y-5.0899 F120.00
G01 X23.3226 Y-5.0662 F120.00
G01 X23.2844 Y-4.8937 F120.00
G01 X23.2783 Y-4.8705 F120.00
G01 X23.2252 Y-4.7020 F120.00
G01 X23.2166 Y-4.6784 F120.00
G01 X23.1495 Y-4.5162 F120.00
G01 X23.1394 Y-4.4945 F120.00
G01 X23.0578 Y-4.3377 F120.00
