(Exported by FreeCAD)
(Post Processor: script_module)
(Output Time:2024-07-27 04:17:16.475889)
(Begin preamble)
G17 G90
G21
(Begin operation: Fixture)
(Path: Fixture)
G54
(Finish operation: Fixture)
(Begin operation: 1mm Endmill001)
(Path: 1mm Endmill001)
(1mm Endmill001)
(Begin toolchange)
( M6 T2 )
M3 S1000
(Finish operation: 1mm Endmill001)
(Begin operation: Profile)
(Path: Profile)
(Profile)
(Compensated Tool Path. Diameter: 1.0)
G0 Z5.000
G0 X5.338 Y5.338
G0 Z3.000
G1 X5.338 Y5.338 Z-0.500 F60.000
G2 X1.473 Y-7.404 Z-0.500 I-5.338 J-5.338 K0.000 F120.000
G2 X-1.473 Y7.404 Z-0.500 I-1.473 J7.404 K0.000 F120.000
G2 X5.338 Y5.338 Z-0.500 I1.473 J-7.404 K0.000 F120.000
G1 X5.338 Y5.338 Z-1.000 F60.000
G2 X1.473 Y-7.404 Z-1.000 I-5.338 J-5.338 K0.000 F120.000
G2 X-1.473 Y7.404 Z-1.000 I-1.473 J7.404 K0.000 F120.000
G2 X5.338 Y5.338 Z-1.000 I1.473 J-7.404 K0.000 F120.000
G1 X5.338 Y5.338 Z-1.500 F60.000
G2 X1.473 Y-7.404 Z-1.500 I-5.338 J-5.338 K0.000 F120.000
G2 X-1.473 Y7.404 Z-1.500 I-1.473 J7.404 K0.000 F120.000
G2 X5.338 Y5.338 Z-1.500 I1.473 J-7.404 K0.000 F120.000
G1 X5.338 Y5.338 Z-2.000 F60.000
G2 X1.473 Y-7.404 Z-2.000 I-5.338 J-5.338 K0.000 F120.000
G2 X-1.473 Y7.404 Z-2.000 I-1.473 J7.404 K0.000 F120.000
G2 X5.338 Y5.338 Z-2.000 I1.473 J-7.404 K0.000 F120.000
G0 Z5.000
G0 Z5.000
G0 X5.338 Y5.338
G0 Y15.250
G0 Y15.250 Z3.000
G1 X5.338 Y15.250 Z-0.500 F60.000
G1 X0.020 Y15.250 Z-0.500 F120.000
G1 X-0.352 Y15.279 Z-0.500 F120.000
G2 X0.020 Y19.750 Z-0.500 I0.353 J2.222 K0.000 F120.000
G1 X15.116 Y19.750 Z-0.500 F120.000
G1 X15.231 Y19.732 Z-0.500 F120.000
G2 X15.116 Y19.250 Z-0.500 I-0.080 J-0.235 K0.000 F120.000
G1 X0.000 Y19.250 Z-0.500 F120.000
G3 X-0.056 Y15.753 Z-0.500 I0.001 J-1.749 K0.000 F120.000
G1 X15.116 Y15.750 Z-0.500 F120.000
G1 X15.231 Y15.732 Z-0.500 F120.000
G2 X15.116 Y15.250 Z-0.500 I-0.080 J-0.235 K0.000 F120.000
G1 X5.338 Y15.250 Z-0.500 F120.000
G1 X5.338 Y15.250 Z-1.000 F60.000
G1 X0.020 Y15.250 Z-1.000 F120.000
G1 X-0.352 Y15.279 Z-1.000 F120.000
G2 X0.020 Y19.750 Z-1.000 I0.353 J2.222 K0.000 F120.000
G1 X15.116 Y19.750 Z-1.000 F120.000
G1 X15.231 Y19.732 Z-1.000 F120.000
G2 X15.116 Y19.250 Z-1.000 I-0.080 J-0.235 K0.000 F120.000
G1 X0.000 Y19.250 Z-1.000 F120.000
G3 X-0.056 Y15.753 Z-1.000 I0.001 J-1.749 K0.000 F120.000
G1 X15.116 Y15.750 Z-1.000 F120.000
G1 X15.231 Y15.732 Z-1.000 F120.000
G2 X15.116 Y15.250 Z-1.000 I-0.080 J-0.235 K0.000 F120.000
G1 X5.338 Y15.250 Z-1.000 F120.000
G1 X5.338 Y15.250 Z-1.500 F60.000
G1 X0.020 Y15.250 Z-1.500 F120.000
G1 X-0.352 Y15.279 Z-1.500 F120.000
G2 X0.020 Y19.750 Z-1.500 I0.353 J2.222 K0.000 F120.000
G1 X15.116 Y19.750 Z-1.500 F120.000
G1 X15.231 Y19.732 Z-1.500 F120.000
G2 X15.116 Y19.250 Z-1.500 I-0.080 J-0.235 K0.000 F120.000
G1 X0.000 Y19.250 Z-1.500 F120.000
G3 X-0.056 Y15.753 Z-1.500 I0.001 J-1.749 K0.000 F120.000
G1 X15.116 Y15.750 Z-1.500 F120.000
G1 X15.231 Y15.732 Z-1.500 F120.000
G2 X15.116 Y15.250 Z-1.500 I-0.080 J-0.235 K0.000 F120.000
G1 X5.338 Y15.250 Z-1.500 F120.000
G1 X5.338 Y15.250 Z-2.000 F60.000
G1 X0.020 Y15.250 Z-2.000 F120.000
G1 X-0.352 Y15.279 Z-2.000 F120.000
G2 X0.020 Y19.750 Z-2.000 I0.353 J2.222 K0.000 F120.000
G1 X15.116 Y19.750 Z-2.000 F120.000
G1 X15.231 Y19.732 Z-2.000 F120.000
G2 X15.116 Y19.250 Z-2.000 I-0.080 J-0.235 K0.000 F120.000
G1 X0.000 Y19.250 Z-2.000 F120.000
G3 X-0.056 Y15.753 Z-2.000 I0.001 J-1.749 K0.000 F120.000
G1 X15.116 Y15.750 Z-2.000 F120.000
G1 X15.231 Y15.732 Z-2.000 F120.000
G2 X15.116 Y15.250 Z-2.000 I-0.080 J-0.235 K0.000 F120.000
G1 X5.338 Y15.250 Z-2.000 F120.000
G0 Z5.000
G0 Z5.000
G0 X5.338 Y15.250
G0 X13.281 Y9.991
G0 X13.281 Y9.991 Z3.000
G1 X13.281 Y9.991 Z-0.500 F60.000
G2 X17.114 Y9.858 Z-0.500 I1.876 J-1.242 K0.000 F120.000
G1 X24.662 Y-3.216 Z-0.500 F120.000
G1 X24.704 Y-3.324 Z-0.500 F120.000
G2 X24.229 Y-3.466 Z-0.500 I-0.244 J-0.048 K0.000 F120.000
G1 X16.671 Y9.625 Z-0.500 F120.000
G3 X13.613 Y7.929 Z-0.500 I-1.514 J-0.876 K0.000 F120.000
G1 X21.198 Y-5.216 Z-0.500 F120.000
G2 X21.123 Y-5.586 Z-0.500 I-0.211 J-0.150 K0.000 F120.000
G2 X20.770 Y-5.474 Z-0.500 I-0.126 J0.217 K0.000 F120.000
G1 X13.217 Y7.608 Z-0.500 F120.000
G1 X13.056 Y7.944 Z-0.500 F120.000
G2 X13.281 Y9.991 Z-0.500 I2.100 J0.805 K0.000 F120.000
G1 X13.281 Y9.991 Z-1.000 F60.000
G2 X17.114 Y9.858 Z-1.000 I1.876 J-1.242 K0.000 F120.000
G1 X24.662 Y-3.216 Z-1.000 F120.000
G1 X24.704 Y-3.324 Z-1.000 F120.000
G2 X24.229 Y-3.466 Z-1.000 I-0.244 J-0.048 K0.000 F120.000
G1 X16.671 Y9.625 Z-1.000 F120.000
G3 X13.613 Y7.929 Z-1.000 I-1.514 J-0.876 K0.000 F120.000
G1 X21.198 Y-5.216 Z-1.000 F120.000
G2 X21.123 Y-5.586 Z-1.000 I-0.211 J-0.150 K0.000 F120.000
G2 X20.770 Y-5.474 Z-1.000 I-0.126 J0.217 K0.000 F120.000
G1 X13.217 Y7.608 Z-1.000 F120.000
G1 X13.056 Y7.944 Z-1.000 F120.000
G2 X13.281 Y9.991 Z-1.000 I2.100 J0.805 K0.000 F120.000
G1 X13.281 Y9.991 Z-1.500 F60.000
G2 X17.114 Y9.858 Z-1.500 I1.876 J-1.242 K0.000 F120.000
G1 X24.662 Y-3.216 Z-1.500 F120.000
G1 X24.704 Y-3.324 Z-1.500 F120.000
G2 X24.229 Y-3.466 Z-1.500 I-0.244 J-0.048 K0.000 F120.000
G1 X16.671 Y9.625 Z-1.500 F120.000
G3 X13.613 Y7.929 Z-1.500 I-1.514 J-0.876 K0.000 F120.000
G1 X21.198 Y-5.216 Z-1.500 F120.000
G2 X21.123 Y-5.586 Z-1.500 I-0.211 J-0.150 K0.000 F120.000
G2 X20.770 Y-5.474 Z-1.500 I-0.126 J0.217 K0.000 F120.000
G1 X13.217 Y7.608 Z-1.500 F120.000
G1 X13.056 Y7.944 Z-1.500 F120.000
G2 X13.281 Y9.991 Z-1.500 I2.100 J0.805 K0.000 F120.000
G1 X13.281 Y9.991 Z-2.000 F60.000
G2 X17.114 Y9.858 Z-2.000 I1.876 J-1.242 K0.000 F120.000
G1 X24.662 Y-3.216 Z-2.000 F120.000
G1 X24.704 Y-3.324 Z-2.000 F120.000
G2 X24.229 Y-3.466 Z-2.000 I-0.244 J-0.048 K0.000 F120.000
G1 X16.671 Y9.625 Z-2.000 F120.000
G3 X13.613 Y7.929 Z-2.000 I-1.514 J-0.876 K0.000 F120.000
G1 X21.198 Y-5.216 Z-2.000 F120.000
G2 X21.123 Y-5.586 Z-2.000 I-0.211 J-0.150 K0.000 F120.000
G2 X20.770 Y-5.474 Z-2.000 I-0.126 J0.217 K0.000 F120.000
G1 X13.217 Y7.608 Z-2.000 F120.000
G1 X13.056 Y7.944 Z-2.000 F120.000
G2 X13.281 Y9.991 Z-2.000 I2.100 J0.805 K0.000 F120.000
G0 Z5.000
G0 Z5.000
G0 X13.281 Y9.991
G0 X14.932 Y-6.513
G0 X14.932 Y-6.513 Z3.000
G1 X14.932 Y-6.513 Z-0.500 F60.000
G2 X17.094 Y-9.892 Z-0.500 I0.224 J-2.238 K0.000 F120.000
G1 X9.541 Y-22.974 Z-0.500 F120.000
G2 X9.444 Y-23.082 Z-0.500 I-0.272 J0.148 K0.000 F120.000
G2 X9.113 Y-22.716 Z-0.500 I-0.132 J0.213 K0.000 F120.000
G1 X16.671 Y-9.625 Z-0.500 F120.000
G3 X13.671 Y-7.828 Z-0.500 I-1.515 J0.873 K0.000 F120.000
G1 X6.082 Y-20.966 Z-0.500 F120.000
G1 X6.009 Y-21.056 Z-0.500 F120.000
G2 X5.649 Y-20.716 Z-0.500 I-0.164 J0.187 K0.000 F120.000
G1 X13.197 Y-7.642 Z-0.500 F120.000
G1 X13.408 Y-7.335 Z-0.500 F120.000
G2 X14.932 Y-6.513 Z-0.500 I1.748 J-1.416 K0.000 F120.000
G1 X14.932 Y-6.513 Z-1.000 F60.000
G2 X17.094 Y-9.892 Z-1.000 I0.224 J-2.238 K0.000 F120.000
G1 X9.541 Y-22.974 Z-1.000 F120.000
G2 X9.444 Y-23.082 Z-1.000 I-0.272 J0.148 K0.000 F120.000
G2 X9.113 Y-22.716 Z-1.000 I-0.132 J0.213 K0.000 F120.000
G1 X16.671 Y-9.625 Z-1.000 F120.000
G3 X13.671 Y-7.828 Z-1.000 I-1.515 J0.873 K0.000 F120.000
G1 X6.082 Y-20.966 Z-1.000 F120.000
G1 X6.009 Y-21.056 Z-1.000 F120.000
G2 X5.649 Y-20.716 Z-1.000 I-0.164 J0.187 K0.000 F120.000
G1 X13.197 Y-7.642 Z-1.000 F120.000
G1 X13.408 Y-7.335 Z-1.000 F120.000
G2 X14.932 Y-6.513 Z-1.000 I1.748 J-1.416 K0.000 F120.000
G1 X14.932 Y-6.513 Z-1.500 F60.000
G2 X17.094 Y-9.892 Z-1.500 I0.224 J-2.238 K0.000 F120.000
G1 X9.541 Y-22.974 Z-1.500 F120.000
G2 X9.444 Y-23.082 Z-1.500 I-0.272 J0.148 K0.000 F120.000
G2 X9.113 Y-22.716 Z-1.500 I-0.132 J0.213 K0.000 F120.000
G1 X16.671 Y-9.625 Z-1.500 F120.000
G3 X13.671 Y-7.828 Z-1.500 I-1.515 J0.873 K0.000 F120.000
G1 X6.082 Y-20.966 Z-1.500 F120.000
G1 X6.009 Y-21.056 Z-1.500 F120.000
G2 X5.649 Y-20.716 Z-1.500 I-0.164 J0.187 K0.000 F120.000
G1 X13.197 Y-7.642 Z-1.500 F120.000
G1 X13.408 Y-7.335 Z-1.500 F120.000
G2 X14.932 Y-6.513 Z-1.500 I1.748 J-1.416 K0.000 F120.000
G1 X14.932 Y-6.513 Z-2.000 F60.000
G2 X17.094 Y-9.892 Z-2.000 I0.224 J-2.238 K0.000 F120.000
G1 X9.541 Y-22.974 Z-2.000 F120.000
G2 X9.444 Y-23.082 Z-2.000 I-0.272 J0.148 K0.000 F120.000
G2 X9.113 Y-22.716 Z-2.000 I-0.132 J0.213 K0.000 F120.000
G1 X16.671 Y-9.625 Z-2.000 F120.000
G3 X13.671 Y-7.828 Z-2.000 I-1.515 J0.873 K0.000 F120.000
G1 X6.082 Y-20.966 Z-2.000 F120.000
G1 X6.009 Y-21.056 Z-2.000 F120.000
G2 X5.649 Y-20.716 Z-2.000 I-0.164 J0.187 K0.000 F120.000
G1 X13.197 Y-7.642 Z-2.000 F120.000
G1 X13.408 Y-7.335 Z-2.000 F120.000
G2 X14.932 Y-6.513 Z-2.000 I1.748 J-1.416 K0.000 F120.000
G0 Z5.000
G0 Z5.000
G0 X14.932 Y-6.513
G0 X1.811 Y-16.168
G0 X1.811 Y-16.168 Z3.000
G1 X1.811 Y-16.168 Z-0.500 F60.000
G2 X-0.020 Y-19.750 Z-0.500 I-1.812 J-1.333 K0.000 F120.000
G1 X-15.116 Y-19.750 Z-0.500 F120.000
G1 X-15.231 Y-19.732 Z-0.500 F120.000
G2 X-15.116 Y-19.250 Z-0.500 I0.080 J0.235 K0.000 F120.000
G1 X-0.000 Y-19.250 Z-0.500 F120.000
G3 X0.056 Y-15.753 Z-0.500 I-0.001 J1.749 K0.000 F120.000
G1 X-15.116 Y-15.750 Z-0.500 F120.000
G1 X-15.231 Y-15.732 Z-0.500 F120.000
G2 X-15.116 Y-15.250 Z-0.500 I0.080 J0.235 K0.000 F120.000
G1 X-0.020 Y-15.250 Z-0.500 F120.000
G1 X0.352 Y-15.279 Z-0.500 F120.000
G2 X1.811 Y-16.168 Z-0.500 I-0.353 J-2.222 K0.000 F120.000
G1 X1.811 Y-16.168 Z-1.000 F60.000
G2 X-0.020 Y-19.750 Z-1.000 I-1.812 J-1.333 K0.000 F120.000
G1 X-15.116 Y-19.750 Z-1.000 F120.000
G1 X-15.231 Y-19.732 Z-1.000 F120.000
G2 X-15.116 Y-19.250 Z-1.000 I0.080 J0.235 K0.000 F120.000
G1 X-0.000 Y-19.250 Z-1.000 F120.000
G3 X0.056 Y-15.753 Z-1.000 I-0.001 J1.749 K0.000 F120.000
G1 X-15.116 Y-15.750 Z-1.000 F120.000
G1 X-15.231 Y-15.732 Z-1.000 F120.000
G2 X-15.116 Y-15.250 Z-1.000 I0.080 J0.235 K0.000 F120.000
G1 X-0.020 Y-15.250 Z-1.000 F120.000
G1 X0.352 Y-15.279 Z-1.000 F120.000
G2 X1.811 Y-16.168 Z-1.000 I-0.353 J-2.222 K0.000 F120.000
G1 X1.811 Y-16.168 Z-1.500 F60.000
G2 X-0.020 Y-19.750 Z-1.500 I-1.812 J-1.333 K0.000 F120.000
G1 X-15.116 Y-19.750 Z-1.500 F120.000
G1 X-15.231 Y-19.732 Z-1.500 F120.000
G2 X-15.116 Y-19.250 Z-1.500 I0.080 J0.235 K0.000 F120.000
G1 X-0.000 Y-19.250 Z-1.500 F120.000
G3 X0.056 Y-15.753 Z-1.500 I-0.001 J1.749 K0.000 F120.000
G1 X-15.116 Y-15.750 Z-1.500 F120.000
G1 X-15.231 Y-15.732 Z-1.500 F120.000
G2 X-15.116 Y-15.250 Z-1.500 I0.080 J0.235 K0.000 F120.000
G1 X-0.020 Y-15.250 Z-1.500 F120.000
G1 X0.352 Y-15.279 Z-1.500 F120.000
G2 X1.811 Y-16.168 Z-1.500 I-0.353 J-2.222 K0.000 F120.000
G1 X1.811 Y-16.168 Z-2.000 F60.000
G2 X-0.020 Y-19.750 Z-2.000 I-1.812 J-1.333 K0.000 F120.000
G1 X-15.116 Y-19.750 Z-2.000 F120.000
G1 X-15.231 Y-19.732 Z-2.000 F120.000
G2 X-15.116 Y-19.250 Z-2.000 I0.080 J0.235 K0.000 F120.000
G1 X-0.000 Y-19.250 Z-2.000 F120.000
G3 X0.056 Y-15.753 Z-2.000 I-0.001 J1.749 K0.000 F120.000
G1 X-15.116 Y-15.750 Z-2.000 F120.000
G1 X-15.231 Y-15.732 Z-2.000 F120.000
G2 X-15.116 Y-15.250 Z-2.000 I0.080 J0.235 K0.000 F120.000
G1 X-0.020 Y-15.250 Z-2.000 F120.000
G1 X0.352 Y-15.279 Z-2.000 F120.000
G2 X1.811 Y-16.168 Z-2.000 I-0.353 J-2.222 K0.000 F120.000
G0 Z5.000
G0 Z5.000
G0 X1.811 Y-16.168
G0 X-13.095 Y-9.650
G0 X-13.095 Y-9.650 Z3.000
G1 X-13.095 Y-9.650 Z-0.500 F60.000
G2 X-14.295 Y-10.827 Z-0.500 I-2.062 J0.902 K0.000 F120.000
G2 X-17.114 Y-9.858 Z-0.500 I-0.861 J2.080 K0.000 F120.000
G1 X-24.662 Y3.216 Z-0.500 F120.000
G1 X-24.704 Y3.324 Z-0.500 F120.000
G2 X-24.229 Y3.466 Z-0.500 I0.244 J0.048 K0.000 F120.000
G1 X-16.671 Y-9.625 Z-0.500 F120.000
G3 X-13.613 Y-7.929 Z-0.500 I1.514 J0.876 K0.000 F120.000
G1 X-21.198 Y5.216 Z-0.500 F120.000
G1 X-21.240 Y5.324 Z-0.500 F120.000
G2 X-20.765 Y5.466 Z-0.500 I0.244 J0.048 K0.000 F120.000
G1 X-13.218 Y-7.607 Z-0.500 F120.000
G2 X-13.095 Y-9.650 Z-0.500 I-1.940 J-1.141 K0.000 F120.000
G1 X-13.095 Y-9.650 Z-1.000 F60.000
G2 X-14.295 Y-10.827 Z-1.000 I-2.062 J0.902 K0.000 F120.000
G2 X-17.114 Y-9.858 Z-1.000 I-0.861 J2.080 K0.000 F120.000
G1 X-24.662 Y3.216 Z-1.000 F120.000
G1 X-24.704 Y3.324 Z-1.000 F120.000
G2 X-24.229 Y3.466 Z-1.000 I0.244 J0.048 K0.000 F120.000
G1 X-16.671 Y-9.625 Z-1.000 F120.000
G3 X-13.613 Y-7.929 Z-1.000 I1.514 J0.876 K0.000 F120.000
G1 X-21.198 Y5.216 Z-1.000 F120.000
G1 X-21.240 Y5.324 Z-1.000 F120.000
G2 X-20.765 Y5.466 Z-1.000 I0.244 J0.048 K0.000 F120.000
G1 X-13.218 Y-7.607 Z-1.000 F120.000
G2 X-13.095 Y-9.650 Z-1.000 I-1.940 J-1.141 K0.000 F120.000
G1 X-13.095 Y-9.650 Z-1.500 F60.000
G2 X-14.295 Y-10.827 Z-1.500 I-2.062 J0.902 K0.000 F120.000
G2 X-17.114 Y-9.858 Z-1.500 I-0.861 J2.080 K0.000 F120.000
G1 X-24.662 Y3.216 Z-1.500 F120.000
G1 X-24.704 Y3.324 Z-1.500 F120.000
G2 X-24.229 Y3.466 Z-1.500 I0.244 J0.048 K0.000 F120.000
G1 X-16.671 Y-9.625 Z-1.500 F120.000
G3 X-13.613 Y-7.929 Z-1.500 I1.514 J0.876 K0.000 F120.000
G1 X-21.198 Y5.216 Z-1.500 F120.000
G1 X-21.240 Y5.324 Z-1.500 F120.000
G2 X-20.765 Y5.466 Z-1.500 I0.244 J0.048 K0.000 F120.000
G1 X-13.218 Y-7.607 Z-1.500 F120.000
G2 X-13.095 Y-9.650 Z-1.500 I-1.940 J-1.141 K0.000 F120.000
G1 X-13.095 Y-9.650 Z-2.000 F60.000
G2 X-14.295 Y-10.827 Z-2.000 I-2.062 J0.902 K0.000 F120.000
G2 X-17.114 Y-9.858 Z-2.000 I-0.861 J2.080 K0.000 F120.000
G1 X-24.662 Y3.216 Z-2.000 F120.000
G1 X-24.704 Y3.324 Z-2.000 F120.000
G2 X-24.229 Y3.466 Z-2.000 I0.244 J0.048 K0.000 F120.000
G1 X-16.671 Y-9.625 Z-2.000 F120.000
G3 X-13.613 Y-7.929 Z-2.000 I1.514 J0.876 K0.000 F120.000
G1 X-21.198 Y5.216 Z-2.000 F120.000
G1 X-21.240 Y5.324 Z-2.000 F120.000
G2 X-20.765 Y5.466 Z-2.000 I0.244 J0.048 K0.000 F120.000
G1 X-13.218 Y-7.607 Z-2.000 F120.000
G2 X-13.095 Y-9.650 Z-2.000 I-1.940 J-1.141 K0.000 F120.000
G0 Z5.000
G0 Z5.000
(Finish operation: Profile)
(Begin operation: Profile001)
(Path: Profile001)
(Profile001)
(Compensated Tool Path. Diameter: 1.0)
G0 Z5.000
G0 X21.567 Y21.567
G0 Z3.000
G1 X21.567 Y21.567 Z-0.500 F60.000
G2 X13.222 Y-27.485 Z-0.500 I-21.567 J-21.567 K0.000 F120.000
G3 X10.650 Y-31.567 Z-0.500 I1.935 J-4.070 K0.000 F120.000
G1 X10.650 Y-40.000 Z-0.500 F120.000
G2 X10.150 Y-40.500 Z-0.500 I-0.500 J-0.000 K0.000 F120.000
G1 X-10.150 Y-40.500 Z-0.500 F120.000
G2 X-10.650 Y-40.000 Z-0.500 I-0.000 J0.500 K0.000 F120.000
G1 X-10.650 Y-31.567 Z-0.500 F120.000
G3 X-13.222 Y-27.485 Z-0.500 I-4.507 J0.012 K0.000 F120.000
G2 X-12.075 Y28.008 Z-0.500 I13.222 J27.485 K0.000 F120.000
G2 X21.567 Y21.567 Z-0.500 I12.075 J-28.008 K0.000 F120.000
G1 X21.567 Y21.567 Z-1.000 F60.000
G2 X13.222 Y-27.485 Z-1.000 I-21.567 J-21.567 K0.000 F120.000
G3 X10.650 Y-31.567 Z-1.000 I1.935 J-4.070 K0.000 F120.000
G1 X10.650 Y-40.000 Z-1.000 F120.000
G2 X10.150 Y-40.500 Z-1.000 I-0.500 J-0.000 K0.000 F120.000
G1 X-10.150 Y-40.500 Z-1.000 F120.000
G2 X-10.650 Y-40.000 Z-1.000 I-0.000 J0.500 K0.000 F120.000
G1 X-10.650 Y-31.567 Z-1.000 F120.000
G3 X-13.222 Y-27.485 Z-1.000 I-4.507 J0.012 K0.000 F120.000
G2 X-12.075 Y28.008 Z-1.000 I13.222 J27.485 K0.000 F120.000
G2 X21.567 Y21.567 Z-1.000 I12.075 J-28.008 K0.000 F120.000
G1 X21.567 Y21.567 Z-1.500 F60.000
G2 X13.222 Y-27.485 Z-1.500 I-21.567 J-21.567 K0.000 F120.000
G3 X10.650 Y-31.567 Z-1.500 I1.935 J-4.070 K0.000 F120.000
G1 X10.650 Y-40.000 Z-1.500 F120.000
G2 X10.150 Y-40.500 Z-1.500 I-0.500 J-0.000 K0.000 F120.000
G1 X-10.150 Y-40.500 Z-1.500 F120.000
G2 X-10.650 Y-40.000 Z-1.500 I-0.000 J0.500 K0.000 F120.000
G1 X-10.650 Y-31.567 Z-1.500 F120.000
G3 X-13.222 Y-27.485 Z-1.500 I-4.507 J0.012 K0.000 F120.000
G2 X-12.075 Y28.008 Z-1.500 I13.222 J27.485 K0.000 F120.000
G2 X21.567 Y21.567 Z-1.500 I12.075 J-28.008 K0.000 F120.000
G1 X21.567 Y21.567 Z-2.000 F60.000
G2 X13.222 Y-27.485 Z-2.000 I-21.567 J-21.567 K0.000 F120.000
G3 X10.650 Y-31.567 Z-2.000 I1.935 J-4.070 K0.000 F120.000
G1 X10.650 Y-40.000 Z-2.000 F120.000
G2 X10.150 Y-40.500 Z-2.000 I-0.500 J-0.000 K0.000 F120.000
G1 X-10.150 Y-40.500 Z-2.000 F120.000
G2 X-10.650 Y-40.000 Z-2.000 I-0.000 J0.500 K0.000 F120.000
G1 X-10.650 Y-31.567 Z-2.000 F120.000
G3 X-13.222 Y-27.485 Z-2.000 I-4.507 J0.012 K0.000 F120.000
G2 X-12.075 Y28.008 Z-2.000 I13.222 J27.485 K0.000 F120.000
G2 X21.567 Y21.567 Z-2.000 I12.075 J-28.008 K0.000 F120.000
G0 Z5.000
G0 Z5.000
(Finish operation: Profile001)
(Begin postamble)
M5
G17 G90
M2
