; generated by PrusaSlicer 2.7.1 on 2024-01-28 at 23:28:31 UTC

; 

; external perimeters extrusion width = 0.42mm
; perimeters extrusion width = 0.44mm
; infill extrusion width = 0.44mm
; solid infill extrusion width = 0.44mm
; top infill extrusion width = 0.40mm
; first layer extrusion width = 0.42mm

M201 X500 Y500 Z100 E5000 ; sets maximum accelerations, mm/sec^2
M203 X500 Y500 Z10 E60 ; sets maximum feedrates, mm / sec
M204 S500 T1000 ; sets acceleration (S) and retract acceleration (R), mm/sec^2
M205 X8.00 Y8.00 Z0.40 E5.00 ; sets the jerk limits, mm/sec
M205 S0 T0 ; sets the minimum extruding and travel feed rate, mm/sec

; printing object Cage-test-Cage-testCage-test001.stl id:0 copy 0
; stop printing object Cage-test-Cage-testCage-test001.stl id:0 copy 0

;TYPE:Custom
G90 ; use absolute coordinates
M83 ; extruder relative mode
M104 S150 ; set temporary nozzle temp to prevent oozing during homing
M140 S60 ; set final bed temp
G4 S30 ; allow partial nozzle warmup
G28 ; home all axis
G1 Z50 F240
G1 X2.0 Y10 F3000
M104 S210 ; set final nozzle temp
M190 S60 ; wait for bed temp to stabilize
M109 S210 ; wait for nozzle temp to stabilize
G1 Z0.28 F240
G92 E0
G1 X2.0 Y140 E10 F1500 ; prime the nozzle
G1 X2.3 Y140 F5000
G92 E0
G1 X2.3 Y10 E10 F1200 ; prime the nozzle
G92 E0
G21 ; set units to millimeters
G90 ; use absolute coordinates
M83 ; use relative distances for extrusion
; Filament gcode
M107
;LAYER_CHANGE
;Z:0.2
;HEIGHT:0.2
;BEFORE_LAYER_CHANGE
G92 E0
;0.2


G1 E-5 F3600
G1 Z.2 F9000
;AFTER_LAYER_CHANGE
;0.2
G1 X98.748 Y96.79
G1 Z.2
G1 E5 F2400
M204 S500
;TYPE:Skirt/Brim
;WIDTH:0.42
G1 F1200
G1 X108.265 Y87.08 E.4263
G1 X109.896 Y85.982 E.06165
G1 X111.876 Y85.616 E.06313
G1 X112.499 Y85.632 E.01954
G1 X114.851 Y85.777 E.07389
G1 X117.795 Y86.233 E.09341
G1 X120.679 Y86.98 E.09341
G1 X123.474 Y88.01 E.0934
G1 X126.153 Y89.314 E.09342
G1 X128.689 Y90.877 E.0934
G1 X131.056 Y92.686 E.09341
G1 X133.232 Y94.721 E.09341
G1 X135.042 Y96.772 E.08577
G1 X136.791 Y99.184 E.09342
G1 X138.291 Y101.758 E.09341
G1 X139.528 Y104.469 E.09343
G1 X140.488 Y107.289 E.0934
G1 X141.163 Y110.191 E.09342
G1 X141.545 Y113.145 E.09339
G1 X141.632 Y116.123 E.09341
G1 X141.421 Y119.095 E.09342
G1 X140.916 Y122.031 E.09341
G1 X140.12 Y124.902 E.09341
G1 X139.043 Y127.68 E.09342
G1 X138.291 Y129.242 E.05436
G1 X136.791 Y131.816 E.09341
G1 X135.042 Y134.228 E.09342
G1 X133.062 Y136.453 E.09339
G1 X130.87 Y138.471 E.09342
G1 X128.487 Y140.26 E.09343
G1 X125.939 Y141.803 E.0934
G1 X123.25 Y143.085 E.0934
G1 X120.446 Y144.092 E.09342
G1 X117.795 Y144.767 E.08577
G1 X114.851 Y145.223 E.09341
G1 X111.876 Y145.384 E.09342
G1 X109.94 Y145.036 E.06167
G1 X108.265 Y143.92 E.06311
G1 X95.737 Y131.139 E.56115
G1 X94.898 Y130.229 E.03881
G1 X93.658 Y128.675 E.06234
G1 X92.891 Y127.552 E.04264
G1 X91.896 Y125.831 E.06233
G1 X90.966 Y123.802 E.06998
G1 X90.501 Y122.525 E.04261
G1 X89.961 Y120.611 E.06235
G1 X89.691 Y119.279 E.04261
G1 X89.443 Y117.306 E.06235
G1 X89.374 Y115.075 E.06998
G1 X89.441 Y113.718 E.0426
G1 X89.687 Y111.745 E.06234
G1 X89.956 Y110.412 E.04264
G1 X90.571 Y108.267 E.06996
G1 X91.296 Y106.416 E.06233
G1 X92.302 Y104.424 E.06997
G1 X93.011 Y103.263 E.04265
G1 X94.17 Y101.648 E.06233
G1 X95.731 Y99.868 E.07423
G1 X98.706 Y96.833 E.13325
G1 X98.975 Y97.097 F9000
G1 F1200
G1 X108.534 Y87.344 E.42818
G1 X110.109 Y86.302 E.05921
G1 X111.866 Y85.993 E.05593
G1 X112.489 Y86.009 E.01954
G1 X114.804 Y86.151 E.07272
G1 X117.711 Y86.6 E.09223
G1 X120.559 Y87.337 E.09224
G1 X123.319 Y88.354 E.09223
G1 X125.964 Y89.64 E.09221
G1 X128.469 Y91.184 E.09226
G1 X130.807 Y92.969 E.09223
G1 X132.955 Y94.978 E.09222
G1 X134.753 Y97.015 E.08519
G1 X136.479 Y99.397 E.09223
G1 X137.96 Y101.939 E.09224
G1 X139.18 Y104.615 E.09221
G1 X140.128 Y107.4 E.09224
G1 X140.793 Y110.265 E.09222
G1 X141.17 Y113.183 E.09225
G1 X141.254 Y116.123 E.09222
G1 X141.046 Y119.057 E.09222
G1 X140.546 Y121.956 E.09224
G1 X139.76 Y124.791 E.09224
G1 X138.696 Y127.533 E.09222
G1 X137.662 Y129.609 E.07272
G1 X136.479 Y131.603 E.0727
G1 X134.753 Y133.985 E.09223
G1 X132.798 Y136.183 E.09223
G1 X130.634 Y138.176 E.09224
G1 X128.469 Y139.816 E.08516
G1 X125.964 Y141.36 E.09226
G1 X123.319 Y142.646 E.09221
G1 X120.559 Y143.663 E.09223
G1 X117.711 Y144.4 E.09224
G1 X114.804 Y144.849 E.09223
G1 X111.866 Y145.007 E.09225
G1 X110.01 Y144.658 E.05921
G1 X108.534 Y143.656 E.05594
G1 X96.007 Y130.875 E.56113
G1 X95.187 Y129.986 E.03792
G1 X93.958 Y128.447 E.06175
G1 X93.213 Y127.355 E.04145
G1 X92.227 Y125.65 E.06175
G1 X91.653 Y124.459 E.04145
G1 X90.861 Y122.413 E.06879
G1 X90.326 Y120.518 E.06174
G1 X90.064 Y119.222 E.04146
G1 X89.801 Y117.044 E.06879
G1 X89.751 Y115.075 E.06176
G1 X89.816 Y113.755 E.04144
G1 X90.06 Y111.801 E.06174
G1 X90.536 Y109.659 E.0688
G1 X90.925 Y108.396 E.04144
G1 X91.644 Y106.562 E.06176
G1 X92.634 Y104.604 E.06879
G1 X93.322 Y103.476 E.04143
G1 X94.471 Y101.876 E.06176
G1 X96 Y100.132 E.07272
G1 X98.933 Y97.14 E.13137
G1 X99.202 Y97.404 F9000
G1 F1200
G1 X108.804 Y87.608 E.43009
G1 X110.32 Y86.626 E.05663
G1 X111.857 Y86.37 E.04886
G1 X112.48 Y86.386 E.01954
G1 X114.757 Y86.525 E.07153
G1 X117.627 Y86.968 E.09105
G1 X120.439 Y87.695 E.09107
G1 X123.164 Y88.697 E.09103
G1 X125.776 Y89.967 E.09106
G1 X128.248 Y91.49 E.09104
G1 X130.557 Y93.251 E.09105
G1 X132.679 Y95.234 E.09106
G1 X134.464 Y97.257 E.08459
G1 X136.168 Y99.609 E.09107
G1 X137.629 Y102.119 E.09106
G1 X138.833 Y104.762 E.09106
G1 X139.767 Y107.511 E.09103
G1 X140.423 Y110.34 E.09105
G1 X140.795 Y113.22 E.09105
G1 X140.877 Y116.123 E.09106
G1 X140.671 Y119.02 E.09106
G1 X140.176 Y121.882 E.09107
G1 X139.4 Y124.68 E.09104
G1 X138.348 Y127.387 E.09106
G1 X137.033 Y129.976 E.09105
G1 X136.168 Y131.391 E.052
G1 X134.464 Y133.743 E.09107
G1 X132.535 Y135.913 E.09104
G1 X130.557 Y137.749 E.08462
G1 X128.248 Y139.51 E.09105
G1 X125.776 Y141.033 E.09104
G1 X123.164 Y142.303 E.09106
G1 X120.439 Y143.305 E.09103
G1 X117.627 Y144.032 E.09107
G1 X114.757 Y144.475 E.09105
G1 X111.857 Y144.63 E.09106
G1 X110.084 Y144.279 E.05667
G1 X108.804 Y143.392 E.04883
G1 X96.276 Y130.611 E.56115
G1 X95.476 Y129.743 E.03701
G1 X94.259 Y128.219 E.06115
G1 X93.534 Y127.158 E.04029
G1 X92.464 Y125.286 E.06761
G1 X91.661 Y123.509 E.06114
G1 X91.221 Y122.302 E.04028
G1 X90.692 Y120.425 E.06114
G1 X90.437 Y119.166 E.04028
G1 X90.193 Y117.23 E.06118
G1 X90.128 Y115.075 E.0676
G1 X90.191 Y113.792 E.04028
G1 X90.433 Y111.857 E.06114
G1 X90.902 Y109.752 E.06762
G1 X91.279 Y108.524 E.04028
G1 X91.991 Y106.708 E.06116
G1 X92.965 Y104.784 E.06762
G1 X93.634 Y103.688 E.04026
G1 X94.772 Y102.103 E.06118
G1 X96.27 Y100.396 E.07121
G1 X99.16 Y97.446 E.12948
G1 X99.43 Y97.71 F9000
G1 F1200
G1 X109.073 Y87.872 E.43193
G1 X110.528 Y86.952 E.05398
G1 X111.847 Y86.747 E.04185
G1 X112.471 Y86.763 E.01957
G1 X114.71 Y86.899 E.07033
G1 X117.543 Y87.336 E.08988
G1 X120.318 Y88.052 E.08986
G1 X123.009 Y89.041 E.08989
G1 X125.587 Y90.293 E.08986
G1 X128.028 Y91.796 E.08988
G1 X130.308 Y93.534 E.08989
G1 X132.403 Y95.491 E.08989
G1 X134.176 Y97.5 E.08401
G1 X135.856 Y99.822 E.08986
G1 X137.298 Y102.299 E.08987
G1 X138.485 Y104.908 E.08987
G1 X139.407 Y107.622 E.08987
G1 X140.054 Y110.415 E.08989
G1 X140.419 Y113.258 E.08987
G1 X140.5 Y116.123 E.08987
G1 X140.295 Y118.982 E.08987
G1 X139.807 Y121.807 E.08989
G1 X139.039 Y124.569 E.08989
G1 X138.001 Y127.24 E.08985
G1 X137 Y129.248 E.07035
G1 X135.856 Y131.178 E.07035
G1 X134.176 Y133.5 E.08986
G1 X132.272 Y135.643 E.08988
G1 X130.164 Y137.586 E.08989
G1 X128.028 Y139.204 E.08402
G1 X125.587 Y140.707 E.08988
G1 X123.009 Y141.959 E.08986
G1 X120.318 Y142.948 E.08989
G1 X117.543 Y143.664 E.08986
G1 X114.71 Y144.101 E.08988
G1 X111.847 Y144.253 E.08989
G1 X110.163 Y143.9 E.05395
G1 X109.073 Y143.128 E.04188
G1 X96.545 Y130.347 E.56115
G1 X95.764 Y129.501 E.0361
G1 X94.559 Y127.991 E.06057
G1 X93.856 Y126.961 E.0391
G1 X92.889 Y125.289 E.06056
G1 X92.008 Y123.362 E.06643
G1 X91.581 Y122.191 E.03908
G1 X91.057 Y120.331 E.06059
G1 X90.81 Y119.109 E.03909
G1 X90.554 Y117.006 E.06642
G1 X90.505 Y115.075 E.06056
G1 X90.567 Y113.83 E.03908
G1 X90.806 Y111.913 E.06057
G1 X91.267 Y109.845 E.06643
G1 X91.634 Y108.653 E.03911
G1 X92.339 Y106.854 E.06058
G1 X93.296 Y104.964 E.06642
G1 X93.946 Y103.9 E.03909
G1 X95.072 Y102.331 E.06055
G1 X96.539 Y100.66 E.06972
G1 X99.388 Y97.753 E.12762
G1 X99.657 Y98.017 F9000
G1 F1200
G1 X109.342 Y88.136 E.43382
G1 X110.732 Y87.281 E.05117
G1 X111.838 Y87.124 E.03503
G1 X112.461 Y87.14 E.01954
G1 X114.663 Y87.273 E.06917
G1 X117.459 Y87.703 E.0887
G1 X120.198 Y88.409 E.08869
G1 X122.854 Y89.385 E.08872
G1 X125.399 Y90.62 E.0887
G1 X127.808 Y92.102 E.08868
G1 X130.058 Y93.817 E.0887
G1 X132.126 Y95.747 E.08869
G1 X133.887 Y97.742 E.08344
G1 X135.545 Y100.034 E.0887
G1 X136.967 Y102.48 E.08871
G1 X138.138 Y105.055 E.08869
G1 X139.047 Y107.734 E.0887
G1 X139.684 Y110.49 E.08869
G1 X140.044 Y113.296 E.0887
G1 X140.123 Y116.123 E.08867
G1 X139.92 Y118.945 E.08871
G1 X139.437 Y121.732 E.08869
G1 X138.679 Y124.458 E.08871
G1 X137.653 Y127.094 E.08869
G1 X136.37 Y129.615 E.08869
G1 X135.545 Y130.966 E.04963
G1 X133.887 Y133.258 E.0887
G1 X132.009 Y135.373 E.08868
G1 X130.058 Y137.183 E.08344
G1 X127.808 Y138.898 E.0887
G1 X125.399 Y140.38 E.08868
G1 X122.854 Y141.615 E.0887
G1 X120.198 Y142.591 E.08872
G1 X117.459 Y143.297 E.08869
G1 X114.663 Y143.727 E.0887
G1 X111.838 Y143.876 E.0887
G1 X110.246 Y143.522 E.05114
G1 X109.342 Y142.864 E.03506
G1 X96.814 Y130.083 E.56115
G1 X96.04 Y129.243 E.03581
G1 X94.809 Y127.694 E.06204
G1 X94.167 Y126.748 E.03585
G1 X93.172 Y125.016 E.06263
G1 X92.355 Y123.214 E.06204
G1 X91.935 Y122.06 E.0385
G1 X91.422 Y120.236 E.05941
G1 X91.179 Y119.033 E.03848
G1 X90.935 Y117.051 E.06261
G1 X90.882 Y115.073 E.06204
G1 X90.943 Y113.847 E.03849
G1 X91.193 Y111.884 E.06205
G1 X91.633 Y109.936 E.06262
G1 X91.995 Y108.763 E.03849
G1 X92.687 Y106.999 E.05941
G1 X93.22 Y105.893 E.03849
G1 X94.212 Y104.181 E.06204
G1 X95.374 Y102.557 E.06261
G1 X96.808 Y100.924 E.06814
G1 X99.615 Y98.06 E.12574
; printing object Cage-test-Cage-testCage-test001.stl id:0 copy 0
G1 E-3.5 F3600
;WIPE_START
G1 F7200
G1 X99.657 Y98.017 E-.02855
G1 X101.825 Y95.805 E-1.47145
;WIPE_END
G1 X112.032 Y99.032 F9000
G1 E5 F2400
;TYPE:Perimeter
;WIDTH:0.419999
G1 F1200
G1 X112.243 Y98.986 E.00677
G1 X112.523 Y98.804 E.01047
G1 X112.74 Y98.493 E.01189
G1 X112.818 Y98.118 E.01201
G1 X112.818 Y91.591 E.20465
G1 X114.137 Y91.683 E.04146
G1 X115.321 Y91.832 E.03742
G1 X116.497 Y92.039 E.03744
G1 X117.66 Y92.305 E.03741
G1 X118.809 Y92.628 E.03742
G1 X119.94 Y93.008 E.03741
G1 X121.051 Y93.444 E.03742
G1 X122.139 Y93.935 E.03743
G1 X123.201 Y94.479 E.03741
G1 X124.235 Y95.076 E.03744
G1 X125.237 Y95.724 E.03741
G1 X126.206 Y96.42 E.03741
G1 X127.139 Y97.164 E.03742
G1 X128.034 Y97.954 E.03743
G1 X128.889 Y98.787 E.03743
G1 X129.7 Y99.662 E.03741
G1 X130.467 Y100.576 E.03741
G1 X131.188 Y101.528 E.03744
G1 X131.86 Y102.514 E.03741
G1 X132.483 Y103.532 E.03742
G1 X133.053 Y104.58 E.03741
G1 X133.571 Y105.656 E.03744
G1 X134.035 Y106.755 E.0374
G1 X134.443 Y107.877 E.03743
G1 X134.795 Y109.017 E.03741
G1 X135.089 Y110.174 E.03743
G1 X135.326 Y111.344 E.03743
G1 X135.504 Y112.524 E.03742
G1 X135.563 Y113.118 E.01872
G1 X135.632 Y113.9 E.02461
G1 X135.682 Y115.088 E.03728
G1 X135.682 Y116.097 E.03164
G1 X135.622 Y117.289 E.03742
G1 X135.504 Y118.476 E.0374
G1 X135.326 Y119.656 E.03742
G1 X135.089 Y120.826 E.03743
G1 X134.795 Y121.983 E.03743
G1 X134.443 Y123.123 E.03741
G1 X134.035 Y124.245 E.03743
G1 X133.571 Y125.344 E.0374
G1 X133.053 Y126.42 E.03744
G1 X132.483 Y127.468 E.03741
G1 X131.86 Y128.486 E.03742
G1 X131.188 Y129.472 E.03741
G1 X130.467 Y130.424 E.03744
G1 X129.7 Y131.338 E.03741
G1 X128.889 Y132.213 E.03741
G1 X128.034 Y133.046 E.03743
G1 X127.139 Y133.836 E.03743
G1 X126.206 Y134.58 E.03742
G1 X125.237 Y135.276 E.03741
G1 X124.235 Y135.924 E.03741
G1 X123.201 Y136.521 E.03744
G1 X122.139 Y137.065 E.03741
G1 X121.051 Y137.556 E.03743
G1 X119.94 Y137.992 E.03742
G1 X118.809 Y138.372 E.03741
G1 X117.66 Y138.695 E.03742
G1 X116.497 Y138.961 E.03741
G1 X115.321 Y139.168 E.03744
G1 X114.137 Y139.317 E.03742
G1 X112.818 Y139.409 E.04146
G1 X112.811 Y132.769 E.20819
G1 X112.717 Y132.457 E.01022
G1 X112.537 Y132.21 E.00958
G1 X112.213 Y132.002 E.01207
G1 X111.899 Y131.939 E.01004
G1 X110.935 Y131.915 E.03023
G1 X110.117 Y131.854 E.02572
G1 X109.304 Y131.752 E.02569
G1 X108.497 Y131.61 E.02569
G1 X107.698 Y131.427 E.0257
G1 X106.909 Y131.205 E.0257
G1 X106.133 Y130.944 E.02567
G1 X105.37 Y130.645 E.02569
G1 X104.623 Y130.308 E.02569
G1 X103.894 Y129.934 E.02569
G1 X103.184 Y129.524 E.02571
G1 X102.495 Y129.08 E.0257
G1 X101.83 Y128.601 E.0257
G1 X101.189 Y128.09 E.0257
G1 X100.575 Y127.548 E.02568
G1 X99.988 Y126.976 E.0257
G1 X99.431 Y126.375 E.02569
G1 X98.904 Y125.747 E.0257
G1 X98.409 Y125.094 E.02569
G1 X97.948 Y124.417 E.02568
G1 X97.52 Y123.718 E.0257
G1 X97.128 Y122.998 E.0257
G1 X96.773 Y122.26 E.02568
G1 X96.454 Y121.505 E.0257
G1 X96.174 Y120.735 E.02569
G1 X95.933 Y119.951 E.02572
G1 X95.73 Y119.157 E.0257
G1 X95.568 Y118.354 E.02568
G1 X95.446 Y117.544 E.02568
G1 X95.364 Y116.728 E.02571
G1 X95.323 Y115.91 E.02568
G1 X95.323 Y115.09 E.02571
G1 X95.364 Y114.272 E.02568
G1 X95.446 Y113.456 E.02571
G1 X95.568 Y112.646 E.02568
G1 X95.73 Y111.843 E.02568
G1 X95.933 Y111.049 E.0257
G1 X96.174 Y110.265 E.02572
G1 X96.454 Y109.495 E.02569
G1 X96.773 Y108.74 E.0257
G1 X97.128 Y108.002 E.02568
G1 X97.52 Y107.282 E.0257
G1 X97.948 Y106.583 E.0257
G1 X98.409 Y105.906 E.02568
G1 X98.904 Y105.253 E.02569
G1 X99.431 Y104.625 E.0257
G1 X99.988 Y104.024 E.02569
G1 X100.575 Y103.452 E.0257
G1 X101.189 Y102.91 E.02568
G1 X101.83 Y102.399 E.0257
G1 X102.495 Y101.92 E.0257
G1 X103.184 Y101.476 E.0257
G1 X103.894 Y101.066 E.02571
G1 X104.623 Y100.692 E.02569
G1 X105.37 Y100.355 E.02569
G1 X106.133 Y100.056 E.02569
G1 X106.909 Y99.795 E.02567
G1 X107.698 Y99.573 E.0257
G1 X108.497 Y99.39 E.0257
G1 X109.304 Y99.248 E.02569
G1 X110.117 Y99.146 E.02569
G1 X110.935 Y99.085 E.02572
G1 X111.899 Y99.061 E.03023
G1 X111.974 Y99.045 E.0024
G1 X112.259 Y98.52 F9000
G1 F1200
G1 X112.382 Y98.37 E.00608
G1 X112.441 Y98.118 E.00811
G1 X112.441 Y91.204 E.21678
G1 X112.966 Y91.218 E.01647
G1 X114.175 Y91.308 E.03801
G1 X115.377 Y91.459 E.03798
G1 X116.571 Y91.669 E.03801
G1 X117.753 Y91.939 E.03802
G1 X118.92 Y92.267 E.03801
G1 X120.069 Y92.654 E.03801
G1 X121.198 Y93.096 E.03802
G1 X122.303 Y93.595 E.03802
G1 X123.382 Y94.148 E.03802
G1 X124.431 Y94.754 E.03798
G1 X125.45 Y95.412 E.03803
G1 X126.434 Y96.12 E.03801
G1 X127.382 Y96.875 E.038
G1 X128.291 Y97.678 E.03803
G1 X129.159 Y98.524 E.038
G1 X129.983 Y99.413 E.03801
G1 X130.762 Y100.341 E.03799
G1 X131.494 Y101.308 E.03803
G1 X132.177 Y102.309 E.038
G1 X132.809 Y103.344 E.03802
G1 X133.389 Y104.408 E.038
G1 X133.915 Y105.5 E.038
G1 X134.386 Y106.618 E.03804
G1 X134.801 Y107.757 E.03801
G1 X135.158 Y108.915 E.03799
G1 X135.457 Y110.09 E.03802
G1 X135.697 Y111.278 E.038
G1 X135.878 Y112.477 E.03802
G1 X135.938 Y113.08 E.019
G1 X136.009 Y113.882 E.02524
G1 X136.059 Y115.088 E.03785
G1 X136.059 Y116.106 E.03192
G1 X135.999 Y117.317 E.03802
G1 X135.878 Y118.523 E.038
G1 X135.697 Y119.722 E.03802
G1 X135.457 Y120.91 E.038
G1 X135.158 Y122.085 E.03802
G1 X134.801 Y123.243 E.03799
G1 X134.386 Y124.382 E.03801
G1 X133.915 Y125.5 E.03804
G1 X133.389 Y126.592 E.038
G1 X132.809 Y127.656 E.038
G1 X132.177 Y128.691 E.03802
G1 X131.494 Y129.692 E.038
G1 X130.762 Y130.659 E.03803
G1 X129.983 Y131.587 E.03799
G1 X129.159 Y132.476 E.03801
G1 X128.291 Y133.322 E.038
G1 X127.382 Y134.125 E.03803
G1 X126.434 Y134.88 E.038
G1 X125.45 Y135.588 E.03801
G1 X124.431 Y136.246 E.03803
G1 X123.382 Y136.852 E.03798
G1 X122.303 Y137.405 E.03802
G1 X121.198 Y137.904 E.03802
G1 X120.069 Y138.346 E.03802
G1 X118.92 Y138.733 E.03801
G1 X117.753 Y139.061 E.03801
G1 X116.571 Y139.331 E.03802
G1 X115.377 Y139.541 E.03801
G1 X114.175 Y139.692 E.03798
G1 X112.966 Y139.782 E.03801
