; generated by PrusaSlicer 2.7.1 on 2024-01-28 at 23:11:47 UTC

; 

; external perimeters extrusion width = 0.42mm
; perimeters extrusion width = 0.44mm
; infill extrusion width = 0.44mm
; solid infill extrusion width = 0.44mm
; top infill extrusion width = 0.40mm
; first layer extrusion width = 0.42mm

M201 X500 Y500 Z100 E5000 ; sets maximum accelerations, mm/sec^2
M203 X500 Y500 Z10 E60 ; sets maximum feedrates, mm / sec
M204 S500 T1000 ; sets acceleration (S) and retract acceleration (R), mm/sec^2
M205 X8.00 Y8.00 Z0.40 E5.00 ; sets the jerk limits, mm/sec
M205 S0 T0 ; sets the minimum extruding and travel feed rate, mm/sec

; printing object Cage-CageCage001.stl id:0 copy 0
; stop printing object Cage-CageCage001.stl id:0 copy 0

;TYPE:Custom
G90 ; use absolute coordinates
M83 ; extruder relative mode
M104 S150 ; set temporary nozzle temp to prevent oozing during homing
M140 S60 ; set final bed temp
G4 S30 ; allow partial nozzle warmup
G28 ; home all axis
G1 Z50 F240
G1 X2.0 Y10 F3000
M104 S210 ; set final nozzle temp
M190 S60 ; wait for bed temp to stabilize
M109 S210 ; wait for nozzle temp to stabilize
G1 Z0.28 F240
G92 E0
G1 X2.0 Y140 E10 F1500 ; prime the nozzle
G1 X2.3 Y140 F5000
G92 E0
G1 X2.3 Y10 E10 F1200 ; prime the nozzle
G92 E0
G21 ; set units to millimeters
G90 ; use absolute coordinates
M83 ; use relative distances for extrusion
; Filament gcode
M107
;LAYER_CHANGE
;Z:0.2
;HEIGHT:0.2
;BEFORE_LAYER_CHANGE
G92 E0
;0.2


G1 E-5 F3600
G1 Z.2 F9000
;AFTER_LAYER_CHANGE
;0.2
G1 X99.969 Y99.38
G1 Z.2
G1 E5 F2400
M204 S500
;TYPE:Skirt/Brim
;WIDTH:0.42
G1 F1200
G1 X101.391 Y98.122 E.05953
G1 X103.328 Y96.714 E.07508
G1 X104.964 Y95.75 E.05954
G1 X107.136 Y94.737 E.07514
G1 X109.573 Y93.914 E.08065
G1 X111.425 Y93.489 E.05958
G1 X113.803 Y93.18 E.07519
G1 X115.703 Y93.116 E.05961
G1 X118.098 Y93.266 E.07524
G1 X119.976 Y93.567 E.05963
G1 X122.29 Y94.17 E.07498
G1 X124.086 Y94.827 E.05996
G1 X126.241 Y95.86 E.07493
G1 X127.881 Y96.851 E.06008
G1 X129.798 Y98.276 E.07489
G1 X131.217 Y99.561 E.06002
G1 X132.826 Y101.326 E.07488
G1 X133.965 Y102.846 E.05955
G1 X135.211 Y104.892 E.07511
G1 X136.038 Y106.597 E.05942
G1 X136.87 Y108.835 E.07486
G1 X137.49 Y111.314 E.08012
G1 X137.763 Y113.175 E.05897
G1 X137.885 Y115.592 E.07588
G1 X137.73 Y118.127 E.07963
G1 X137.329 Y120.456 E.0741
G1 X136.83 Y122.29 E.05959
G1 X135.99 Y124.512 E.07448
G1 X135.149 Y126.223 E.05978
G1 X133.897 Y128.252 E.07475
G1 X132.749 Y129.766 E.05957
G1 X131.123 Y131.531 E.07524
G1 X129.705 Y132.8 E.05966
G1 X127.77 Y134.222 E.07529
G1 X126.135 Y135.197 E.05969
G1 X123.973 Y136.219 E.07498
G1 X122.173 Y136.867 E.05998
G1 X119.856 Y137.457 E.07497
G1 X117.967 Y137.748 E.05993
G1 X115.395 Y137.884 E.08076
G1 X113.01 Y137.745 E.07491
G1 X111.123 Y137.452 E.05987
G1 X108.809 Y136.861 E.07488
G1 X107.013 Y136.213 E.05987
G1 X104.859 Y135.194 E.07471
G1 X103.218 Y134.214 E.05993
G1 X101.153 Y132.682 E.08062
G1 X99.406 Y131.058 E.07479
G1 X98.14 Y129.631 E.05981
G1 X96.634 Y127.548 E.08059
G1 X95.46 Y125.472 E.07478
G1 X94.683 Y123.73 E.05981
G1 X93.926 Y121.469 E.07476
G1 X93.496 Y119.61 E.05983
G1 X93.184 Y117.249 E.07467
G1 X93.116 Y115.34 E.05989
G1 X93.26 Y112.962 E.0747
G1 X93.557 Y111.076 E.05986
G1 X94.209 Y108.589 E.08061
G1 X95.064 Y106.366 E.07468
G1 X95.917 Y104.657 E.05989
G1 X97.18 Y102.637 E.0747
G1 X98.343 Y101.122 E.05988
G1 X99.928 Y99.423 E.07285
G1 X100.204 Y99.681 F9000
G1 F1200
G1 X100.235 Y99.647 E.00144
G1 X101.624 Y98.418 E.05815
G1 X103.538 Y97.027 E.07419
G1 X105.137 Y96.085 E.05819
G1 X107.282 Y95.084 E.07422
G1 X109.678 Y94.276 E.07928
G1 X111.488 Y93.861 E.05822
G1 X113.837 Y93.555 E.07427
G1 X115.694 Y93.493 E.05826
G1 X118.06 Y93.642 E.07433
G1 X119.895 Y93.936 E.05827
G1 X122.181 Y94.531 E.07406
G1 X123.936 Y95.174 E.0586
G1 X126.065 Y96.194 E.07402
G1 X127.668 Y97.162 E.05871
G1 X129.561 Y98.57 E.07397
G1 X130.949 Y99.826 E.05869
G1 X132.537 Y101.569 E.07393
G1 X133.651 Y103.055 E.05823
G1 X134.882 Y105.075 E.07417
G1 X135.69 Y106.742 E.05808
G1 X136.511 Y108.953 E.07395
G1 X137.12 Y111.39 E.07876
G1 X137.388 Y113.208 E.05762
G1 X137.508 Y115.585 E.07462
G1 X137.356 Y118.078 E.07831
G1 X136.96 Y120.378 E.07318
G1 X136.472 Y122.17 E.05823
G1 X135.643 Y124.365 E.07357
G1 X134.821 Y126.038 E.05845
G1 X133.584 Y128.042 E.07384
G1 X132.462 Y129.522 E.05823
G1 X130.856 Y131.265 E.07431
G1 X129.47 Y132.505 E.05831
G1 X127.559 Y133.91 E.07437
G1 X125.961 Y134.862 E.05832
G1 X123.825 Y135.872 E.07408
G1 X122.066 Y136.505 E.05861
G1 X119.777 Y137.088 E.07406
G1 X117.931 Y137.373 E.05857
G1 X115.402 Y137.507 E.07941
G1 X113.046 Y137.37 E.074
G1 X111.202 Y137.084 E.05851
G1 X108.917 Y136.5 E.07395
G1 X107.162 Y135.867 E.0585
G1 X105.033 Y134.859 E.07386
G1 X103.43 Y133.902 E.05854
G1 X101.399 Y132.397 E.07926
G1 X99.673 Y130.792 E.0739
G1 X98.436 Y129.398 E.05844
G1 X96.955 Y127.35 E.07924
G1 X95.795 Y125.299 E.07388
G1 X95.036 Y123.597 E.05843
G1 X94.288 Y121.363 E.07387
G1 X93.868 Y119.547 E.05844
G1 X93.559 Y117.214 E.07379
G1 X93.493 Y115.348 E.05854
G1 X93.635 Y112.999 E.07379
G1 X93.925 Y111.156 E.0585
G1 X94.566 Y108.711 E.07925
G1 X95.41 Y106.514 E.07379
G1 X96.244 Y104.844 E.05853
G1 X97.492 Y102.849 E.07378
G1 X98.629 Y101.369 E.05852
G1 X100.163 Y99.724 E.07052
G1 X100.438 Y99.981 F9000
G1 F1200
G1 X100.5 Y99.915 E.00284
G1 X101.857 Y98.714 E.05682
G1 X103.748 Y97.34 E.07329
G1 X105.309 Y96.42 E.05681
G1 X107.428 Y95.432 E.07331
G1 X109.784 Y94.638 E.07795
G1 X111.551 Y94.233 E.05684
G1 X113.872 Y93.931 E.07339
G1 X115.685 Y93.87 E.05688
G1 X118.022 Y94.017 E.07342
G1 X119.814 Y94.304 E.0569
G1 X122.072 Y94.892 E.07316
G1 X123.787 Y95.52 E.05726
G1 X125.889 Y96.528 E.07309
G1 X127.454 Y97.473 E.05732
G1 X129.325 Y98.864 E.0731
G1 X130.68 Y100.09 E.05729
G1 X132.249 Y101.812 E.07304
G1 X133.337 Y103.263 E.05686
G1 X134.553 Y105.259 E.07328
G1 X135.342 Y106.887 E.05672
G1 X136.153 Y109.071 E.07305
G1 X136.751 Y111.466 E.0774
G1 X137.012 Y113.242 E.05628
G1 X137.13 Y115.578 E.07334
G1 X136.982 Y118.028 E.07696
G1 X136.591 Y120.3 E.07228
G1 X136.115 Y122.05 E.05686
G1 X135.296 Y124.219 E.07269
G1 X134.492 Y125.852 E.05707
G1 X133.271 Y127.832 E.07294
G1 X132.176 Y129.277 E.05685
G1 X130.589 Y130.999 E.07342
G1 X129.236 Y132.21 E.05693
G1 X127.347 Y133.597 E.07348
G1 X125.787 Y134.528 E.05696
G1 X123.677 Y135.525 E.07317
G1 X121.959 Y136.144 E.05726
G1 X119.699 Y136.719 E.07312
G1 X117.895 Y136.998 E.05724
G1 X115.41 Y137.13 E.07803
G1 X113.082 Y136.995 E.07312
G1 X111.281 Y136.715 E.05715
G1 X109.024 Y136.138 E.07304
G1 X107.31 Y135.52 E.05713
G1 X105.207 Y134.525 E.07295
G1 X103.641 Y133.59 E.05719
G1 X101.645 Y132.111 E.07789
G1 X99.941 Y130.526 E.07297
G1 X98.732 Y129.164 E.0571
G1 X97.276 Y127.152 E.07787
G1 X96.13 Y125.126 E.07298
G1 X95.389 Y123.463 E.05708
G1 X94.65 Y121.257 E.07295
G1 X94.239 Y119.483 E.0571
G1 X93.935 Y117.179 E.07287
G1 X93.87 Y115.357 E.05716
G1 X94.01 Y113.036 E.07291
G1 X94.294 Y111.236 E.05714
G1 X94.923 Y108.833 E.07788
G1 X95.757 Y106.663 E.07289
G1 X96.571 Y105.032 E.05715
G1 X97.804 Y103.061 E.0729
G1 X98.914 Y101.615 E.05716
G1 X100.397 Y100.025 E.06817
G1 X100.673 Y100.282 F9000
G1 F1200
G1 X100.766 Y100.182 E.00428
G1 X102.09 Y99.011 E.05542
G1 X103.958 Y97.654 E.07239
G1 X105.482 Y96.756 E.05546
G1 X107.574 Y95.779 E.07239
G1 X109.889 Y95 E.07658
G1 X111.614 Y94.605 E.05549
G1 X113.906 Y94.306 E.07247
G1 X115.676 Y94.247 E.05553
G1 X117.984 Y94.392 E.07251
G1 X119.733 Y94.672 E.05554
G1 X121.963 Y95.253 E.07225
G1 X123.637 Y95.866 E.0559
G1 X125.713 Y96.861 E.07218
G1 X127.241 Y97.784 E.05597
G1 X129.088 Y99.158 E.07218
G1 X130.411 Y100.355 E.05594
G1 X131.961 Y102.055 E.07213
G1 X133.022 Y103.472 E.0555
G1 X134.224 Y105.443 E.07238
G1 X134.994 Y107.032 E.05536
G1 X135.795 Y109.188 E.07211
G1 X136.247 Y110.887 E.05512
G1 X136.637 Y113.276 E.0759
G1 X136.753 Y115.571 E.07205
G1 X136.609 Y117.978 E.0756
G1 X136.222 Y120.222 E.0714
G1 X135.757 Y121.931 E.05553
G1 X134.948 Y124.072 E.07176
G1 X134.164 Y125.667 E.05572
G1 X132.958 Y127.622 E.07202
G1 X131.889 Y129.032 E.05548
G1 X130.321 Y130.733 E.07254
G1 X129.001 Y131.915 E.05556
G1 X127.136 Y133.285 E.07256
G1 X125.613 Y134.193 E.0556
G1 X123.529 Y135.178 E.07227
G1 X121.852 Y135.782 E.05589
G1 X119.62 Y136.35 E.07221
G1 X117.859 Y136.622 E.05587
G1 X115.417 Y136.753 E.07668
G1 X113.119 Y136.62 E.07217
G1 X111.36 Y136.346 E.05582
G1 X109.132 Y135.777 E.0721
G1 X107.458 Y135.173 E.0558
G1 X105.382 Y134.19 E.07202
G1 X103.853 Y133.278 E.05582
G1 X101.891 Y131.825 E.07655
G1 X100.208 Y130.26 E.07206
G1 X99.028 Y128.93 E.05575
G1 X97.597 Y126.954 E.0765
G1 X96.465 Y124.953 E.07208
G1 X95.741 Y123.33 E.05572
G1 X95.012 Y121.151 E.07204
G1 X94.611 Y119.419 E.05574
G1 X94.31 Y117.143 E.07198
G1 X94.247 Y115.365 E.05578
G1 X94.385 Y113.073 E.07199
G1 X94.662 Y111.316 E.05577
G1 X95.279 Y108.955 E.07651
G1 X96.103 Y106.812 E.07199
G1 X96.898 Y105.219 E.05582
G1 X98.116 Y103.273 E.07198
G1 X99.199 Y101.862 E.05577
G1 X100.632 Y100.326 E.06586
G1 X100.907 Y100.583 F9000
G1 F1200
G1 X101.032 Y100.45 E.00572
G1 X102.324 Y99.307 E.05409
G1 X104.168 Y97.967 E.07147
G1 X105.654 Y97.091 E.05409
G1 X107.72 Y96.127 E.07148
G1 X109.994 Y95.362 E.07523
G1 X111.677 Y94.976 E.05414
G1 X113.94 Y94.682 E.07155
G1 X115.667 Y94.624 E.05418
G1 X117.946 Y94.767 E.0716
G1 X119.652 Y95.041 E.05418
G1 X121.854 Y95.614 E.07134
G1 X123.487 Y96.212 E.05453
G1 X125.537 Y97.195 E.07128
G1 X127.028 Y98.095 E.05461
G1 X128.852 Y99.451 E.07126
G1 X130.142 Y100.619 E.05456
G1 X131.673 Y102.299 E.07127
G1 X132.708 Y103.68 E.05411
G1 X133.894 Y105.627 E.07148
G1 X134.645 Y107.176 E.05397
G1 X135.437 Y109.306 E.07125
G1 X135.878 Y110.963 E.05376
G1 X136.248 Y113.183 E.07057
G1 X136.376 Y115.564 E.07476
G1 X136.235 Y117.928 E.07425
G1 X135.853 Y120.144 E.07051
G1 X135.4 Y121.811 E.05416
G1 X134.601 Y123.925 E.07086
G1 X133.836 Y125.481 E.05436
G1 X132.645 Y127.411 E.07111
G1 X131.602 Y128.788 E.05416
G1 X130.054 Y130.467 E.0716
G1 X128.766 Y131.62 E.0542
G1 X126.925 Y132.973 E.07164
G1 X125.439 Y133.859 E.05425
G1 X123.381 Y134.831 E.07136
G1 X121.745 Y135.42 E.05452
G1 X119.541 Y135.982 E.07132
G1 X117.823 Y136.247 E.0545
G1 X115.425 Y136.376 E.0753
G1 X113.155 Y136.244 E.07129
G1 X111.44 Y135.978 E.05442
G1 X109.239 Y135.415 E.07123
G1 X107.606 Y134.826 E.05443
G1 X105.556 Y133.856 E.07111
G1 X104.064 Y132.966 E.05447
G1 X102.137 Y131.539 E.07518
G1 X100.475 Y129.994 E.07115
G1 X99.324 Y128.697 E.05437
G1 X97.918 Y126.755 E.07517
G1 X96.8 Y124.781 E.07113
G1 X96.094 Y123.197 E.05438
G1 X95.374 Y121.045 E.07115
G1 X94.983 Y119.356 E.05436
G1 X94.686 Y117.108 E.0711
G1 X94.624 Y115.373 E.05443
G1 X94.761 Y113.11 E.07108
G1 X95.031 Y111.396 E.0544
G1 X95.636 Y109.076 E.07517
G1 X96.45 Y106.96 E.07109
G1 X97.225 Y105.407 E.05442
G1 X98.428 Y103.485 E.07109
G1 X99.485 Y102.108 E.05443
G1 X100.866 Y100.627 E.06349
; printing object Cage-CageCage001.stl id:0 copy 0
G1 E-3.5 F3600
;WIPE_START
G1 F7200
G1 X100.907 Y100.583 E-.02857
G1 X101.032 Y100.45 E-.0867
G1 X102.324 Y99.307 E-.81939
G1 X103.287 Y98.607 E-.56534
;WIPE_END
G1 X103.741 Y104.233 F9000
G1 E5 F2400
;TYPE:Perimeter
;WIDTH:0.419999
G1 F1200
G1 X104.181 Y103.791 E.01955
G1 X104.635 Y103.368 E.01946
G1 X105.41 Y102.719 E.03169
G1 X106.116 Y102.19 E.02766
G1 X106.632 Y101.841 E.01953
G1 X107.159 Y101.513 E.01946
G1 X108.044 Y101.024 E.0317
G1 X108.838 Y100.639 E.02767
G1 X109.411 Y100.395 E.01953
G1 X109.992 Y100.174 E.01949
G1 X110.955 Y99.864 E.03172
G1 X111.808 Y99.638 E.02767
G1 X112.411 Y99.51 E.01933
G1 X113.411 Y99.351 E.03175
G1 X114.29 Y99.259 E.02771
G1 X114.905 Y99.225 E.01931
G1 X115.919 Y99.222 E.03179
G1 X116.801 Y99.266 E.02769
G1 X117.415 Y99.327 E.01935
G1 X118.417 Y99.48 E.03178
G1 X119.282 Y99.66 E.0277
G1 X119.879 Y99.814 E.01933
G1 X120.847 Y100.12 E.03183
G1 X121.675 Y100.43 E.02772
G1 X122.247 Y100.678 E.01955
G1 X122.809 Y100.946 E.01952
G1 X123.699 Y101.432 E.03179
G1 X124.453 Y101.896 E.02776
G1 X124.967 Y102.249 E.01955
G1 X125.467 Y102.621 E.01954
G1 X126.15 Y103.183 E.02773
G1 X126.898 Y103.868 E.0318
G1 X127.334 Y104.311 E.01949
G1 X127.753 Y104.772 E.01953
G1 X128.315 Y105.454 E.02771
G1 X128.917 Y106.269 E.03177
G1 X129.259 Y106.787 E.01946
G1 X129.582 Y107.319 E.01951
G1 X130.001 Y108.094 E.02762
G1 X130.435 Y109.006 E.03167
G1 X130.671 Y109.578 E.0194
G1 X130.885 Y110.16 E.01944
G1 X131.148 Y110.998 E.02754
G1 X131.399 Y111.971 E.03151
G1 X131.52 Y112.571 E.01919
G1 X131.652 Y113.435 E.0274
G1 X131.75 Y114.423 E.03113
G1 X131.784 Y115.588 E.03654
G1 X131.739 Y116.732 E.0359
G1 X131.647 Y117.6 E.02737
G1 X131.49 Y118.59 E.03143
G1 X131.361 Y119.193 E.01933
G1 X131.21 Y119.792 E.01937
G1 X130.953 Y120.632 E.02754
G1 X130.608 Y121.579 E.0316
G1 X130.366 Y122.149 E.01942
G1 X130.102 Y122.711 E.01947
G1 X129.688 Y123.489 E.02763
G1 X129.167 Y124.356 E.03171
G1 X128.819 Y124.871 E.01949
G1 X128.451 Y125.373 E.01952
G1 X127.895 Y126.059 E.02769
G1 X127.216 Y126.811 E.03177
G1 X126.776 Y127.251 E.01951
G1 X126.317 Y127.674 E.01957
G1 X125.639 Y128.241 E.02771
G1 X124.828 Y128.849 E.03178
G1 X124.311 Y129.196 E.01952
G1 X123.779 Y129.524 E.0196
G1 X123.005 Y129.951 E.02772
G1 X122.092 Y130.391 E.03178
G1 X121.518 Y130.633 E.01953
G1 X120.934 Y130.852 E.01956
G1 X120.092 Y131.123 E.02773
G1 X119.112 Y131.38 E.03177
G1 X118.507 Y131.505 E.01937
G1 X117.634 Y131.643 E.02771
G1 X116.627 Y131.746 E.03174
G1 X116.01 Y131.777 E.01937
G1 X115.127 Y131.78 E.02769
G1 X114.116 Y131.726 E.03174
G1 X113.501 Y131.662 E.01939
G1 X112.629 Y131.529 E.02766
G1 X111.639 Y131.321 E.03172
G1 X111.042 Y131.163 E.01936
G1 X110.201 Y130.898 E.02765
G1 X109.255 Y130.54 E.03171
G1 X108.124 Y130.019 E.03904
G1 X107.35 Y129.598 E.02763
G1 X106.491 Y129.066 E.03168
G1 X105.481 Y128.338 E.03904
G1 X104.801 Y127.777 E.02764
G1 X104.06 Y127.09 E.03168
G1 X103.208 Y126.182 E.03904
G1 X102.649 Y125.502 E.0276
G1 X102.053 Y124.686 E.03168
G1 X101.391 Y123.632 E.03903
G1 X100.972 Y122.858 E.0276
G1 X100.546 Y121.946 E.03156
G1 X100.219 Y121.129 E.02759
G1 X100.016 Y120.545 E.01939
G1 X99.734 Y119.575 E.03167
G1 X99.536 Y118.717 E.02761
G1 X99.337 Y117.488 E.03904
G1 X99.245 Y116.482 E.03167
G1 X99.215 Y115.602 E.02761
G1 X99.255 Y114.359 E.03899
G1 X99.358 Y113.353 E.03171
G1 X99.497 Y112.484 E.02759
G1 X99.624 Y111.873 E.01957
G1 X99.774 Y111.271 E.01945
G1 X100.067 Y110.304 E.03168
G1 X100.37 Y109.476 E.02765
G1 X100.611 Y108.902 E.01952
G1 X100.874 Y108.339 E.01948
G1 X101.347 Y107.446 E.03168
G1 X101.802 Y106.692 E.02761
G1 X102.149 Y106.174 E.01955
G1 X102.514 Y105.672 E.01946
G1 X103.15 Y104.886 E.0317
G1 X103.701 Y104.277 E.02575
G1 X103.468 Y103.973 F9000
G1 F1200
G1 X103.919 Y103.52 E.02004
G1 X104.386 Y103.086 E.01999
G1 X105.176 Y102.423 E.03234
G1 X105.897 Y101.883 E.02824
G1 X106.426 Y101.525 E.02003
G1 X106.968 Y101.187 E.02003
G1 X107.871 Y100.689 E.03233
G1 X108.682 Y100.296 E.02826
G1 X109.27 Y100.046 E.02003
G1 X109.867 Y99.818 E.02004
G1 X110.849 Y99.502 E.03234
G1 X111.721 Y99.271 E.02828
G1 X112.342 Y99.139 E.01991
G1 X113.362 Y98.977 E.03238
G1 X114.259 Y98.883 E.02828
G1 X114.894 Y98.848 E.01994
G1 X115.927 Y98.845 E.03239
G1 X116.829 Y98.89 E.02832
G1 X117.462 Y98.953 E.01995
G1 X118.484 Y99.109 E.03242
G1 X119.368 Y99.292 E.0283
G1 X119.984 Y99.452 E.01996
G1 X120.97 Y99.763 E.03242
G1 X121.816 Y100.08 E.02833
G1 X122.404 Y100.334 E.02008
G1 X122.98 Y100.611 E.02004
G1 X123.888 Y101.106 E.03243
G1 X124.658 Y101.58 E.02835
G1 X125.186 Y101.942 E.02007
G1 X125.7 Y102.324 E.02008
G1 X126.397 Y102.898 E.02831
G1 X127.16 Y103.596 E.03242
G1 X127.608 Y104.052 E.02004
G1 X128.038 Y104.526 E.02007
G1 X128.612 Y105.222 E.02829
G1 X129.226 Y106.053 E.0324
G1 X129.577 Y106.585 E.01998
G1 X129.909 Y107.131 E.02004
G1 X130.337 Y107.923 E.02823
G1 X130.779 Y108.853 E.03229
G1 X131.022 Y109.441 E.01995
G1 X131.242 Y110.038 E.01995
G1 X131.511 Y110.894 E.02813
G1 X131.766 Y111.887 E.03214
G1 X131.891 Y112.505 E.01977
G1 X132.026 Y113.388 E.02801
G1 X132.126 Y114.399 E.03185
G1 X132.161 Y115.595 E.03752
