(Exported by FreeCAD)
(Post Processor: script_module)
(Output Time:2024-07-14 17:11:15.035837)
(Begin preamble)
G17 G90
G21
(Begin operation: Fixture)
(Path: Fixture)
G54
(Finish operation: Fixture)
(Begin operation: 2mm Endmill001)
(Path: 2mm Endmill001)
(2mm Endmill001)
(Begin toolchange)
( M6 T2 )
M3 S1000
(Finish operation: 2mm Endmill001)
(Begin operation: Profile)
(Path: Profile)
(Profile)
(Compensated Tool Path. Diameter: 2.0)
G0 Z5.000
G0 X12.415 Y16.303
G0 Z3.000
G1 X12.415 Y16.303 Z-1.000 F50.000
G1 X11.791 Y15.223 Z-1.000 F100.000
G3 X16.872 Y7.947 Z-1.000 I4.244 J-2.448 K0.000 F100.000
G3 X18.665 Y8.456 Z-1.000 I-2.775 J13.189 K0.000 F100.000
G2 X7.911 Y-18.903 Z-1.000 I-18.641 J-8.466 K0.000 F100.000
G1 X7.288 Y-17.823 Z-1.000 F100.000
G3 X-1.554 Y-18.585 Z-1.000 I-4.242 J-2.452 K0.000 F100.000
G3 X-2.010 Y-20.393 Z-1.000 I12.809 J-4.191 K0.000 F100.000
G2 X-20.326 Y2.600 Z-1.000 I1.989 J20.376 K0.000 F100.000
G1 X-19.079 Y2.600 Z-1.000 F100.000
G3 X-15.318 Y10.638 Z-1.000 I-0.002 J4.900 K0.000 F100.000
G3 X-16.656 Y11.937 Z-1.000 I-10.034 J-8.998 K0.000 F100.000
G2 X12.415 Y16.303 Z-1.000 I16.652 J-11.911 K0.000 F100.000
G1 X12.415 Y16.303 Z-2.000 F50.000
G1 X11.791 Y15.223 Z-2.000 F100.000
G3 X16.872 Y7.947 Z-2.000 I4.244 J-2.448 K0.000 F100.000
G3 X18.665 Y8.456 Z-2.000 I-2.775 J13.189 K0.000 F100.000
G2 X7.911 Y-18.903 Z-2.000 I-18.641 J-8.466 K0.000 F100.000
G1 X7.288 Y-17.823 Z-2.000 F100.000
G3 X-1.554 Y-18.585 Z-2.000 I-4.242 J-2.452 K0.000 F100.000
G3 X-2.010 Y-20.393 Z-2.000 I12.809 J-4.191 K0.000 F100.000
G2 X-20.326 Y2.600 Z-2.000 I1.989 J20.376 K0.000 F100.000
G1 X-19.079 Y2.600 Z-2.000 F100.000
G3 X-15.318 Y10.638 Z-2.000 I-0.002 J4.900 K0.000 F100.000
G3 X-16.656 Y11.937 Z-2.000 I-10.034 J-8.998 K0.000 F100.000
G2 X12.415 Y16.303 Z-2.000 I16.652 J-11.911 K0.000 F100.000
G1 X12.415 Y16.303 Z-3.000 F50.000
G1 X11.791 Y15.223 Z-3.000 F100.000
G3 X16.872 Y7.947 Z-3.000 I4.244 J-2.448 K0.000 F100.000
G3 X18.665 Y8.456 Z-3.000 I-2.775 J13.189 K0.000 F100.000
G2 X7.911 Y-18.903 Z-3.000 I-18.641 J-8.466 K0.000 F100.000
G1 X7.288 Y-17.823 Z-3.000 F100.000
G3 X-1.554 Y-18.585 Z-3.000 I-4.242 J-2.452 K0.000 F100.000
G3 X-2.010 Y-20.393 Z-3.000 I12.809 J-4.191 K0.000 F100.000
G2 X-20.326 Y2.600 Z-3.000 I1.989 J20.376 K0.000 F100.000
G1 X-19.079 Y2.600 Z-3.000 F100.000
G3 X-15.318 Y10.638 Z-3.000 I-0.002 J4.900 K0.000 F100.000
G3 X-16.656 Y11.937 Z-3.000 I-10.034 J-8.998 K0.000 F100.000
G2 X12.415 Y16.303 Z-3.000 I16.652 J-11.911 K0.000 F100.000
G1 X12.415 Y16.303 Z-4.000 F50.000
G1 X11.791 Y15.223 Z-4.000 F100.000
G3 X16.872 Y7.947 Z-4.000 I4.244 J-2.448 K0.000 F100.000
G3 X18.665 Y8.456 Z-4.000 I-2.775 J13.189 K0.000 F100.000
G2 X7.911 Y-18.903 Z-4.000 I-18.641 J-8.466 K0.000 F100.000
G1 X7.288 Y-17.823 Z-4.000 F100.000
G3 X-1.554 Y-18.585 Z-4.000 I-4.242 J-2.452 K0.000 F100.000
G3 X-2.010 Y-20.393 Z-4.000 I12.809 J-4.191 K0.000 F100.000
G2 X-20.326 Y2.600 Z-4.000 I1.989 J20.376 K0.000 F100.000
G1 X-19.079 Y2.600 Z-4.000 F100.000
G3 X-15.318 Y10.638 Z-4.000 I-0.002 J4.900 K0.000 F100.000
G3 X-16.656 Y11.937 Z-4.000 I-10.034 J-8.998 K0.000 F100.000
G2 X12.415 Y16.303 Z-4.000 I16.652 J-11.911 K0.000 F100.000
G1 X12.415 Y16.303 Z-5.000 F50.000
G1 X11.791 Y15.223 Z-5.000 F100.000
G3 X16.872 Y7.947 Z-5.000 I4.244 J-2.448 K0.000 F100.000
G3 X18.665 Y8.456 Z-5.000 I-2.775 J13.189 K0.000 F100.000
G2 X7.911 Y-18.903 Z-5.000 I-18.641 J-8.466 K0.000 F100.000
G1 X7.288 Y-17.823 Z-5.000 F100.000
G3 X-1.554 Y-18.585 Z-5.000 I-4.242 J-2.452 K0.000 F100.000
G3 X-2.010 Y-20.393 Z-5.000 I12.809 J-4.191 K0.000 F100.000
G2 X-20.326 Y2.600 Z-5.000 I1.989 J20.376 K0.000 F100.000
G1 X-19.079 Y2.600 Z-5.000 F100.000
G3 X-15.318 Y10.638 Z-5.000 I-0.002 J4.900 K0.000 F100.000
G3 X-16.656 Y11.937 Z-5.000 I-10.034 J-8.998 K0.000 F100.000
G2 X12.415 Y16.303 Z-5.000 I16.652 J-11.911 K0.000 F100.000
G1 X12.415 Y16.303 Z-6.000 F50.000
G1 X11.791 Y15.223 Z-6.000 F100.000
G3 X16.872 Y7.947 Z-6.000 I4.244 J-2.448 K0.000 F100.000
G3 X18.665 Y8.456 Z-6.000 I-2.775 J13.189 K0.000 F100.000
G2 X7.911 Y-18.903 Z-6.000 I-18.641 J-8.466 K0.000 F100.000
G1 X7.288 Y-17.823 Z-6.000 F100.000
G3 X-1.554 Y-18.585 Z-6.000 I-4.242 J-2.452 K0.000 F100.000
G3 X-2.010 Y-20.393 Z-6.000 I12.809 J-4.191 K0.000 F100.000
G2 X-20.326 Y2.600 Z-6.000 I1.989 J20.376 K0.000 F100.000
G1 X-19.079 Y2.600 Z-6.000 F100.000
G3 X-15.318 Y10.638 Z-6.000 I-0.002 J4.900 K0.000 F100.000
G3 X-16.656 Y11.937 Z-6.000 I-10.034 J-8.998 K0.000 F100.000
G2 X12.415 Y16.303 Z-6.000 I16.652 J-11.911 K0.000 F100.000
G1 X12.415 Y16.303 Z-7.000 F50.000
G1 X11.791 Y15.223 Z-7.000 F100.000
G3 X16.872 Y7.947 Z-7.000 I4.244 J-2.448 K0.000 F100.000
G3 X18.665 Y8.456 Z-7.000 I-2.775 J13.189 K0.000 F100.000
G2 X7.911 Y-18.903 Z-7.000 I-18.641 J-8.466 K0.000 F100.000
G1 X7.288 Y-17.823 Z-7.000 F100.000
G3 X-1.554 Y-18.585 Z-7.000 I-4.242 J-2.452 K0.000 F100.000
G3 X-2.010 Y-20.393 Z-7.000 I12.809 J-4.191 K0.000 F100.000
G2 X-20.326 Y2.600 Z-7.000 I1.989 J20.376 K0.000 F100.000
G1 X-19.079 Y2.600 Z-7.000 F100.000
G3 X-15.318 Y10.638 Z-7.000 I-0.002 J4.900 K0.000 F100.000
G3 X-16.656 Y11.937 Z-7.000 I-10.034 J-8.998 K0.000 F100.000
G2 X12.415 Y16.303 Z-7.000 I16.652 J-11.911 K0.000 F100.000
G1 X12.415 Y16.303 Z-8.000 F50.000
G1 X11.791 Y15.223 Z-8.000 F100.000
G3 X16.872 Y7.947 Z-8.000 I4.244 J-2.448 K0.000 F100.000
G3 X18.665 Y8.456 Z-8.000 I-2.775 J13.189 K0.000 F100.000
G2 X7.911 Y-18.903 Z-8.000 I-18.641 J-8.466 K0.000 F100.000
G1 X7.288 Y-17.823 Z-8.000 F100.000
G3 X-1.554 Y-18.585 Z-8.000 I-4.242 J-2.452 K0.000 F100.000
G3 X-2.010 Y-20.393 Z-8.000 I12.809 J-4.191 K0.000 F100.000
G2 X-20.326 Y2.600 Z-8.000 I1.989 J20.376 K0.000 F100.000
G1 X-19.079 Y2.600 Z-8.000 F100.000
G3 X-15.318 Y10.638 Z-8.000 I-0.002 J4.900 K0.000 F100.000
G3 X-16.656 Y11.937 Z-8.000 I-10.034 J-8.998 K0.000 F100.000
G2 X12.415 Y16.303 Z-8.000 I16.652 J-11.911 K0.000 F100.000
G1 X12.415 Y16.303 Z-9.000 F50.000
G1 X11.791 Y15.223 Z-9.000 F100.000
G3 X16.872 Y7.947 Z-9.000 I4.244 J-2.448 K0.000 F100.000
G3 X18.665 Y8.456 Z-9.000 I-2.775 J13.189 K0.000 F100.000
G2 X7.911 Y-18.903 Z-9.000 I-18.641 J-8.466 K0.000 F100.000
G1 X7.288 Y-17.823 Z-9.000 F100.000
G3 X-1.554 Y-18.585 Z-9.000 I-4.242 J-2.452 K0.000 F100.000
G3 X-2.010 Y-20.393 Z-9.000 I12.809 J-4.191 K0.000 F100.000
G2 X-20.326 Y2.600 Z-9.000 I1.989 J20.376 K0.000 F100.000
G1 X-19.079 Y2.600 Z-9.000 F100.000
G3 X-15.318 Y10.638 Z-9.000 I-0.002 J4.900 K0.000 F100.000
G3 X-16.656 Y11.937 Z-9.000 I-10.034 J-8.998 K0.000 F100.000
G2 X12.415 Y16.303 Z-9.000 I16.652 J-11.911 K0.000 F100.000
G1 X12.415 Y16.303 Z-10.000 F50.000
G1 X11.791 Y15.223 Z-10.000 F100.000
G3 X16.872 Y7.947 Z-10.000 I4.244 J-2.448 K0.000 F100.000
G3 X18.665 Y8.456 Z-10.000 I-2.775 J13.189 K0.000 F100.000
G2 X7.911 Y-18.903 Z-10.000 I-18.641 J-8.466 K0.000 F100.000
G1 X7.288 Y-17.823 Z-10.000 F100.000
G3 X-1.554 Y-18.585 Z-10.000 I-4.242 J-2.452 K0.000 F100.000
G3 X-2.010 Y-20.393 Z-10.000 I12.809 J-4.191 K0.000 F100.000
G2 X-20.326 Y2.600 Z-10.000 I1.989 J20.376 K0.000 F100.000
G1 X-19.079 Y2.600 Z-10.000 F100.000
G3 X-15.318 Y10.638 Z-10.000 I-0.002 J4.900 K0.000 F100.000
G3 X-16.656 Y11.937 Z-10.000 I-10.034 J-8.998 K0.000 F100.000
G2 X12.415 Y16.303 Z-10.000 I16.652 J-11.911 K0.000 F100.000
G1 X12.415 Y16.303 Z-10.500 F50.000
G1 X11.791 Y15.223 Z-10.500 F100.000
G3 X16.872 Y7.947 Z-10.500 I4.244 J-2.448 K0.000 F100.000
G3 X18.665 Y8.456 Z-10.500 I-2.775 J13.189 K0.000 F100.000
G2 X7.911 Y-18.903 Z-10.500 I-18.641 J-8.466 K0.000 F100.000
G1 X7.288 Y-17.823 Z-10.500 F100.000
G3 X-1.554 Y-18.585 Z-10.500 I-4.242 J-2.452 K0.000 F100.000
G3 X-2.010 Y-20.393 Z-10.500 I12.809 J-4.191 K0.000 F100.000
G2 X-20.326 Y2.600 Z-10.500 I1.989 J20.376 K0.000 F100.000
G1 X-19.079 Y2.600 Z-10.500 F100.000
G3 X-15.318 Y10.638 Z-10.500 I-0.002 J4.900 K0.000 F100.000
G3 X-16.656 Y11.937 Z-10.500 I-10.034 J-8.998 K0.000 F100.000
G2 X12.415 Y16.303 Z-10.500 I16.652 J-11.911 K0.000 F100.000
G0 Z5.000
G0 Z5.000
(Finish operation: Profile)
(Begin operation: Profile005)
(Path: Profile005)
(Profile005)
(Compensated Tool Path. Diameter: 2.0)
G0 Z5.000
G0 X15.556 Y15.556
G0 Z3.000
G1 X15.556 Y15.556 Z-1.000 F50.000
G2 X-0.503 Y-21.994 Z-1.000 I-15.556 J-15.556 K0.000 F100.000
G1 X-1.795 Y-21.926 Z-1.000 F100.000
G2 X1.226 Y21.965 Z-1.000 I1.795 J21.926 K0.000 F100.000
G2 X15.556 Y15.556 Z-1.000 I-1.226 J-21.965 K0.000 F100.000
G1 X15.556 Y15.556 Z-2.000 F50.000
G2 X-0.503 Y-21.994 Z-2.000 I-15.556 J-15.556 K0.000 F100.000
G1 X-1.795 Y-21.926 Z-2.000 F100.000
G2 X1.226 Y21.965 Z-2.000 I1.795 J21.926 K0.000 F100.000
G2 X15.556 Y15.556 Z-2.000 I-1.226 J-21.965 K0.000 F100.000
G1 X15.556 Y15.556 Z-3.000 F50.000
G2 X-0.503 Y-21.994 Z-3.000 I-15.556 J-15.556 K0.000 F100.000
G1 X-1.795 Y-21.926 Z-3.000 F100.000
G2 X1.226 Y21.965 Z-3.000 I1.795 J21.926 K0.000 F100.000
G2 X15.556 Y15.556 Z-3.000 I-1.226 J-21.965 K0.000 F100.000
G1 X15.556 Y15.556 Z-4.000 F50.000
G2 X-0.503 Y-21.994 Z-4.000 I-15.556 J-15.556 K0.000 F100.000
G1 X-1.795 Y-21.926 Z-4.000 F100.000
G2 X1.226 Y21.965 Z-4.000 I1.795 J21.926 K0.000 F100.000
G2 X15.556 Y15.556 Z-4.000 I-1.226 J-21.965 K0.000 F100.000
G1 X15.556 Y15.556 Z-5.000 F50.000
G2 X-0.503 Y-21.994 Z-5.000 I-15.556 J-15.556 K0.000 F100.000
G1 X-1.795 Y-21.926 Z-5.000 F100.000
G2 X1.226 Y21.965 Z-5.000 I1.795 J21.926 K0.000 F100.000
G2 X15.556 Y15.556 Z-5.000 I-1.226 J-21.965 K0.000 F100.000
G1 X15.556 Y15.556 Z-6.000 F50.000
G2 X-0.503 Y-21.994 Z-6.000 I-15.556 J-15.556 K0.000 F100.000
G1 X-1.795 Y-21.926 Z-6.000 F100.000
G2 X1.226 Y21.965 Z-6.000 I1.795 J21.926 K0.000 F100.000
G2 X15.556 Y15.556 Z-6.000 I-1.226 J-21.965 K0.000 F100.000
G1 X15.556 Y15.556 Z-7.000 F50.000
G2 X-0.503 Y-21.994 Z-7.000 I-15.556 J-15.556 K0.000 F100.000
G1 X-1.795 Y-21.926 Z-7.000 F100.000
G2 X1.226 Y21.965 Z-7.000 I1.795 J21.926 K0.000 F100.000
G2 X15.556 Y15.556 Z-7.000 I-1.226 J-21.965 K0.000 F100.000
G0 Z5.000
G0 Z5.000
(Finish operation: Profile005)
(Begin operation: Profile003)
(Path: Profile003)
(Profile003)
(Compensated Tool Path. Diameter: 2.0)
G0 Z5.000
G0 X13.170 Y17.612
G0 Z3.000
G1 X13.170 Y17.612 Z-8.000 F50.000
G1 X11.791 Y15.223 Z-8.000 F100.000
G3 X17.406 Y8.071 Z-8.000 I4.244 J-2.448 K0.000 F100.000
G1 X20.110 Y8.900 Z-8.000 F100.000
G2 X8.667 Y-20.212 Z-8.000 I-20.086 J-8.909 K0.000 F100.000
G1 X7.288 Y-17.823 Z-8.000 F100.000
G3 X-1.714 Y-19.109 Z-8.000 I-4.242 J-2.451 K0.000 F100.000
G1 X-2.348 Y-21.866 Z-8.000 F100.000
G2 X-21.837 Y2.600 Z-8.000 I2.327 J21.849 K0.000 F100.000
G1 X-19.079 Y2.600 Z-8.000 F100.000
G3 X-15.692 Y11.039 Z-8.000 I-0.002 J4.900 K0.000 F100.000
G1 X-17.763 Y12.966 Z-8.000 F100.000
G2 X13.170 Y17.612 Z-8.000 I17.759 J-12.940 K0.000 F100.000
G0 Z5.000
G0 Z5.000
(Finish operation: Profile003)
(Begin operation: Pocket_Shape)
(Path: Pocket_Shape)
(Pocket_Shape)
G0 Z5.000
G0
G0 X4.034 Y-19.791
G0 X4.034 Y-19.791 Z3.000
G1 X4.034 Y-19.791 Z-1.000 F50.000
G3 X1.956 Y-20.103 Z-1.000 I-0.988 J-0.494 K0.000 F100.000
G3 X4.034 Y-19.791 Z-1.000 I-1.829 J19.258 K0.000 F100.000
G0 Z5.000
G0 X-0.327 Y-21.997 Z5.000
G0 X-0.327 Y-21.997 Z3.000
G1 X-0.327 Y-21.997 Z-1.000 F50.000
G3 X2.080 Y-21.901 Z-1.000 I0.338 J21.831 K0.000 F100.000
G3 X6.773 Y-20.931 Z-1.000 I-2.066 J21.819 K0.000 F100.000
G1 X5.573 Y-18.853 Z-1.000 F100.000
G3 X0.210 Y-19.659 Z-1.000 I-2.528 J-1.424 K0.000 F100.000
G1 X-0.327 Y-21.997 Z-1.000 F100.000
G0 Z5.000
G0 X4.034 Y-19.791 Z5.000
G0 X4.034 Y-19.791 Z3.000
G1 X4.034 Y-19.791 Z-2.000 F50.000
G3 X1.956 Y-20.103 Z-2.000 I-0.988 J-0.494 K0.000 F100.000
G3 X4.034 Y-19.791 Z-2.000 I-1.829 J19.258 K0.000 F100.000
G0 Z5.000
G0 X-0.327 Y-21.997 Z5.000
G0 X-0.327 Y-21.997 Z3.000
G1 X-0.327 Y-21.997 Z-2.000 F50.000
G3 X2.080 Y-21.901 Z-2.000 I0.338 J21.831 K0.000 F100.000
G3 X6.773 Y-20.931 Z-2.000 I-2.066 J21.819 K0.000 F100.000
G1 X5.573 Y-18.853 Z-2.000 F100.000
G3 X0.210 Y-19.659 Z-2.000 I-2.528 J-1.424 K0.000 F100.000
G1 X-0.327 Y-21.997 Z-2.000 F100.000
G0 Z5.000
G0 X4.034 Y-19.791 Z5.000
G0 X4.034 Y-19.791 Z3.000
G1 X4.034 Y-19.791 Z-3.000 F50.000
G3 X1.956 Y-20.103 Z-3.000 I-0.988 J-0.494 K0.000 F100.000
G3 X4.034 Y-19.791 Z-3.000 I-1.829 J19.258 K0.000 F100.000
G0 Z5.000
G0 X-0.327 Y-21.997 Z5.000
G0 X-0.327 Y-21.997 Z3.000
G1 X-0.327 Y-21.997 Z-3.000 F50.000
G3 X2.080 Y-21.901 Z-3.000 I0.338 J21.831 K0.000 F100.000
G3 X6.773 Y-20.931 Z-3.000 I-2.066 J21.819 K0.000 F100.000
G1 X5.573 Y-18.853 Z-3.000 F100.000
G3 X0.210 Y-19.659 Z-3.000 I-2.528 J-1.424 K0.000 F100.000
G1 X-0.327 Y-21.997 Z-3.000 F100.000
G0 Z5.000
G0 X4.034 Y-19.791 Z5.000
G0 X4.034 Y-19.791 Z3.000
G1 X4.034 Y-19.791 Z-4.000 F50.000
G3 X1.956 Y-20.103 Z-4.000 I-0.988 J-0.494 K0.000 F100.000
G3 X4.034 Y-19.791 Z-4.000 I-1.829 J19.258 K0.000 F100.000
G0 Z5.000
G0 X-0.327 Y-21.997 Z5.000
G0 X-0.327 Y-21.997 Z3.000
G1 X-0.327 Y-21.997 Z-4.000 F50.000
G3 X2.080 Y-21.901 Z-4.000 I0.338 J21.831 K0.000 F100.000
G3 X6.773 Y-20.931 Z-4.000 I-2.066 J21.819 K0.000 F100.000
G1 X5.573 Y-18.853 Z-4.000 F100.000
G3 X0.210 Y-19.659 Z-4.000 I-2.528 J-1.424 K0.000 F100.000
G1 X-0.327 Y-21.997 Z-4.000 F100.000
G0 Z5.000
G0 X4.034 Y-19.791 Z5.000
G0 X4.034 Y-19.791 Z3.000
G1 X4.034 Y-19.791 Z-5.000 F50.000
G3 X1.956 Y-20.103 Z-5.000 I-0.988 J-0.494 K0.000 F100.000
G3 X4.034 Y-19.791 Z-5.000 I-1.829 J19.258 K0.000 F100.000
G0 Z5.000
G0 X-0.327 Y-21.997 Z5.000
G0 X-0.327 Y-21.997 Z3.000
G1 X-0.327 Y-21.997 Z-5.000 F50.000
G3 X2.080 Y-21.901 Z-5.000 I0.338 J21.831 K0.000 F100.000
G3 X6.773 Y-20.931 Z-5.000 I-2.066 J21.819 K0.000 F100.000
G1 X5.573 Y-18.853 Z-5.000 F100.000
G3 X0.210 Y-19.659 Z-5.000 I-2.528 J-1.424 K0.000 F100.000
G1 X-0.327 Y-21.997 Z-5.000 F100.000
G0 Z5.000
G0 X4.034 Y-19.791 Z5.000
G0 X4.034 Y-19.791 Z3.000
G1 X4.034 Y-19.791 Z-6.000 F50.000
G3 X1.956 Y-20.103 Z-6.000 I-0.988 J-0.494 K0.000 F100.000
G3 X4.034 Y-19.791 Z-6.000 I-1.829 J19.258 K0.000 F100.000
G0 Z5.000
G0 X-0.327 Y-21.997 Z5.000
G0 X-0.327 Y-21.997 Z3.000
G1 X-0.327 Y-21.997 Z-6.000 F50.000
G3 X2.080 Y-21.901 Z-6.000 I0.338 J21.831 K0.000 F100.000
G3 X6.773 Y-20.931 Z-6.000 I-2.066 J21.819 K0.000 F100.000
G1 X5.573 Y-18.853 Z-6.000 F100.000
G3 X0.210 Y-19.659 Z-6.000 I-2.528 J-1.424 K0.000 F100.000
G1 X-0.327 Y-21.997 Z-6.000 F100.000
G0 Z5.000
G0 X4.034 Y-19.791 Z5.000
G0 X4.034 Y-19.791 Z3.000
G1 X4.034 Y-19.791 Z-7.000 F50.000
G3 X1.956 Y-20.103 Z-7.000 I-0.988 J-0.494 K0.000 F100.000
G3 X4.034 Y-19.791 Z-7.000 I-1.829 J19.258 K0.000 F100.000
G0 Z5.000
G0 X-0.327 Y-21.997 Z5.000
G0 X-0.327 Y-21.997 Z3.000
G1 X-0.327 Y-21.997 Z-7.000 F50.000
G3 X2.080 Y-21.901 Z-7.000 I0.338 J21.831 K0.000 F100.000
G3 X6.773 Y-20.931 Z-7.000 I-2.066 J21.819 K0.000 F100.000
G1 X5.573 Y-18.853 Z-7.000 F100.000
G3 X0.210 Y-19.659 Z-7.000 I-2.528 J-1.424 K0.000 F100.000
G1 X-0.327 Y-21.997 Z-7.000 F100.000
G0 Z5.000
G0 Z5.000
G0 X0.000 Y0.000
G0 X15.122 Y13.389
G0 X15.122 Y13.389 Z3.000
G1 X15.122 Y13.389 Z-1.000 F50.000
G3 X16.431 Y11.746 Z-1.000 I0.922 J-0.609 K0.000 F100.000
G3 X15.122 Y13.389 Z-1.000 I-15.763 J-11.213 K0.000 F100.000
G0 Z5.000
G0 X13.541 Y14.253 Z5.000
G0 X13.541 Y14.253 Z3.000
G1 X13.541 Y14.253 Z-1.000 F50.000
G3 X16.920 Y10.011 Z-1.000 I2.497 J-1.478 K0.000 F100.000
G1 X19.213 Y10.716 Z-1.000 F100.000
G3 X14.740 Y16.331 Z-1.000 I-19.184 J-10.692 K0.000 F100.000
G1 X13.541 Y14.253 Z-1.000 F100.000
G0 Z5.000
G0 X15.122 Y13.389 Z5.000
G0 X15.122 Y13.389 Z3.000
G1 X15.122 Y13.389 Z-2.000 F50.000
G3 X16.431 Y11.746 Z-2.000 I0.922 J-0.609 K0.000 F100.000
G3 X15.122 Y13.389 Z-2.000 I-15.763 J-11.213 K0.000 F100.000
G0 Z5.000
G0 X13.541 Y14.253 Z5.000
G0 X13.541 Y14.253 Z3.000
G1 X13.541 Y14.253 Z-2.000 F50.000
G3 X16.920 Y10.011 Z-2.000 I2.497 J-1.478 K0.000 F100.000
G1 X19.213 Y10.716 Z-2.000 F100.000
G3 X14.740 Y16.331 Z-2.000 I-19.184 J-10.692 K0.000 F100.000
G1 X13.541 Y14.253 Z-2.000 F100.000
G0 Z5.000
G0 X15.122 Y13.389 Z5.000
G0 X15.122 Y13.389 Z3.000
G1 X15.122 Y13.389 Z-3.000 F50.000
G3 X16.431 Y11.746 Z-3.000 I0.922 J-0.609 K0.000 F100.000
G3 X15.122 Y13.389 Z-3.000 I-15.763 J-11.213 K0.000 F100.000
G0 Z5.000
G0 X13.541 Y14.253 Z5.000
G0 X13.541 Y14.253 Z3.000
G1 X13.541 Y14.253 Z-3.000 F50.000
G3 X16.920 Y10.011 Z-3.000 I2.497 J-1.478 K0.000 F100.000
G1 X19.213 Y10.716 Z-3.000 F100.000
G3 X14.740 Y16.331 Z-3.000 I-19.184 J-10.692 K0.000 F100.000
G1 X13.541 Y14.253 Z-3.000 F100.000
G0 Z5.000
G0 X15.122 Y13.389 Z5.000
G0 X15.122 Y13.389 Z3.000
G1 X15.122 Y13.389 Z-4.000 F50.000
G3 X16.431 Y11.746 Z-4.000 I0.922 J-0.609 K0.000 F100.000
G3 X15.122 Y13.389 Z-4.000 I-15.763 J-11.213 K0.000 F100.000
G0 Z5.000
G0 X13.541 Y14.253 Z5.000
G0 X13.541 Y14.253 Z3.000
G1 X13.541 Y14.253 Z-4.000 F50.000
G3 X16.920 Y10.011 Z-4.000 I2.497 J-1.478 K0.000 F100.000
G1 X19.213 Y10.716 Z-4.000 F100.000
G3 X14.740 Y16.331 Z-4.000 I-19.184 J-10.692 K0.000 F100.000
G1 X13.541 Y14.253 Z-4.000 F100.000
G0 Z5.000
G0 X15.122 Y13.389 Z5.000
G0 X15.122 Y13.389 Z3.000
G1 X15.122 Y13.389 Z-5.000 F50.000
G3 X16.431 Y11.746 Z-5.000 I0.922 J-0.609 K0.000 F100.000
G3 X15.122 Y13.389 Z-5.000 I-15.763 J-11.213 K0.000 F100.000
G0 Z5.000
G0 X13.541 Y14.253 Z5.000
G0 X13.541 Y14.253 Z3.000
G1 X13.541 Y14.253 Z-5.000 F50.000
G3 X16.920 Y10.011 Z-5.000 I2.497 J-1.478 K0.000 F100.000
G1 X19.213 Y10.716 Z-5.000 F100.000
G3 X14.740 Y16.331 Z-5.000 I-19.184 J-10.692 K0.000 F100.000
G1 X13.541 Y14.253 Z-5.000 F100.000
G0 Z5.000
G0 X15.122 Y13.389 Z5.000
G0 X15.122 Y13.389 Z3.000
G1 X15.122 Y13.389 Z-6.000 F50.000
G3 X16.431 Y11.746 Z-6.000 I0.922 J-0.609 K0.000 F100.000
G3 X15.122 Y13.389 Z-6.000 I-15.763 J-11.213 K0.000 F100.000
G0 Z5.000
G0 X13.541 Y14.253 Z5.000
G0 X13.541 Y14.253 Z3.000
G1 X13.541 Y14.253 Z-6.000 F50.000
G3 X16.920 Y10.011 Z-6.000 I2.497 J-1.478 K0.000 F100.000
G1 X19.213 Y10.716 Z-6.000 F100.000
G3 X14.740 Y16.331 Z-6.000 I-19.184 J-10.692 K0.000 F100.000
G1 X13.541 Y14.253 Z-6.000 F100.000
G0 Z5.000
G0 X15.122 Y13.389 Z5.000
G0 X15.122 Y13.389 Z3.000
G1 X15.122 Y13.389 Z-7.000 F50.000
G3 X16.431 Y11.746 Z-7.000 I0.922 J-0.609 K0.000 F100.000
G3 X15.122 Y13.389 Z-7.000 I-15.763 J-11.213 K0.000 F100.000
G0 Z5.000
G0 X13.541 Y14.253 Z5.000
G0 X13.541 Y14.253 Z3.000
G1 X13.541 Y14.253 Z-7.000 F50.000
G3 X16.920 Y10.011 Z-7.000 I2.497 J-1.478 K0.000 F100.000
G1 X19.213 Y10.716 Z-7.000 F100.000
G3 X14.740 Y16.331 Z-7.000 I-19.184 J-10.692 K0.000 F100.000
G1 X13.541 Y14.253 Z-7.000 F100.000
G0 Z5.000
G0 Z5.000
G0 X0.000 Y0.000
G0 X-18.388 Y8.357
G0 X-18.388 Y8.357 Z3.000
G1 X-18.388 Y8.357 Z-1.000 F50.000
G3 X-19.156 Y6.401 Z-1.000 I17.592 J-8.045 K0.000 F100.000
G3 X-18.388 Y8.357 Z-1.000 I0.067 J1.103 K0.000 F100.000
G0 Z5.000
G0 X-21.513 Y4.600 Z5.000
G0 X-21.513 Y4.600 Z3.000
G1 X-21.513 Y4.600 Z-1.000 F50.000
G1 X-19.114 Y4.600 Z-1.000 F100.000
G3 X-17.130 Y9.648 Z-1.000 I0.031 J2.901 K0.000 F100.000
G1 X-18.886 Y11.281 Z-1.000 F100.000
G3 X-21.513 Y4.600 Z-1.000 I18.851 J-11.267 K0.000 F100.000
G0 Z5.000
G0 X-18.388 Y8.357 Z5.000
G0 X-18.388 Y8.357 Z3.000
G1 X-18.388 Y8.357 Z-2.000 F50.000
G3 X-19.156 Y6.401 Z-2.000 I17.592 J-8.045 K0.000 F100.000
G3 X-18.388 Y8.357 Z-2.000 I0.067 J1.103 K0.000 F100.000
G0 Z5.000
G0 X-21.513 Y4.600 Z5.000
G0 X-21.513 Y4.600 Z3.000
G1 X-21.513 Y4.600 Z-2.000 F50.000
G1 X-19.114 Y4.600 Z-2.000 F100.000
G3 X-17.130 Y9.648 Z-2.000 I0.031 J2.901 K0.000 F100.000
G1 X-18.886 Y11.281 Z-2.000 F100.000
G3 X-21.513 Y4.600 Z-2.000 I18.851 J-11.267 K0.000 F100.000
G0 Z5.000
G0 X-18.388 Y8.357 Z5.000
G0 X-18.388 Y8.357 Z3.000
G1 X-18.388 Y8.357 Z-3.000 F50.000
G3 X-19.156 Y6.401 Z-3.000 I17.592 J-8.045 K0.000 F100.000
G3 X-18.388 Y8.357 Z-3.000 I0.067 J1.103 K0.000 F100.000
G0 Z5.000
G0 X-21.513 Y4.600 Z5.000
G0 X-21.513 Y4.600 Z3.000
G1 X-21.513 Y4.600 Z-3.000 F50.000
G1 X-19.114 Y4.600 Z-3.000 F100.000
G3 X-17.130 Y9.648 Z-3.000 I0.031 J2.901 K0.000 F100.000
G1 X-18.886 Y11.281 Z-3.000 F100.000
G3 X-21.513 Y4.600 Z-3.000 I18.851 J-11.267 K0.000 F100.000
G0 Z5.000
G0 X-18.388 Y8.357 Z5.000
G0 X-18.388 Y8.357 Z3.000
G1 X-18.388 Y8.357 Z-4.000 F50.000
G3 X-19.156 Y6.401 Z-4.000 I17.592 J-8.045 K0.000 F100.000
G3 X-18.388 Y8.357 Z-4.000 I0.067 J1.103 K0.000 F100.000
G0 Z5.000
G0 X-21.513 Y4.600 Z5.000
G0 X-21.513 Y4.600 Z3.000
G1 X-21.513 Y4.600 Z-4.000 F50.000
G1 X-19.114 Y4.600 Z-4.000 F100.000
G3 X-17.130 Y9.648 Z-4.000 I0.031 J2.901 K0.000 F100.000
G1 X-18.886 Y11.281 Z-4.000 F100.000
G3 X-21.513 Y4.600 Z-4.000 I18.851 J-11.267 K0.000 F100.000
G0 Z5.000
G0 X-18.388 Y8.357 Z5.000
G0 X-18.388 Y8.357 Z3.000
G1 X-18.388 Y8.357 Z-5.000 F50.000
G3 X-19.156 Y6.401 Z-5.000 I17.592 J-8.045 K0.000 F100.000
G3 X-18.388 Y8.357 Z-5.000 I0.067 J1.103 K0.000 F100.000
G0 Z5.000
G0 X-21.513 Y4.600 Z5.000
G0 X-21.513 Y4.600 Z3.000
G1 X-21.513 Y4.600 Z-5.000 F50.000
G1 X-19.114 Y4.600 Z-5.000 F100.000
G3 X-17.130 Y9.648 Z-5.000 I0.031 J2.901 K0.000 F100.000
G1 X-18.886 Y11.281 Z-5.000 F100.000
G3 X-21.513 Y4.600 Z-5.000 I18.851 J-11.267 K0.000 F100.000
G0 Z5.000
G0 X-18.388 Y8.357 Z5.000
G0 X-18.388 Y8.357 Z3.000
G1 X-18.388 Y8.357 Z-6.000 F50.000
G3 X-19.156 Y6.401 Z-6.000 I17.592 J-8.045 K0.000 F100.000
G3 X-18.388 Y8.357 Z-6.000 I0.067 J1.103 K0.000 F100.000
G0 Z5.000
G0 X-21.513 Y4.600 Z5.000
G0 X-21.513 Y4.600 Z3.000
G1 X-21.513 Y4.600 Z-6.000 F50.000
G1 X-19.114 Y4.600 Z-6.000 F100.000
G3 X-17.130 Y9.648 Z-6.000 I0.031 J2.901 K0.000 F100.000
G1 X-18.886 Y11.281 Z-6.000 F100.000
G3 X-21.513 Y4.600 Z-6.000 I18.851 J-11.267 K0.000 F100.000
G0 Z5.000
G0 X-18.388 Y8.357 Z5.000
G0 X-18.388 Y8.357 Z3.000
G1 X-18.388 Y8.357 Z-7.000 F50.000
G3 X-19.156 Y6.401 Z-7.000 I17.592 J-8.045 K0.000 F100.000
G3 X-18.388 Y8.357 Z-7.000 I0.067 J1.103 K0.000 F100.000
G0 Z5.000
G0 X-21.513 Y4.600 Z5.000
G0 X-21.513 Y4.600 Z3.000
G1 X-21.513 Y4.600 Z-7.000 F50.000
G1 X-19.114 Y4.600 Z-7.000 F100.000
G3 X-17.130 Y9.648 Z-7.000 I0.031 J2.901 K0.000 F100.000
G1 X-18.886 Y11.281 Z-7.000 F100.000
G3 X-21.513 Y4.600 Z-7.000 I18.851 J-11.267 K0.000 F100.000
G0 Z5.000
G0 Z5.000
(Finish operation: Pocket_Shape)
(Begin operation: Profile001)
(Path: Profile001)
(Profile001)
(Compensated Tool Path. Diameter: 2.0)
G0 Z5.000
G0 X17.057 Y13.795
G0 Z3.000
G1 X17.057 Y13.795 Z-8.000 F50.000
G2 X16.009 Y11.327 Z-8.000 I-1.023 J-1.023 K0.000 F100.000
G1 X15.756 Y11.354 Z-8.000 F100.000
G2 X16.087 Y14.218 Z-8.000 I0.278 J1.419 K0.000 F100.000
G2 X17.057 Y13.795 Z-8.000 I-0.053 J-1.445 K0.000 F100.000
G0 Z5.000
G0 X-17.654 Y7.748 Z5.000
G0 X-17.654 Y7.748 Z3.000
G1 X-17.654 Y7.748 Z-8.000 F50.000
G2 X-19.111 Y6.054 Z-8.000 I-1.425 J-0.248 K0.000 F100.000
G2 X-19.059 Y8.946 Z-8.000 I0.032 J1.446 K0.000 F100.000
G2 X-17.654 Y7.748 Z-8.000 I-0.020 J-1.446 K0.000 F100.000
G0 Z5.000
G0 X2.185 Y-19.110 Z5.000
G0 X2.185 Y-19.110 Z3.000
G1 X2.185 Y-19.110 Z-8.000 F50.000
G2 X3.215 Y-18.837 Z-8.000 I0.859 J-1.163 K0.000 F100.000
G2 X2.992 Y-21.718 Z-8.000 I-0.171 J-1.436 K0.000 F100.000
G1 X2.736 Y-21.685 Z-8.000 F100.000
G2 X2.185 Y-19.110 Z-8.000 I0.309 J1.413 K0.000 F100.000
G1 X2.185 Y-19.110 Z-9.000 F50.000
G2 X3.215 Y-18.837 Z-9.000 I0.859 J-1.163 K0.000 F100.000
G2 X2.992 Y-21.718 Z-9.000 I-0.171 J-1.436 K0.000 F100.000
G1 X2.736 Y-21.685 Z-9.000 F100.000
G2 X2.185 Y-19.110 Z-9.000 I0.309 J1.413 K0.000 F100.000
G0 Z5.000
G0 X-18.176 Y6.370 Z5.000
G0 X-18.176 Y6.370 Z3.000
G1 X-18.176 Y6.370 Z-9.000 F50.000
G2 X-19.111 Y6.054 Z-9.000 I-0.903 J1.130 K0.000 F100.000
G2 X-19.059 Y8.946 Z-9.000 I0.032 J1.446 K0.000 F100.000
G2 X-18.176 Y6.370 Z-9.000 I-0.020 J-1.446 K0.000 F100.000
G0 Z5.000
G0 X14.613 Y12.507 Z5.000
G0 X14.613 Y12.507 Z3.000
G1 X14.613 Y12.507 Z-9.000 F50.000
G2 X16.087 Y14.218 Z-9.000 I1.422 J0.266 K0.000 F100.000
G2 X16.009 Y11.327 Z-9.000 I-0.053 J-1.445 K0.000 F100.000
G1 X15.756 Y11.354 Z-9.000 F100.000
G2 X14.613 Y12.507 Z-9.000 I0.278 J1.419 K0.000 F100.000
G1 X14.613 Y12.507 Z-10.000 F50.000
G2 X16.087 Y14.218 Z-10.000 I1.422 J0.266 K0.000 F100.000
G2 X16.009 Y11.327 Z-10.000 I-0.053 J-1.445 K0.000 F100.000
G1 X15.756 Y11.354 Z-10.000 F100.000
G2 X14.613 Y12.507 Z-10.000 I0.278 J1.419 K0.000 F100.000
G0 Z5.000
G0 X-17.648 Y7.713 Z5.000
G0 X-17.648 Y7.713 Z3.000
G1 X-17.648 Y7.713 Z-10.000 F50.000
G2 X-19.111 Y6.054 Z-10.000 I-1.430 J-0.213 K0.000 F100.000
G2 X-19.059 Y8.946 Z-10.000 I0.032 J1.446 K0.000 F100.000
G2 X-17.648 Y7.713 Z-10.000 I-0.020 J-1.446 K0.000 F100.000
G0 Z5.000
G0 X2.185 Y-19.110 Z5.000
G0 X2.185 Y-19.110 Z3.000
G1 X2.185 Y-19.110 Z-10.000 F50.000
G2 X3.215 Y-18.837 Z-10.000 I0.860 J-1.163 K0.000 F100.000
G2 X2.992 Y-21.718 Z-10.000 I-0.171 J-1.436 K0.000 F100.000
G1 X2.736 Y-21.685 Z-10.000 F100.000
G2 X2.185 Y-19.110 Z-10.000 I0.309 J1.413 K0.000 F100.000
G1 X2.185 Y-19.110 Z-10.500 F50.000
G2 X3.215 Y-18.837 Z-10.500 I0.860 J-1.163 K0.000 F100.000
G2 X2.992 Y-21.718 Z-10.500 I-0.171 J-1.436 K0.000 F100.000
G1 X2.736 Y-21.685 Z-10.500 F100.000
G2 X2.185 Y-19.110 Z-10.500 I0.309 J1.413 K0.000 F100.000
G0 Z5.000
G0 X-18.176 Y6.370 Z5.000
G0 X-18.176 Y6.370 Z3.000
G1 X-18.176 Y6.370 Z-10.500 F50.000
G2 X-19.111 Y6.054 Z-10.500 I-0.903 J1.130 K0.000 F100.000
G2 X-19.059 Y8.946 Z-10.500 I0.032 J1.446 K0.000 F100.000
G2 X-18.176 Y6.370 Z-10.500 I-0.020 J-1.446 K0.000 F100.000
G0 Z5.000
G0 X14.613 Y12.507 Z5.000
G0 X14.613 Y12.507 Z3.000
G1 X14.613 Y12.507 Z-10.500 F50.000
G2 X16.087 Y14.218 Z-10.500 I1.422 J0.266 K0.000 F100.000
G2 X16.009 Y11.327 Z-10.500 I-0.053 J-1.445 K0.000 F100.000
G1 X15.756 Y11.354 Z-10.500 F100.000
G2 X14.613 Y12.507 Z-10.500 I0.278 J1.419 K0.000 F100.000
G0 Z5.000
G0 Z5.000
(Finish operation: Profile001)
(Begin operation: Profile004)
(Path: Profile004)
(Profile004)
(Compensated Tool Path. Diameter: 2.0)
G0 Z5.000
G0 X17.677 Y17.677
G0 Z3.000
G1 X17.677 Y17.677 Z-1.000 F50.000
G2 X2.142 Y-24.908 Z-1.000 I-17.677 J-17.677 K0.000 F100.000
G2 X-2.142 Y24.908 Z-1.000 I-2.142 J24.908 K0.000 F100.000
G2 X17.677 Y17.677 Z-1.000 I2.142 J-24.908 K0.000 F100.000
G1 X17.677 Y17.677 Z-2.000 F50.000
G2 X2.142 Y-24.908 Z-2.000 I-17.677 J-17.677 K0.000 F100.000
G2 X-2.142 Y24.908 Z-2.000 I-2.142 J24.908 K0.000 F100.000
G2 X17.677 Y17.677 Z-2.000 I2.142 J-24.908 K0.000 F100.000
G1 X17.677 Y17.677 Z-3.000 F50.000
G2 X2.142 Y-24.908 Z-3.000 I-17.677 J-17.677 K0.000 F100.000
G2 X-2.142 Y24.908 Z-3.000 I-2.142 J24.908 K0.000 F100.000
G2 X17.677 Y17.677 Z-3.000 I2.142 J-24.908 K0.000 F100.000
G1 X17.677 Y17.677 Z-4.000 F50.000
G2 X2.142 Y-24.908 Z-4.000 I-17.677 J-17.677 K0.000 F100.000
G2 X-2.142 Y24.908 Z-4.000 I-2.142 J24.908 K0.000 F100.000
G2 X17.677 Y17.677 Z-4.000 I2.142 J-24.908 K0.000 F100.000
G1 X17.677 Y17.677 Z-5.000 F50.000
G2 X2.142 Y-24.908 Z-5.000 I-17.677 J-17.677 K0.000 F100.000
G2 X-2.142 Y24.908 Z-5.000 I-2.142 J24.908 K0.000 F100.000
G2 X17.677 Y17.677 Z-5.000 I2.142 J-24.908 K0.000 F100.000
G1 X17.677 Y17.677 Z-6.000 F50.000
G2 X2.142 Y-24.908 Z-6.000 I-17.677 J-17.677 K0.000 F100.000
G2 X-2.142 Y24.908 Z-6.000 I-2.142 J24.908 K0.000 F100.000
G2 X17.677 Y17.677 Z-6.000 I2.142 J-24.908 K0.000 F100.000
G1 X17.677 Y17.677 Z-7.000 F50.000
G2 X2.142 Y-24.908 Z-7.000 I-17.677 J-17.677 K0.000 F100.000
G2 X-2.142 Y24.908 Z-7.000 I-2.142 J24.908 K0.000 F100.000
G2 X17.677 Y17.677 Z-7.000 I2.142 J-24.908 K0.000 F100.000
G1 X17.677 Y17.677 Z-8.000 F50.000
G2 X2.142 Y-24.908 Z-8.000 I-17.677 J-17.677 K0.000 F100.000
G2 X-2.142 Y24.908 Z-8.000 I-2.142 J24.908 K0.000 F100.000
G2 X17.677 Y17.677 Z-8.000 I2.142 J-24.908 K0.000 F100.000
G1 X17.677 Y17.677 Z-9.000 F50.000
G2 X2.142 Y-24.908 Z-9.000 I-17.677 J-17.677 K0.000 F100.000
G2 X-2.142 Y24.908 Z-9.000 I-2.142 J24.908 K0.000 F100.000
G2 X17.677 Y17.677 Z-9.000 I2.142 J-24.908 K0.000 F100.000
G1 X17.677 Y17.677 Z-10.000 F50.000
G2 X2.142 Y-24.908 Z-10.000 I-17.677 J-17.677 K0.000 F100.000
G2 X-2.142 Y24.908 Z-10.000 I-2.142 J24.908 K0.000 F100.000
G2 X17.677 Y17.677 Z-10.000 I2.142 J-24.908 K0.000 F100.000
G1 X17.677 Y17.677 Z-10.500 F50.000
G2 X2.142 Y-24.908 Z-10.500 I-17.677 J-17.677 K0.000 F100.000
G2 X-2.142 Y24.908 Z-10.500 I-2.142 J24.908 K0.000 F100.000
G2 X17.677 Y17.677 Z-10.500 I2.142 J-24.908 K0.000 F100.000
G0 Z5.000
G0 Z5.000
(Finish operation: Profile004)
(Begin postamble)
M5
G17 G90
M2
