; generated by PrusaSlicer 2.7.4 on 2024-08-27 at 17:21:22 UTC

; 

; external perimeters extrusion width = 0.42mm
; perimeters extrusion width = 0.44mm
; infill extrusion width = 0.44mm
; solid infill extrusion width = 0.44mm
; top infill extrusion width = 0.40mm
; support material extrusion width = 0.36mm
; first layer extrusion width = 0.42mm

M201 X500 Y500 Z100 E5000 ; sets maximum accelerations, mm/sec^2
M203 X500 Y500 Z10 E60 ; sets maximum feedrates, mm / sec
M204 S500 T1000 ; sets acceleration (S) and retract acceleration (R), mm/sec^2
M205 X8.00 Y8.00 Z0.40 E5.00 ; sets the jerk limits, mm/sec
M205 S0 T0 ; sets the minimum extruding and travel feed rate, mm/sec

; printing object rotorcap-Part id:2 copy 0
; stop printing object rotorcap-Part id:2 copy 0

;TYPE:Custom
G90 ; use absolute coordinates
M83 ; extruder relative mode
M104 S150 ; set temporary nozzle temp to prevent oozing during homing
M140 S60 ; set final bed temp
G4 S30 ; allow partial nozzle warmup
G28 ; home all axis
G1 Z50 F240
G1 X2.0 Y10 F3000
M104 S215 ; set final nozzle temp
M190 S60 ; wait for bed temp to stabilize
M109 S215 ; wait for nozzle temp to stabilize
G1 Z0.28 F240
G92 E0
G1 X2.0 Y140 E10 F1500 ; prime the nozzle
G1 X2.3 Y140 F5000
G92 E0
G1 X2.3 Y10 E10 F1200 ; prime the nozzle
G92 E0
G21 ; set units to millimeters
G90 ; use absolute coordinates
M83 ; use relative distances for extrusion
; Filament gcode
M107
;LAYER_CHANGE
;Z:0.2
;HEIGHT:0.2
G1 E-5 F3600
G1 Z.2 F9000
G1 X37.423 Y72.079
G1 Z.2
G1 E5 F2400
M204 S500
;TYPE:Skirt/Brim
;WIDTH:0.42
G1 F1200
G1 X46.618 Y67.306 E.32483
G1 X48.585 Y66.764 E.06397
G1 X50.267 Y66.72 E.05276
G1 X52.957 Y66.904 E.08454
G1 X55.469 Y67.367 E.08009
G1 X57.252 Y68.197 E.06167
G1 X58.572 Y69.677 E.06218
G1 X71.886 Y92.737 E.83489
G1 X72.506 Y94.604 E.06168
G1 X72.328 Y96.605 E.06299
G1 X71.602 Y98.691 E.06925
G1 X70.652 Y100.753 E.07118
G1 X69.528 Y102.677 E.06987
G1 X68.199 Y104.516 E.07114
G1 X66.618 Y105.821 E.06428
G1 X53.381 Y112.694 E.46765
G1 X51.414 Y113.235 E.06396
G1 X49.586 Y113.278 E.05733
G1 X47.041 Y113.096 E.08
G1 X44.53 Y112.633 E.08006
G1 X42.747 Y111.804 E.06165
G1 X41.427 Y110.323 E.0622
G1 X28.113 Y87.263 E.83489
G1 X27.493 Y85.396 E.06168
G1 X27.669 Y83.402 E.06276
G1 X28.397 Y81.308 E.06951
G1 X29.347 Y79.247 E.07116
G1 X30.471 Y77.322 E.06989
G1 X31.8 Y75.483 E.07114
G1 X33.381 Y74.178 E.06428
G1 X37.37 Y72.107 E.14092
G1 X37.37 Y72.107 F9000
G1 X37.544 Y72.442
G1 F1200
G1 X46.791 Y67.64 E.3267
G1 X48.607 Y67.141 E.05905
G1 X50.264 Y67.097 E.05197
G1 X52.908 Y67.278 E.08309
G1 X55.382 Y67.733 E.07887
G1 X57.087 Y68.545 E.05921
G1 X58.245 Y69.866 E.05508
G1 X71.559 Y92.926 E.83489
G1 X72.14 Y94.723 E.05922
G1 X71.974 Y96.473 E.05512
G1 X71.077 Y98.974 E.08331
G1 X70.211 Y100.781 E.06283
G1 X69.079 Y102.674 E.06916
G1 X67.903 Y104.282 E.06246
G1 X66.445 Y105.487 E.05931
G1 X53.207 Y112.359 E.46766
G1 X51.392 Y112.859 E.05903
G1 X49.589 Y112.901 E.05655
G1 X47.091 Y112.722 E.07852
G1 X44.617 Y112.266 E.07888
G1 X42.912 Y111.455 E.0592
G1 X41.753 Y110.134 E.0551
G1 X28.44 Y87.074 E.83487
G1 X27.859 Y85.277 E.05922
G1 X28.03 Y83.512 E.0556
G1 X28.922 Y81.026 E.08281
G1 X29.788 Y79.218 E.06286
G1 X30.92 Y77.326 E.06913
G1 X32.096 Y75.717 E.06249
G1 X33.554 Y74.513 E.05929
G1 X37.49 Y72.469 E.13906
G1 X37.49 Y72.469 F9000
G1 X37.664 Y72.804
G1 F1200
G1 X46.965 Y67.975 E.32859
G1 X48.629 Y67.517 E.05411
G1 X50.262 Y67.474 E.05122
G1 X52.858 Y67.651 E.08158
G1 X55.295 Y68.1 E.0777
G1 X56.919 Y68.892 E.05665
G1 X57.919 Y70.054 E.04807
G1 X71.233 Y93.114 E.83489
G1 X71.772 Y94.839 E.05666
G1 X71.612 Y96.365 E.04811
G1 X70.68 Y98.943 E.08595
G1 X69.863 Y100.631 E.0588
G1 X68.764 Y102.467 E.06709
G1 X67.607 Y104.048 E.06143
G1 X66.271 Y105.152 E.05434
G1 X53.034 Y112.025 E.46765
G1 X51.37 Y112.482 E.05411
G1 X49.592 Y112.524 E.05576
G1 X47.14 Y112.348 E.07708
G1 X44.704 Y111.9 E.07766
G1 X43.08 Y111.108 E.05665
G1 X42.08 Y109.945 E.04809
G1 X28.766 Y86.886 E.83486
G1 X28.227 Y85.161 E.05666
G1 X28.391 Y83.621 E.04856
G1 X29.319 Y81.057 E.0855
G1 X30.136 Y79.369 E.0588
G1 X31.235 Y77.533 E.06709
G1 X32.392 Y75.951 E.06145
G1 X33.728 Y74.848 E.05432
G1 X37.611 Y72.832 E.13718
G1 X37.611 Y72.832 F9000
G1 X37.785 Y73.166
G1 F1200
G1 X47.139 Y68.31 E.33045
G1 X48.651 Y67.894 E.04917
G1 X50.259 Y67.851 E.05044
G1 X52.809 Y68.025 E.08014
G1 X55.208 Y68.467 E.07648
G1 X56.747 Y69.238 E.05397
G1 X57.592 Y70.243 E.04117
G1 X70.906 Y93.303 E.83489
G1 X71.402 Y94.951 E.05396
G1 X71.251 Y96.257 E.04122
G1 X70.315 Y98.836 E.08602
G1 X69.47 Y100.566 E.06037
G1 X68.448 Y102.26 E.06203
G1 X67.312 Y103.815 E.06038
G1 X66.097 Y104.817 E.04938
G1 X52.86 Y111.69 E.46765
G1 X51.348 Y112.106 E.04917
G1 X49.595 Y112.147 E.05498
G1 X47.19 Y111.975 E.0756
G1 X44.791 Y111.533 E.07648
G1 X43.252 Y110.762 E.05397
G1 X42.407 Y109.757 E.04117
G1 X29.093 Y86.697 E.83489
G1 X28.597 Y85.049 E.05396
G1 X28.751 Y83.73 E.04164
G1 X29.684 Y81.164 E.08561
G1 X30.528 Y79.434 E.06035
G1 X31.55 Y77.739 E.06206
G1 X32.687 Y76.185 E.06037
G1 X33.902 Y75.182 E.0494
G1 X37.731 Y73.194 E.13527
G1 X37.731 Y73.194 F9000
G1 X37.905 Y73.529
G1 F1200
G1 X47.313 Y68.644 E.33238
G1 X48.673 Y68.27 E.04422
G1 X50.256 Y68.228 E.04965
G1 X52.759 Y68.399 E.07866
G1 X55.121 Y68.834 E.0753
G1 X56.57 Y69.583 E.05114
G1 X57.266 Y70.431 E.0344
G1 X70.579 Y93.491 E.83487
G1 X71.03 Y95.059 E.05116
G1 X70.89 Y96.149 E.03446
G1 X70.538 Y97.24 E.03594
G1 X69.88 Y98.885 E.05555
G1 X69.138 Y100.388 E.05256
G1 X68.252 Y101.873 E.05422
G1 X67.192 Y103.357 E.05718
G1 X67.016 Y103.581 E.00893
G1 X65.923 Y104.483 E.04443
G1 X52.686 Y111.355 E.46763
G1 X51.326 Y111.73 E.04423
G1 X49.597 Y111.77 E.05423
G1 X47.239 Y111.601 E.07412
G1 X44.878 Y111.166 E.07527
G1 X43.429 Y110.417 E.05114
G1 X42.733 Y109.568 E.03442
G1 X29.419 Y86.508 E.83489
G1 X28.969 Y84.94 E.05115
G1 X29.112 Y83.84 E.03478
G1 X29.461 Y82.76 E.03559
G1 X30.118 Y81.114 E.05557
G1 X30.861 Y79.612 E.05254
G1 X31.747 Y78.127 E.05422
G1 X32.807 Y76.643 E.05718
G1 X32.983 Y76.419 E.00893
G1 X34.076 Y75.517 E.04443
G1 X37.852 Y73.556 E.13341
G1 E-3.5 F3600
;WIPE_START
G1 F7200
G1 X37.905 Y73.529 E-.02825
G1 X40.655 Y72.101 E-1.47175
;WIPE_END
; printing object rotorcap-Part id:2 copy 0
G1 X35.532 Y80.469 F9000
G1 E5 F2400
;TYPE:Perimeter
;WIDTH:0.419999
G1 F1200
G1 X45.271 Y97.338 E.61073
G1 X45.253 Y97.876 E.01688
G1 X45.354 Y99.184 E.04113
G1 X45.601 Y100.337 E.03697
G1 X45.951 Y101.35 E.0336
G1 X46.243 Y101.991 E.02209
G1 X46.491 Y102.451 E.01639
G1 X49.302 Y107.311 E.17603
G1 X48.511 Y107.27 E.02483
G1 X47.816 Y107.197 E.02191
G1 X47.175 Y107.103 E.02031
G1 X46.34 Y106.934 E.02671
G1 X33.504 Y84.7 E.80496
G1 X33.739 Y83.991 E.02342
G1 X34.092 Y83.11 E.02976
G1 X34.57 Y82.1 E.03504
G1 X35.066 Y81.2 E.03222
G1 X35.499 Y80.52 E.02528
G1 X35.499 Y80.52 F9000
G1 X35.559 Y79.763
G1 F1200
G1 X45.653 Y97.245 E.63294
G1 X45.629 Y97.85 E.01898
G1 X45.722 Y99.105 E.03946
G1 X45.97 Y100.258 E.03698
G1 X46.294 Y101.194 E.03106
G1 X46.818 Y102.263 E.03733
G1 X49.552 Y106.996 E.17138
G1 X49.981 Y107.699 E.02582
G1 X49.634 Y107.706 E.01088
G1 X48.482 Y107.646 E.03617
G1 X47.769 Y107.571 E.02248
G1 X47.11 Y107.475 E.02088
G1 X46.099 Y107.27 E.03234
G1 X33.093 Y84.742 E.81561
G1 X33.385 Y83.861 E.0291
G1 X33.746 Y82.959 E.03046
G1 X34.234 Y81.928 E.03576
G1 X34.741 Y81.007 E.03296
G1 X35.377 Y80.01 E.03708
G1 X35.524 Y79.811 E.00776
G1 X35.524 Y79.811 F9000
G1 X35.597 Y79.075
;TYPE:External perimeter
G1 F1200
G1 X46.034 Y97.152 E.65448
G1 X46.005 Y97.823 E.02106
G1 X46.091 Y99.026 E.03782
G1 X46.338 Y100.179 E.03697
G1 X46.637 Y101.037 E.02849
G1 X47.144 Y102.074 E.03619
G1 X49.563 Y106.261 E.15161
G1 X50.391 Y107.648 E.05065
G1 X50.617 Y108.065 E.01487
G1 X49.628 Y108.083 E.03101
G1 X48.452 Y108.023 E.03692
G1 X47.721 Y107.945 E.02305
G1 X47.045 Y107.846 E.02142
G1 X45.857 Y107.605 E.03801
G1 X32.681 Y84.784 E.82623
G1 X33.03 Y83.732 E.03475
G1 X33.401 Y82.809 E.03119
G1 X33.898 Y81.757 E.03648
G1 X34.417 Y80.815 E.03372
G1 X35.069 Y79.791 E.03806
G1 X35.562 Y79.123 E.02603
G1 E-3.5 F3600
;WIPE_START
G1 F7200
G1 X35.597 Y79.075 E-.02822
G1 X37.146 Y81.758 E-1.47178
;WIPE_END
G1 X44.977 Y97.41 F9000
G1 E5 F2400
;TYPE:Solid infill
G1 F1200
G1 X35.519 Y81.029 E.59308
G1 X34.84 Y82.211 E.04274
G1 X34.358 Y83.226 E.03523
G1 X34.012 Y84.091 E.02921
G1 X33.82 Y84.668 E.01907
G1 X46.526 Y106.675 E.79676
G1 X47.225 Y106.817 E.02236
G1 X47.852 Y106.909 E.01987
G1 X48.78 Y106.993 E.02922
G1 X46.225 Y102.571 E.16013
G1 X45.984 Y102.12 E.01603
G1 X45.648 Y101.376 E.0256
G1 X45.316 Y100.393 E.03253
G1 X45.071 Y99.251 E.03662
G1 X44.964 Y97.902 E.04243
G1 X44.976 Y97.47 E.01355
G1 X44.976 Y97.47 F9000
G1 X44.597 Y97.506
G1 F1200
G1 X35.513 Y81.771 E.56967
G1 X35.164 Y82.404 E.02266
G1 X34.704 Y83.377 E.03375
G1 X34.366 Y84.22 E.02848
G1 X34.232 Y84.626 E.01341
G1 X46.768 Y106.34 E.78614
G1 X47.29 Y106.445 E.01669
G1 X48.091 Y106.555 E.02535
G1 X45.899 Y102.76 E.13741
G1 X45.651 Y102.298 E.01644
G1 X45.305 Y101.53 E.02641
G1 X44.947 Y100.472 E.03502
G1 X44.702 Y99.33 E.03662
G1 X44.588 Y97.931 E.04401
G1 X44.596 Y97.566 E.01145
G1 X44.596 Y97.566 F9000
G1 X44.217 Y97.602
G1 F1200
G1 X35.52 Y82.539 E.54536
G1 X35.05 Y83.528 E.03433
G1 X34.643 Y84.584 E.03548
G1 X44.064 Y100.902 E.59079
;WIDTH:0.432647
G1 X44.568 Y101.763 E.03233
G1 X45.003 Y102.565 E.02957
;WIDTH:0.383878
G1 X45.29 Y103.072 E.01652
;WIDTH:0.373283
G1 X46.994 Y106.025 E.09365
G1 X47.424 Y106.107 E.01202
G1 X45.593 Y102.937 E.10056
;WIDTH:0.38137
G1 X45.336 Y102.467 E.01508
;WIDTH:0.424453
G1 X44.959 Y101.686 E.02751
G1 X44.608 Y100.656 E.03452
;WIDTH:0.419999
G1 X44.315 Y99.285 E.04396
G1 X44.212 Y97.96 E.04167
G1 X44.216 Y97.662 E.00934
G1 X44.216 Y97.662 F9000
G1 X43.837 Y97.698
G1 F1200
G1 X35.552 Y83.348 E.51954
G1 X35.054 Y84.542 E.04056
G1 X44.132 Y100.265 E.56925
G1 X43.939 Y99.314 E.03043
G1 X43.836 Y97.99 E.04164
G1 X43.837 Y97.758 E.00727
G1 X43.837 Y97.758 F9000
G1 X43.459 Y97.747
;WIDTH:0.368646
G1 F1200
G1 X35.595 Y84.125 E.42601
G1 X35.441 Y84.51 E.01123
G1 X43.524 Y98.51 E.43784
G1 X43.474 Y97.805 E.01914
G1 E-3.5 F3600
;WIPE_START
G1 F7200
G1 X43.524 Y98.51 E-.33572
G1 X42.298 Y96.387 E-1.16428
;WIPE_END
G1 X64.469 Y99.534 F9000
G1 E5 F2400
;TYPE:Perimeter
;WIDTH:0.419999
G1 F1200
G1 X54.728 Y82.662 E.61085
G1 X54.746 Y82.124 E.01688
G1 X54.645 Y80.816 E.04113
G1 X54.398 Y79.663 E.03697
G1 X54.048 Y78.649 E.03363
G1 X53.755 Y78.009 E.02207
G1 X53.508 Y77.548 E.0164
G1 X50.696 Y72.688 E.17605
G1 X51.165 Y72.705 E.01471
G1 X52.187 Y72.803 E.03219
G1 X52.933 Y72.915 E.02365
G1 X53.657 Y73.064 E.02318
G1 X66.497 Y95.304 E.80519
G1 X66.363 Y95.721 E.01373
G1 X66.058 Y96.528 E.02705
G1 X65.764 Y97.209 E.02326
G1 X65.418 Y97.921 E.02482
G1 X65.065 Y98.571 E.02319
G1 X64.501 Y99.483 E.03362
G1 X64.501 Y99.483 F9000
G1 X64.443 Y100.243
G1 F1200
G1 X54.346 Y82.755 E.63315
G1 X54.37 Y82.15 E.01898
G1 X54.277 Y80.895 E.03946
G1 X54.029 Y79.742 E.03698
G1 X53.705 Y78.806 E.03106
G1 X53.181 Y77.737 E.03733
G1 X50.447 Y73.004 E.17138
G1 X50.016 Y72.297 E.02596
G1 X51.191 Y72.329 E.03685
G1 X52.232 Y72.429 E.03279
G1 X52.999 Y72.543 E.02431
G1 X53.899 Y72.729 E.02882
G1 X66.908 Y95.26 E.81574
G1 X66.722 Y95.837 E.01901
G1 X66.424 Y96.631 E.02659
G1 X66.121 Y97.336 E.02406
G1 X65.766 Y98.071 E.02559
G1 X65.401 Y98.745 E.02403
G1 X64.911 Y99.554 E.02966
G1 X64.477 Y100.193 E.02422
G1 X64.477 Y100.193 F9000
G1 X64.403 Y100.928
;TYPE:External perimeter
G1 F1200
G1 X53.965 Y82.848 E.65457
G1 X53.994 Y82.176 E.02109
G1 X53.908 Y80.974 E.03778
G1 X53.66 Y79.821 E.03698
G1 X53.362 Y78.963 E.02848
G1 X52.855 Y77.925 E.03622
G1 X49.381 Y71.934 E.21714
G1 X50.228 Y71.915 E.02656
G1 X51.216 Y71.953 E.031
G1 X52.278 Y72.055 E.03345
G1 X53.065 Y72.172 E.02495
G1 X54.141 Y72.394 E.03445
G1 X67.318 Y95.217 E.8263
G1 X67.081 Y95.952 E.02421
G1 X66.751 Y96.825 E.02926
G1 X66.443 Y97.537 E.02432
G1 X66.082 Y98.279 E.02587
G1 X65.711 Y98.962 E.02437
G1 X65.215 Y99.777 E.02991
G1 X64.438 Y100.879 E.04228
G1 E-3.5 F3600
;WIPE_START
G1 F7200
G1 X64.403 Y100.928 E-.0286
G1 X62.854 Y98.245 E-1.4714
;WIPE_END
G1 X55.021 Y82.589 F9000
G1 E5 F2400
;TYPE:Solid infill
G1 F1200
G1 X64.482 Y98.975 E.59326
G1 X64.822 Y98.413 E.02059
G1 X65.171 Y97.767 E.02302
G1 X65.514 Y97.059 E.02467
G1 X65.804 Y96.382 E.02309
G1 X66.181 Y95.335 E.03489
G1 X53.471 Y73.322 E.79699
G1 X52.882 Y73.201 E.01885
G1 X52.151 Y73.092 E.02317
G1 X51.217 Y73.002 E.02942
G1 X53.773 Y77.429 E.16028
G1 X54.015 Y77.88 E.01605
G1 X54.345 Y78.608 E.02506
G1 X54.683 Y79.607 E.03307
G1 X54.928 Y80.749 E.03662
G1 X55.035 Y82.098 E.04243
G1 X55.023 Y82.529 E.01352
G1 X55.023 Y82.529 F9000
G1 X55.402 Y82.494
G1 F1200
G1 X64.489 Y98.234 E.56986
G1 X64.831 Y97.603 E.0225
G1 X65.163 Y96.918 E.02387
G1 X65.44 Y96.276 E.02192
G1 X65.767 Y95.373 E.03011
G1 X53.229 Y73.657 E.78623
G1 X51.909 Y73.447 E.04191
G1 X54.1 Y77.24 E.13734
G1 X54.348 Y77.702 E.01644
G1 X54.708 Y78.504 E.02756
G1 X55.051 Y79.528 E.03386
G1 X55.297 Y80.67 E.03663
G1 X55.411 Y82.069 E.04401
G1 X55.403 Y82.434 E.01145
G1 X55.403 Y82.434 F9000
G1 X55.782 Y82.398
G1 F1200
G1 X64.479 Y97.462 E.54539
G1 X64.823 Y96.754 E.02468
G1 X65.093 Y96.127 E.0214
G1 X65.353 Y95.41 E.02391
G1 X55.935 Y79.098 E.59058
;WIDTH:0.431081
G1 X55.423 Y78.222 E.03275
G1 X54.995 Y77.433 E.02897
;WIDTH:0.383787
G1 X54.709 Y76.928 E.01645
;WIDTH:0.373285
G1 X53.002 Y73.972 E.09377
G1 X52.576 Y73.894 E.0119
G1 X54.406 Y77.063 E.10052
;WIDTH:0.381372
G1 X54.663 Y77.533 E.01508
;WIDTH:0.422828
G1 X55.033 Y78.297 E.02682
;WIDTH:0.431081
G1 X55.391 Y79.344 E.03571
;WIDTH:0.419999
G1 X55.683 Y80.715 E.04395
G1 X55.787 Y82.039 E.04164
G1 X55.783 Y82.338 E.00938
G1 X55.783 Y82.338 F9000
G1 X56.162 Y82.302
G1 F1200
G1 X64.451 Y96.659 E.51979
G1 X64.747 Y95.978 E.02328
G1 X64.939 Y95.447 E.0177
G1 X55.867 Y79.735 E.56886
G1 X56.059 Y80.686 E.03042
G1 X56.163 Y82.01 E.04164
G1 X56.162 Y82.242 E.00727
G1 X56.162 Y82.242 F9000
G1 X56.539 Y82.253
;WIDTH:0.368646
G1 F1200
G1 X64.407 Y95.88 E.42618
G1 X64.553 Y95.481 E.01151
G1 X56.475 Y81.49 E.43756
G1 X56.525 Y82.195 E.01914
M106 S255
;LAYER_CHANGE
;Z:0.3
;HEIGHT:0.1
;BEFORE_LAYER_CHANGE
G92 E0
;0.3


G1 E-3.5 F3600
;WIPE_START
G1 F7200
G1 X56.475 Y81.49 E-.33572
G1 X57.701 Y83.613 E-1.16428
;WIPE_END
G1 Z.3 F9000
;AFTER_LAYER_CHANGE
;0.3
M104 S210 ; set temperature
; stop printing object rotorcap-Part id:2 copy 0
G1 Z.3
G1 X64.389 Y79.752
G1 E5 F2400
;TYPE:Skirt/Brim
;WIDTH:0.42
G1 X71.886 Y92.737 E.24844
G1 X72.506 Y94.604 E.0326
G1 X72.328 Y96.605 E.03329
G1 X71.602 Y98.691 E.0366
G1 X70.652 Y100.753 E.03762
G1 X69.528 Y102.677 E.03692
G1 X68.199 Y104.516 E.0376
G1 X66.618 Y105.821 E.03397
G1 X53.381 Y112.694 E.24713
G1 X51.414 Y113.235 E.0338
G1 X49.586 Y113.278 E.0303
G1 X47.041 Y113.096 E.04228
G1 X44.53 Y112.633 E.04231
G1 X42.747 Y111.804 E.03258
G1 X41.427 Y110.323 E.03287
G1 X28.113 Y87.263 E.4412
G1 X27.493 Y85.396 E.0326
G1 X27.669 Y83.402 E.03317
G1 X28.397 Y81.308 E.03673
G1 X29.347 Y79.247 E.0376
G1 X30.471 Y77.322 E.03694
G1 X31.8 Y75.483 E.0376
G1 X33.381 Y74.178 E.03397
G1 X46.618 Y67.306 E.24712
G1 X48.585 Y66.764 E.03381
G1 X50.267 Y66.72 E.02788
G1 X52.957 Y66.904 E.04468
G1 X55.469 Y67.367 E.04232
G1 X57.252 Y68.197 E.03259
G1 X58.572 Y69.677 E.03286
G1 X64.359 Y79.7 E.19177
G1 X64.359 Y79.7 F9000
G1 X64.032 Y79.888
G1 F2400
G1 X71.559 Y92.926 E.24945
G1 X72.14 Y94.723 E.03129
G1 X71.974 Y96.473 E.02913
G1 X71.077 Y98.974 E.04402
G1 X70.211 Y100.781 E.0332
G1 X69.079 Y102.674 E.03655
G1 X67.903 Y104.282 E.03301
G1 X66.445 Y105.487 E.03134
G1 X53.207 Y112.359 E.24714
G1 X51.392 Y112.859 E.03119
G1 X49.589 Y112.901 E.02988
G1 X47.091 Y112.722 E.0415
G1 X44.617 Y112.266 E.04168
G1 X42.912 Y111.455 E.03128
G1 X41.753 Y110.134 E.02912
G1 X28.44 Y87.074 E.44119
G1 X27.859 Y85.277 E.03129
G1 X28.03 Y83.512 E.02938
G1 X28.922 Y81.026 E.04376
G1 X29.788 Y79.218 E.03322
G1 X30.92 Y77.326 E.03653
G1 X32.096 Y75.717 E.03302
G1 X33.554 Y74.513 E.03133
G1 X46.791 Y67.64 E.24713
G1 X48.607 Y67.141 E.03121
