; generated by PrusaSlicer 2.7.4 on 2024-08-18 at 13:27:11 UTC

; 

; external perimeters extrusion width = 0.42mm
; perimeters extrusion width = 0.44mm
; infill extrusion width = 0.44mm
; solid infill extrusion width = 0.44mm
; top infill extrusion width = 0.40mm
; support material extrusion width = 0.36mm
; first layer extrusion width = 0.42mm

; external perimeters extrusion width = 0.42mm
; perimeters extrusion width = 0.44mm
; infill extrusion width = 0.44mm
; solid infill extrusion width = 0.44mm
; top infill extrusion width = 0.40mm
; support material extrusion width = 0.36mm
; first layer extrusion width = 0.42mm

M201 X500 Y500 Z100 E5000 ; sets maximum accelerations, mm/sec^2
M203 X500 Y500 Z10 E60 ; sets maximum feedrates, mm / sec
M204 S500 T1000 ; sets acceleration (S) and retract acceleration (R), mm/sec^2
M205 X8.00 Y8.00 Z0.40 E5.00 ; sets the jerk limits, mm/sec
M205 S0 T0 ; sets the minimum extruding and travel feed rate, mm/sec

; printing object magretainer-Part id:1 copy 0
; stop printing object magretainer-Part id:1 copy 0
; printing object magcartrige-Part id:0 copy 0
; stop printing object magcartrige-Part id:0 copy 0

;TYPE:Custom
G90 ; use absolute coordinates
M83 ; extruder relative mode
M104 S150 ; set temporary nozzle temp to prevent oozing during homing
M140 S60 ; set final bed temp
G4 S30 ; allow partial nozzle warmup
G28 ; home all axis
G1 Z50 F240
G1 X2.0 Y10 F3000
M104 S215 ; set final nozzle temp
M190 S60 ; wait for bed temp to stabilize
M109 S215 ; wait for nozzle temp to stabilize
G1 Z0.28 F240
G92 E0
G1 X2.0 Y140 E10 F1500 ; prime the nozzle
G1 X2.3 Y140 F5000
G92 E0
G1 X2.3 Y10 E10 F1200 ; prime the nozzle
G92 E0
G21 ; set units to millimeters
G90 ; use absolute coordinates
M83 ; use relative distances for extrusion
; Filament gcode
M107
;LAYER_CHANGE
;Z:0.2
;HEIGHT:0.2
G1 E-5 F3600
G1 Z.2 F9000
G1 X75.767 Y116.507
G1 Z.2
G1 E5 F2400
M204 S500
;TYPE:Skirt/Brim
;WIDTH:0.42
G1 F1200
G1 X76.121 Y116.277 E.01324
G1 X78.911 Y114.851 E.09824
G1 X81.864 Y113.747 E.09885
G1 X84.976 Y112.978 E.10051
G1 X87.743 Y112.608 E.08753
G1 X140.487 Y111.119 E1.65441
G1 X142.979 Y111.269 E.07828
G1 X145.311 Y111.607 E.07388
G1 X147.743 Y112.172 E.07828
G1 X150.117 Y112.945 E.07828
G1 X151.787 Y113.63 E.0566
G1 X154.021 Y114.746 E.0783
G1 X156.032 Y115.973 E.07386
G1 X158.047 Y117.447 E.07828
G1 X159.421 Y118.619 E.05662
G1 X161.195 Y120.376 E.07829
G1 X162.811 Y122.279 E.07828
G1 X164.256 Y124.316 E.07831
G1 X165.453 Y126.345 E.07386
G1 X166.537 Y128.594 E.07828
G1 X167.423 Y130.928 E.07828
G1 X167.937 Y132.659 E.05662
G1 X168.442 Y134.96 E.07386
G1 X168.771 Y137.435 E.07828
G1 X168.885 Y139.93 E.07831
G1 X168.783 Y142.424 E.07826
G1 X168.575 Y144.218 E.05663
G1 X168.104 Y146.67 E.07829
G1 X167.467 Y148.938 E.07386
G1 X166.593 Y151.277 E.07829
G1 X165.836 Y152.916 E.05661
G1 X164.624 Y155.099 E.07829
G1 X163.228 Y157.169 E.07828
G1 X161.752 Y159.005 E.07386
G1 X160.522 Y160.327 E.05662
G1 X158.69 Y162.023 E.07828
G1 X156.718 Y163.555 E.0783
G1 X154.621 Y164.911 E.0783
G1 X151.659 Y166.428 E.10434
G1 X150.117 Y167.055 E.05219
G1 X147.878 Y167.79 E.07389
G1 X144.629 Y168.512 E.10436
G1 X142.839 Y168.745 E.0566
G1 X141.178 Y168.861 E.05221
G1 X139.518 Y168.881 E.05205
G1 X89.19 Y167.473 E1.57862
G1 X86.675 Y167.283 E.07908
G1 X83.604 Y166.73 E.09784
G1 X80.488 Y165.787 E.10208
G1 X77.51 Y164.483 E.10193
G1 X74.706 Y162.837 E.10195
G1 X72.117 Y160.871 E.10193
G1 X70.169 Y159.029 E.08406
G1 X68.128 Y156.645 E.0984
G1 X66.318 Y153.95 E.10179
G1 X65.07 Y151.568 E.08432
G1 X63.996 Y148.899 E.09021
G1 X63.282 Y146.449 E.08001
G1 X62.779 Y143.788 E.08491
G1 X62.53 Y140.904 E.09076
G1 X62.564 Y138.357 E.07987
G1 X62.84 Y135.792 E.08089
G1 X63.463 Y132.845 E.09444
G1 X64.236 Y130.426 E.07962
G1 X65.243 Y128.062 E.08057
G1 X66.707 Y125.41 E.09498
G1 X68.15 Y123.327 E.07945
G1 X69.805 Y121.357 E.08067
G1 X71.95 Y119.272 E.09379
G1 X73.935 Y117.698 E.07943
G1 X75.717 Y116.54 E.06663
G1 X75.717 Y116.54 F9000
G1 X75.927 Y116.874
G1 F1200
G1 X76.825 Y116.309 E.03327
G1 X79.277 Y115.104 E.08566
G1 X82.066 Y114.079 E.09317
G1 X85.048 Y113.348 E.09627
G1 X87.801 Y112.982 E.08708
G1 X140.476 Y111.496 E1.65224
G1 X142.806 Y111.631 E.07318
G1 X145.246 Y111.979 E.07728
G1 X147.646 Y112.537 E.07726
G1 X149.989 Y113.299 E.07725
G1 X151.629 Y113.972 E.05558
G1 X153.834 Y115.074 E.07729
G1 X155.935 Y116.361 E.07725
G1 X157.815 Y117.744 E.07318
G1 X159.164 Y118.895 E.0556
G1 X160.915 Y120.629 E.07727
G1 X162.51 Y122.507 E.07725
G1 X163.937 Y124.516 E.07726
G1 X165.123 Y126.527 E.0732
G1 X166.193 Y128.747 E.07727
G1 X167.067 Y131.051 E.07726
G1 X167.571 Y132.751 E.0556
G1 X168.094 Y135.159 E.07726
G1 X168.396 Y137.473 E.07317
G1 X168.508 Y139.935 E.07727
G1 X168.407 Y142.397 E.07726
G1 X168.203 Y144.158 E.05558
G1 X167.739 Y146.578 E.07726
G1 X167.067 Y148.949 E.07727
G1 X166.193 Y151.253 E.07726
G1 X165.184 Y153.359 E.07322
G1 X163.937 Y155.484 E.07725
G1 X162.928 Y156.942 E.05559
G1 X161.379 Y158.858 E.07725
G1 X159.765 Y160.544 E.07318
G1 X157.917 Y162.174 E.07726
G1 X155.935 Y163.639 E.07728
G1 X153.834 Y164.926 E.07725
G1 X150.875 Y166.352 E.10299
G1 X149.338 Y166.935 E.05154
G1 X147.646 Y167.463 E.05557
G1 X144.436 Y168.161 E.103
G1 X142.806 Y168.369 E.05152
G1 X140.476 Y168.504 E.07318
G1 X89.201 Y167.097 E1.6083
G1 X86.155 Y166.833 E.09586
G1 X83.566 Y166.333 E.08268
G1 X80.496 Y165.387 E.10072
G1 X77.561 Y164.086 E.10066
G1 X74.803 Y162.447 E.10059
G1 X72.262 Y160.499 E.10039
G1 X69.969 Y158.265 E.10038
G1 X67.955 Y155.775 E.10041
G1 X66.304 Y153.165 E.09683
G1 X65.185 Y150.911 E.0789
G1 X64.276 Y148.547 E.07941
G1 X63.494 Y145.683 E.09309
G1 X63.085 Y143.232 E.07791
G1 X62.901 Y140.667 E.08063
G1 X62.992 Y137.678 E.09376
G1 X63.321 Y135.197 E.07847
G1 X63.873 Y132.774 E.07792
G1 X64.639 Y130.427 E.07741
G1 X65.842 Y127.702 E.0934
G1 X67.075 Y125.533 E.07823
G1 X68.538 Y123.441 E.08004
G1 X70.485 Y121.185 E.09344
G1 X72.268 Y119.496 E.07701
G1 X74.369 Y117.853 E.08363
G1 X75.876 Y116.905 E.05582
G1 X75.876 Y116.905 F9000
G1 X76.069 Y117.219
G1 F1200
G1 X77.05 Y116.615 E.03612
G1 X79.424 Y115.451 E.0829
G1 X82.175 Y114.44 E.0919
G1 X85.121 Y113.718 E.0951
G1 X87.828 Y113.358 E.08562
G1 X140.465 Y111.873 E1.65105
G1 X142.892 Y112.018 E.07623
G1 X145.181 Y112.35 E.07252
G1 X147.549 Y112.901 E.07623
G1 X149.861 Y113.654 E.07624
G1 X151.508 Y114.331 E.05583
G1 X153.647 Y115.401 E.07499
G1 X155.72 Y116.671 E.07623
G1 X157.583 Y118.042 E.07253
G1 X158.907 Y119.171 E.05456
G1 X160.636 Y120.881 E.07625
G1 X162.21 Y122.735 E.07625
G1 X163.618 Y124.717 E.07623
G1 X164.793 Y126.709 E.07251
G1 X165.848 Y128.9 E.07625
G1 X166.71 Y131.173 E.07622
G1 X167.205 Y132.842 E.05458
G1 X167.721 Y135.218 E.07623
G1 X168.031 Y137.63 E.07625
G1 X168.131 Y139.94 E.0725
G1 X168.031 Y142.37 E.07626
G1 X167.831 Y144.099 E.05457
G1 X167.373 Y146.487 E.07624
G1 X166.71 Y148.827 E.07626
G1 X165.848 Y151.1 E.07622
G1 X164.793 Y153.291 E.07625
G1 X163.618 Y155.283 E.07251
G1 X162.627 Y156.714 E.05458
G1 X161.099 Y158.605 E.07623
G1 X159.5 Y160.276 E.07252
G1 X157.676 Y161.884 E.07624
G1 X155.72 Y163.329 E.07625
G1 X153.647 Y164.599 E.07623
G1 X150.727 Y166.006 E.10163
G1 X147.664 Y167.067 E.10164
G1 X144.499 Y167.769 E.10165
G1 X142.892 Y167.982 E.05083
G1 X141.156 Y168.107 E.05457
G1 X139.539 Y168.127 E.0507
G1 X89.211 Y166.72 E1.57862
G1 X86.775 Y166.536 E.0766
G1 X83.771 Y165.995 E.0957
G1 X80.741 Y165.076 E.09928
G1 X77.845 Y163.807 E.09914
G1 X75.118 Y162.205 E.09917
G1 X72.601 Y160.293 E.09911
G1 X70.326 Y158.096 E.09916
G1 X68.327 Y155.647 E.09912
G1 X66.631 Y152.978 E.09915
G1 X65.531 Y150.763 E.07754
G1 X64.634 Y148.431 E.07834
G1 X63.862 Y145.6 E.09201
G1 X63.459 Y143.187 E.07671
G1 X63.278 Y140.661 E.0794
G1 X63.368 Y137.706 E.09269
G1 X63.691 Y135.266 E.07717
G1 X64.248 Y132.833 E.07826
G1 X65.198 Y130.031 E.09277
G1 X66.217 Y127.797 E.07699
G1 X67.469 Y125.617 E.07882
G1 X69.188 Y123.225 E.09236
G1 X70.811 Y121.39 E.07681
G1 X72.711 Y119.614 E.08155
G1 X74.955 Y117.905 E.08844
G1 X76.018 Y117.25 E.03915
G1 X76.018 Y117.25 F9000
G1 X76.216 Y117.572
G1 F1200
G1 X77.266 Y116.927 E.03864
G1 X79.967 Y115.631 E.09393
G1 X82.481 Y114.742 E.08361
G1 X85.314 Y114.066 E.09132
G1 X88.286 Y113.702 E.09388
G1 X140.454 Y112.25 E1.63632
G1 X142.741 Y112.382 E.07183
G1 X145.116 Y112.722 E.07523
G1 X147.453 Y113.265 E.07523
G1 X149.733 Y114.009 E.0752
G1 X151.351 Y114.674 E.05485
G1 X153.46 Y115.728 E.07392
G1 X155.416 Y116.921 E.07184
G1 X157.351 Y118.339 E.07522
G1 X158.651 Y119.447 E.05356
G1 X160.356 Y121.134 E.0752
G1 X161.909 Y122.963 E.07523
G1 X163.298 Y124.918 E.07519
G1 X164.463 Y126.891 E.07184
G1 X165.504 Y129.053 E.07524
G1 X166.354 Y131.296 E.07521
G1 X167.007 Y133.605 E.07524
G1 X167.349 Y135.278 E.05354
G1 X167.655 Y137.657 E.07521
G1 X167.754 Y140.054 E.07522
G1 X167.645 Y142.451 E.07523
G1 X167.349 Y144.722 E.07181
G1 X166.839 Y147.066 E.07521
G1 X166.129 Y149.358 E.07523
G1 X165.487 Y150.984 E.05481
G1 X164.463 Y153.109 E.07396
G1 X163.24 Y155.172 E.0752
G1 X161.909 Y157.037 E.07184
G1 X160.356 Y158.866 E.07523
G1 X158.651 Y160.553 E.0752
G1 X156.806 Y162.087 E.07523
G1 X155.416 Y163.079 E.05354
G1 X153.365 Y164.324 E.07523
G1 X150.478 Y165.7 E.10028
G1 X147.453 Y166.735 E.10024
G1 X144.328 Y167.414 E.10027
G1 X142.741 Y167.618 E.05017
G1 X140.454 Y167.75 E.07183
G1 X89.222 Y166.343 E1.60695
G1 X86.255 Y166.085 E.09338
G1 X83.754 Y165.603 E.07986
G1 X80.769 Y164.684 E.09793
G1 X77.915 Y163.42 E.09787
G1 X75.233 Y161.828 E.09779
G1 X72.762 Y159.934 E.09762
G1 X70.531 Y157.762 E.09763
G1 X68.573 Y155.342 E.0976
G1 X66.913 Y152.708 E.09762
G1 X65.779 Y150.383 E.08111
G1 X64.821 Y147.78 E.08697
G1 X64.216 Y145.45 E.07548
G1 X63.827 Y143.08 E.0753
G1 X63.646 Y140.062 E.0948
G1 X63.751 Y137.654 E.07557
G1 X64.086 Y135.207 E.07744
G1 X64.773 Y132.377 E.09131
G1 X65.577 Y130.098 E.07577
G1 X66.614 Y127.85 E.07762
G1 X68.097 Y125.344 E.0913
G1 X69.528 Y123.404 E.07559
G1 X71.12 Y121.613 E.07513
G1 X72.967 Y119.891 E.07918
G1 X75.17 Y118.215 E.08679
G1 X76.165 Y117.603 E.03663
G1 X76.165 Y117.603 F9000
G1 X76.362 Y117.924
G1 F1200
G1 X77.446 Y117.258 E.03989
G1 X80.114 Y115.978 E.09278
G1 X82.588 Y115.104 E.08227
G1 X85.38 Y114.437 E.09
G1 X88.314 Y114.078 E.09268
G1 X140.443 Y112.627 E1.6351
G1 X142.709 Y112.758 E.07117
G1 X145.051 Y113.093 E.07418
G1 X147.356 Y113.63 E.07421
G1 X149.606 Y114.364 E.07421
G1 X151.193 Y115.016 E.05379
G1 X153.273 Y116.056 E.07291
G1 X155.291 Y117.292 E.0742
G1 X157.195 Y118.697 E.07419
G1 X158.9 Y120.194 E.07114
G1 X160.54 Y121.9 E.0742
G1 X162.026 Y123.742 E.07421
G1 X163.001 Y125.154 E.0538
G1 X164.179 Y127.159 E.07291
G1 X165.197 Y129.295 E.07419
G1 X166.028 Y131.511 E.07421
G1 X166.641 Y133.696 E.07115
G1 X166.993 Y135.438 E.05572
G1 X167.279 Y137.684 E.07099
G1 X167.377 Y140.049 E.07422
G1 X167.27 Y142.413 E.0742
G1 X166.977 Y144.663 E.07114
G1 X166.473 Y146.975 E.07419
G1 X165.772 Y149.235 E.07419
G1 X165.142 Y150.831 E.0538
G1 X164.133 Y152.926 E.07291
G1 X162.926 Y154.962 E.07421
G1 X161.549 Y156.886 E.07418
G1 X160.076 Y158.613 E.07117
G1 X158.9 Y159.806 E.05252
G1 X157.119 Y161.364 E.07419
G1 X155.21 Y162.763 E.07421
G1 X153.188 Y163.991 E.07417
G1 X150.34 Y165.349 E.09893
G1 X147.356 Y166.37 E.09889
G1 X144.274 Y167.041 E.0989
G1 X142.019 Y167.302 E.07118
G1 X140.443 Y167.373 E.04946
G1 X89.233 Y165.966 E1.60626
G1 X86.875 Y165.788 E.07414
G1 X83.848 Y165.238 E.09646
G1 X80.905 Y164.333 E.09654
G1 X78.092 Y163.087 E.09646
G1 X75.448 Y161.518 E.0964
G1 X73.012 Y159.652 E.09621
G1 X70.813 Y157.511 E.09623
G1 X68.881 Y155.126 E.09624
G1 X67.245 Y152.53 E.09621
G1 X66.224 Y150.465 E.07223
G1 X65.311 Y148.074 E.08025
G1 X64.598 Y145.434 E.08574
G1 X64.208 Y143.096 E.07432
G1 X64.032 Y140.648 E.07695
G1 X64.12 Y137.762 E.09053
G1 X64.433 Y135.404 E.07458
G1 X64.976 Y133.03 E.07636
G1 X65.901 Y130.304 E.09026
G1 X66.886 Y128.145 E.07441
G1 X68.101 Y126.029 E.07651
G1 X69.781 Y123.691 E.09027
G1 X71.351 Y121.917 E.07428
G1 X73.209 Y120.181 E.07973
G1 X75.385 Y118.524 E.08576
G1 X76.311 Y117.956 E.03406
G1 E-3.5 F3600
;WIPE_START
G1 F7200
G1 X76.362 Y117.924 E-.0286
G1 X77.446 Y117.258 E-.60432
G1 X79.092 Y116.468 E-.86708
;WIPE_END
; printing object magcartrige-Part id:0 copy 0
G1 X117.672 Y134.758 F9000
G1 E5 F2400
;TYPE:Perimeter
;WIDTH:0.419999
G1 F1200
G1 X118.012 Y133.474 E.04165
G1 X118.205 Y132.856 E.0203
G1 X118.658 Y131.6 E.04186
G1 X118.919 Y130.966 E.0215
G1 X119.46 Y129.794 E.04047
G1 X120.085 Y128.622 E.04165
G1 X120.435 Y128.032 E.02151
G1 X121.143 Y126.945 E.04067
G1 X121.519 Y126.418 E.0203
G1 X122.336 Y125.37 E.04166
G1 X123.209 Y124.377 E.04146
G1 X124.141 Y123.431 E.04164
G1 X124.644 Y122.964 E.02152
G1 X125.626 Y122.127 E.04046
G1 X126.68 Y121.329 E.04145
G1 X127.778 Y120.593 E.04145
G1 X128.921 Y119.918 E.04162
G1 X129.527 Y119.596 E.02152
G1 X130.691 Y119.039 E.04046
G1 X131.915 Y118.537 E.04148
G1 X133.17 Y118.105 E.04162
G1 X133.829 Y117.911 E.02154
G1 X135.08 Y117.598 E.04043
G1 X136.386 Y117.351 E.04167
G1 X137.065 Y117.253 E.02151
G1 X138.349 Y117.124 E.04046
G1 X139.672 Y117.067 E.04152
G1 X140.641 Y117.076 E.03038
G1 X141.649 Y117.124 E.03164
G1 X142.973 Y117.258 E.04173
G1 X143.651 Y117.357 E.02148
G1 X144.919 Y117.598 E.04047
G1 X146.209 Y117.921 E.0417
G1 X146.829 Y118.105 E.02028
G1 X148.085 Y118.537 E.04165
G1 X149.309 Y119.039 E.04148
G1 X150.506 Y119.612 E.04161
G1 X151.111 Y119.936 E.02152
G1 X152.222 Y120.592 E.04045
G1 X153.326 Y121.333 E.04169
G1 X153.847 Y121.716 E.02027
G1 X154.883 Y122.549 E.04168
G1 X155.863 Y123.435 E.04142
G1 X156.796 Y124.382 E.04168
G1 X157.23 Y124.862 E.02029
G1 X158.078 Y125.885 E.04166
G1 X158.861 Y126.95 E.04145
G1 X159.582 Y128.059 E.04147
G1 X160.24 Y129.213 E.04165
G1 X160.537 Y129.788 E.02029
G1 X161.096 Y131.001 E.04188
G1 X161.342 Y131.6 E.0203
G1 X161.795 Y132.856 E.04186
G1 X161.988 Y133.474 E.0203
G1 X162.328 Y134.758 E.04165
G1 X162.593 Y136.053 E.04145
G1 X162.784 Y137.369 E.04169
G1 X162.873 Y138.425 E.03323
G1 X162.926 Y139.526 E.03456
G1 X162.926 Y140.661 E.03559
G1 X162.849 Y141.988 E.04168
G1 X162.784 Y142.631 E.02026
G1 X162.592 Y143.953 E.04189
G1 X162.33 Y145.235 E.04103
G1 X161.989 Y146.519 E.04165
G1 X161.577 Y147.775 E.04145
G1 X161.091 Y149.012 E.04167
G1 X160.828 Y149.603 E.02028
G1 X160.237 Y150.793 E.04166
G1 X159.582 Y151.941 E.04144
G1 X158.857 Y153.056 E.0417
G1 X158.481 Y153.582 E.02027
G1 X157.664 Y154.63 E.04166
G1 X156.791 Y155.623 E.04146
G1 X155.859 Y156.569 E.04164
G1 X155.385 Y157.01 E.0203
G1 X154.374 Y157.873 E.04168
G1 X153.32 Y158.671 E.04145
G1 X152.217 Y159.411 E.04165
G1 X151.664 Y159.748 E.0203
G1 X150.501 Y160.39 E.04165
G1 X149.309 Y160.961 E.04144
G1 X148.085 Y161.463 E.04148
G1 X146.829 Y161.895 E.04165
G1 X146.209 Y162.079 E.02028
G1 X144.919 Y162.402 E.0417
G1 X143.614 Y162.649 E.04164
G1 X142.973 Y162.742 E.02031
G1 X141.644 Y162.877 E.04188
G1 X140.998 Y162.914 E.02029
G1 X139.663 Y162.933 E.04186
G1 X139.016 Y162.915 E.02029
G1 X137.683 Y162.818 E.04191
G1 X137.04 Y162.744 E.02029
G1 X135.721 Y162.533 E.04188
G1 X135.087 Y162.403 E.02029
G1 X133.798 Y162.081 E.04166
G1 X132.536 Y161.687 E.04145
G1 X131.299 Y161.221 E.04145
G1 X130.085 Y160.682 E.04165
G1 X129.505 Y160.394 E.0203
G1 X128.342 Y159.752 E.04165
G1 X127.218 Y159.043 E.04167
G1 X126.685 Y158.675 E.02031
G1 X125.626 Y157.873 E.04165
G1 X124.62 Y157.015 E.04146
G1 X123.666 Y156.101 E.04142
G1 X122.761 Y155.128 E.04166
G1 X122.341 Y154.635 E.02031
G1 X121.523 Y153.588 E.04166
G1 X120.767 Y152.495 E.04167
G1 X120.422 Y151.947 E.0203
G1 X119.763 Y150.793 E.04167
G1 X119.175 Y149.61 E.04142
G1 X118.656 Y148.394 E.04145
G1 X118.205 Y147.144 E.04167
G1 X118.012 Y146.526 E.0203
G1 X117.672 Y145.242 E.04165
G1 X117.407 Y143.947 E.04145
G1 X117.216 Y142.632 E.04166
G1 X117.148 Y141.949 E.02152
G1 X117.074 Y140.661 E.04045
G1 X117.074 Y139.339 E.04145
G1 X117.151 Y138.013 E.04165
G1 X117.221 Y137.331 E.0215
G1 X117.407 Y136.054 E.04046
G1 X117.66 Y134.817 E.03959
G1 X117.66 Y134.817 F9000
G1 X117.304 Y134.672
G1 F1200
