; generated by PrusaSlicer 2.7.4 on 2024-07-18 at 23:53:17 UTC

; 

; external perimeters extrusion width = 0.42mm
; perimeters extrusion width = 0.44mm
; infill extrusion width = 0.44mm
; solid infill extrusion width = 0.44mm
; top infill extrusion width = 0.40mm
; first layer extrusion width = 0.42mm

; external perimeters extrusion width = 0.42mm
; perimeters extrusion width = 0.44mm
; infill extrusion width = 0.44mm
; solid infill extrusion width = 0.44mm
; top infill extrusion width = 0.40mm
; first layer extrusion width = 0.42mm

M201 X500 Y500 Z100 E5000 ; sets maximum accelerations, mm/sec^2
M203 X500 Y500 Z10 E60 ; sets maximum feedrates, mm / sec
M204 S500 T1000 ; sets acceleration (S) and retract acceleration (R), mm/sec^2
M205 X8.00 Y8.00 Z0.40 E5.00 ; sets the jerk limits, mm/sec
M205 S0 T0 ; sets the minimum extruding and travel feed rate, mm/sec

; printing object magcartrige-Part id:0 copy 0
; stop printing object magcartrige-Part id:0 copy 0
; printing object magretainer-Part id:1 copy 0
; stop printing object magretainer-Part id:1 copy 0

;TYPE:Custom
G90 ; use absolute coordinates
M83 ; extruder relative mode
M104 S150 ; set temporary nozzle temp to prevent oozing during homing
M140 S60 ; set final bed temp
G4 S30 ; allow partial nozzle warmup
G28 ; home all axis
G1 Z50 F240
G1 X2.0 Y10 F3000
M104 S215 ; set final nozzle temp
M190 S60 ; wait for bed temp to stabilize
M109 S215 ; wait for nozzle temp to stabilize
G1 Z0.28 F240
G92 E0
G1 X2.0 Y140 E10 F1500 ; prime the nozzle
G1 X2.3 Y140 F5000
G92 E0
G1 X2.3 Y10 E10 F1200 ; prime the nozzle
G92 E0
G21 ; set units to millimeters
G90 ; use absolute coordinates
M83 ; use relative distances for extrusion
; Filament gcode
M107
;LAYER_CHANGE
;Z:0.2
;HEIGHT:0.2
G1 E-5 F3600
G1 Z.2 F9000
G1 X73.575 Y92.987
G1 Z.2
G1 E5 F2400
M204 S500
;TYPE:Skirt/Brim
;WIDTH:0.42
G1 F1200
G1 X73.976 Y92.669 E.01605
G1 X76.095 Y91.292 E.07924
G1 X78.958 Y89.83 E.10079
G1 X81.843 Y88.754 E.09654
G1 X84.419 Y88.088 E.08342
G1 X87.635 Y87.617 E.10191
G1 X140.487 Y86.119 E1.6578
G1 X142.979 Y86.269 E.07828
G1 X145.311 Y86.607 E.07388
G1 X147.743 Y87.172 E.07828
G1 X150.117 Y87.945 E.07828
G1 X151.787 Y88.63 E.0566
G1 X154.021 Y89.746 E.0783
G1 X156.032 Y90.973 E.07386
G1 X158.047 Y92.447 E.07828
G1 X159.421 Y93.619 E.05662
G1 X161.195 Y95.376 E.07829
G1 X162.811 Y97.279 E.07828
G1 X164.256 Y99.316 E.07831
G1 X165.453 Y101.345 E.07386
G1 X166.537 Y103.594 E.07828
G1 X167.423 Y105.928 E.07828
G1 X167.937 Y107.659 E.05662
G1 X168.442 Y109.96 E.07386
G1 X168.771 Y112.435 E.07828
G1 X168.885 Y114.93 E.07831
G1 X168.783 Y117.424 E.07826
G1 X168.575 Y119.218 E.05663
G1 X168.104 Y121.67 E.07829
G1 X167.467 Y123.938 E.07386
G1 X166.593 Y126.277 E.07829
G1 X165.836 Y127.916 E.05661
G1 X164.624 Y130.099 E.07829
G1 X163.228 Y132.169 E.07828
G1 X161.752 Y134.005 E.07386
G1 X160.522 Y135.327 E.05662
G1 X158.69 Y137.023 E.07828
G1 X156.718 Y138.555 E.0783
G1 X154.621 Y139.911 E.0783
G1 X151.659 Y141.428 E.10434
G1 X150.117 Y142.055 E.05219
G1 X147.878 Y142.79 E.07389
G1 X144.629 Y143.512 E.10436
G1 X142.839 Y143.745 E.0566
G1 X141.178 Y143.861 E.05221
G1 X139.518 Y143.881 E.05205
G1 X89.196 Y142.474 E1.57843
G1 X86.704 Y142.287 E.07835
G1 X83.522 Y141.711 E.10139
G1 X80.428 Y140.765 E.10144
G1 X77.466 Y139.461 E.10147
G1 X74.737 Y137.857 E.09925
G1 X72.115 Y135.87 E.10315
G1 X69.855 Y133.697 E.0983
G1 X68.051 Y131.543 E.08809
G1 X66.257 Y128.846 E.10156
G1 X64.939 Y126.284 E.09034
G1 X63.951 Y123.769 E.08472
G1 X63.264 Y121.374 E.07812
G1 X62.744 Y118.528 E.09071
G1 X62.529 Y115.88 E.0833
G1 X62.567 Y113.311 E.08056
G1 X62.841 Y110.783 E.07973
G1 X63.464 Y107.841 E.09429
G1 X64.236 Y105.426 E.0795
G1 X65.248 Y103.052 E.08092
G1 X66.702 Y100.419 E.09431
G1 X68.164 Y98.307 E.08054
G1 X69.804 Y96.358 E.07987
G1 X71.962 Y94.262 E.09432
G1 X73.528 Y93.024 E.06259
G1 X73.528 Y93.024 F9000
G1 X73.768 Y93.339
G1 F1200
G1 X74.749 Y92.589 E.03872
G1 X76.85 Y91.295 E.07737
G1 X79.188 Y90.142 E.08174
G1 X82.11 Y89.065 E.09764
G1 X85.065 Y88.346 E.09536
G1 X87.663 Y87.993 E.08221
G1 X140.476 Y86.496 E1.65658
G1 X142.806 Y86.631 E.07318
G1 X145.246 Y86.979 E.07728
G1 X147.646 Y87.537 E.07726
G1 X149.989 Y88.299 E.07725
G1 X151.629 Y88.972 E.05558
G1 X153.834 Y90.074 E.07729
G1 X155.935 Y91.361 E.07725
G1 X157.815 Y92.744 E.07318
G1 X159.164 Y93.895 E.0556
G1 X160.915 Y95.629 E.07727
G1 X162.51 Y97.507 E.07725
G1 X163.937 Y99.516 E.07726
G1 X165.123 Y101.527 E.0732
G1 X166.193 Y103.747 E.07727
G1 X167.067 Y106.051 E.07726
G1 X167.571 Y107.751 E.0556
G1 X168.094 Y110.159 E.07726
G1 X168.396 Y112.473 E.07317
G1 X168.508 Y114.935 E.07727
G1 X168.407 Y117.397 E.07726
G1 X168.203 Y119.158 E.05558
G1 X167.739 Y121.578 E.07726
G1 X167.067 Y123.949 E.07727
G1 X166.193 Y126.253 E.07726
G1 X165.184 Y128.359 E.07322
G1 X163.937 Y130.484 E.07725
G1 X162.928 Y131.942 E.05559
G1 X161.379 Y133.858 E.07725
G1 X159.765 Y135.544 E.07318
G1 X157.917 Y137.174 E.07726
G1 X155.935 Y138.639 E.07728
G1 X153.834 Y139.926 E.07725
G1 X150.875 Y141.352 E.10299
G1 X149.338 Y141.935 E.05154
G1 X147.646 Y142.463 E.05557
G1 X144.436 Y143.161 E.103
G1 X142.806 Y143.369 E.05152
G1 X140.476 Y143.504 E.07318
G1 X89.206 Y142.097 E1.60814
G1 X86.073 Y141.822 E.09861
G1 X84.392 Y141.522 E.05354
G1 X82.841 Y141.146 E.05004
G1 X79.897 Y140.155 E.0974
G1 X76.999 Y138.787 E.10048
G1 X74.774 Y137.428 E.08175
G1 X72.261 Y135.498 E.09935
G1 X69.972 Y133.269 E.10018
G1 X67.962 Y130.785 E.10019
G1 X66.313 Y128.182 E.09661
G1 X65.175 Y125.889 E.08026
G1 X64.283 Y123.571 E.07787
G1 X63.529 Y120.836 E.08895
G1 X63.088 Y118.252 E.08219
G1 X62.902 Y115.736 E.0791
G1 X62.993 Y112.664 E.09636
G1 X63.325 Y110.172 E.07883
G1 X63.874 Y107.771 E.07722
G1 X64.846 Y104.896 E.09516
G1 X65.875 Y102.637 E.07783
G1 X67.147 Y100.421 E.08011
G1 X68.882 Y98.005 E.09326
G1 X70.537 Y96.131 E.07839
G1 X72.387 Y94.394 E.07957
G1 X73.721 Y93.375 E.05263
G1 X73.721 Y93.375 F9000
G1 X73.949 Y93.675
G1 F1200
G1 X74.966 Y92.898 E.04013
G1 X77.085 Y91.596 E.07798
G1 X79.731 Y90.321 E.09209
G1 X82.219 Y89.426 E.0829
G1 X85.013 Y88.74 E.09021
G1 X87.691 Y88.369 E.08477
G1 X140.465 Y86.873 E1.65536
G1 X142.892 Y87.018 E.07623
G1 X145.181 Y87.35 E.07252
G1 X147.549 Y87.901 E.07623
G1 X149.861 Y88.654 E.07624
G1 X151.508 Y89.331 E.05583
G1 X153.647 Y90.401 E.07499
G1 X155.72 Y91.671 E.07623
G1 X157.583 Y93.042 E.07253
G1 X158.907 Y94.171 E.05456
G1 X160.636 Y95.881 E.07625
G1 X162.21 Y97.735 E.07625
G1 X163.618 Y99.717 E.07623
G1 X164.793 Y101.709 E.07251
G1 X165.848 Y103.9 E.07625
G1 X166.71 Y106.173 E.07622
G1 X167.205 Y107.842 E.05458
G1 X167.721 Y110.218 E.07623
G1 X168.031 Y112.63 E.07625
G1 X168.131 Y114.94 E.0725
G1 X168.031 Y117.37 E.07626
G1 X167.831 Y119.099 E.05457
G1 X167.373 Y121.487 E.07624
G1 X166.71 Y123.827 E.07626
G1 X165.848 Y126.1 E.07622
G1 X164.793 Y128.291 E.07625
G1 X163.618 Y130.283 E.07251
G1 X162.627 Y131.714 E.05458
G1 X161.099 Y133.605 E.07623
G1 X159.5 Y135.276 E.07252
G1 X157.676 Y136.884 E.07624
G1 X155.72 Y138.329 E.07625
G1 X153.647 Y139.599 E.07623
G1 X152.207 Y140.344 E.05083
G1 X150.616 Y141.051 E.05459
G1 X147.549 Y142.099 E.10162
G1 X144.382 Y142.788 E.10162
G1 X142.774 Y142.994 E.05083
G1 X140.465 Y143.127 E.07252
G1 X89.217 Y141.72 E1.60745
G1 X86.123 Y141.448 E.09738
G1 X82.943 Y140.783 E.10186
G1 X80.033 Y139.803 E.09628
G1 X77.176 Y138.454 E.09906
G1 X74.967 Y137.103 E.08119
G1 X72.508 Y135.213 E.09724
G1 X70.25 Y133.014 E.09882
G1 X68.267 Y130.564 E.09883
G1 X66.586 Y127.898 E.09882
G1 X65.488 Y125.662 E.0781
G1 X64.51 Y123.046 E.08757
G1 X63.848 Y120.535 E.08142
G1 X63.449 Y118.094 E.07755
G1 X63.271 Y115.157 E.09226
G1 X63.369 Y112.692 E.07735
G1 X63.696 Y110.242 E.0775
G1 X64.253 Y107.818 E.07798
G1 X65.197 Y105.032 E.09223
G1 X66.21 Y102.81 E.07657
G1 X67.463 Y100.627 E.07892
G1 X69.178 Y98.238 E.09221
G1 X70.807 Y96.394 E.07715
G1 X72.629 Y94.683 E.07837
G1 X73.902 Y93.711 E.05022
G1 X73.902 Y93.711 F9000
G1 X74.13 Y94.01
G1 F1200
G1 X75.181 Y93.208 E.04145
G1 X77.269 Y91.925 E.07684
G1 X79.878 Y90.669 E.09079
G1 X82.397 Y89.767 E.08389
G1 X85.306 Y89.067 E.09381
G1 X88.156 Y88.712 E.09005
G1 X140.454 Y87.25 E1.64041
G1 X142.741 Y87.382 E.07183
G1 X145.116 Y87.722 E.07523
G1 X147.453 Y88.265 E.07523
G1 X149.733 Y89.009 E.0752
G1 X151.351 Y89.674 E.05485
G1 X153.46 Y90.728 E.07392
G1 X155.416 Y91.921 E.07184
G1 X157.351 Y93.339 E.07522
G1 X158.651 Y94.447 E.05356
G1 X160.356 Y96.134 E.0752
G1 X161.909 Y97.963 E.07523
G1 X163.298 Y99.918 E.07519
G1 X164.463 Y101.891 E.07184
G1 X165.504 Y104.053 E.07524
G1 X166.354 Y106.296 E.07521
G1 X167.007 Y108.605 E.07524
G1 X167.349 Y110.278 E.05354
G1 X167.655 Y112.657 E.07521
G1 X167.754 Y115.054 E.07522
G1 X167.645 Y117.451 E.07523
G1 X167.349 Y119.722 E.07181
G1 X166.839 Y122.066 E.07521
G1 X166.129 Y124.358 E.07523
G1 X165.487 Y125.984 E.05481
G1 X164.463 Y128.109 E.07396
G1 X163.24 Y130.172 E.0752
G1 X161.909 Y132.037 E.07184
G1 X160.356 Y133.866 E.07523
G1 X158.651 Y135.553 E.0752
G1 X156.806 Y137.087 E.07523
G1 X155.416 Y138.079 E.05354
G1 X153.365 Y139.324 E.07523
G1 X150.478 Y140.7 E.10028
G1 X147.453 Y141.735 E.10024
G1 X144.328 Y142.414 E.10027
G1 X142.741 Y142.618 E.05017
G1 X140.454 Y142.75 E.07183
G1 X89.227 Y141.343 E1.60679
G1 X86.173 Y141.075 E.09612
G1 X83.044 Y140.42 E.10023
G1 X80.17 Y139.452 E.09509
G1 X77.353 Y138.121 E.09769
G1 X75.183 Y136.793 E.07977
G1 X72.754 Y134.928 E.09602
G1 X70.509 Y132.737 E.09836
G1 X68.554 Y130.316 E.09757
G1 X66.898 Y127.682 E.09755
G1 X65.835 Y125.515 E.07568
G1 X64.865 Y122.919 E.08689
G1 X64.207 Y120.408 E.08139
G1 X63.824 Y118.055 E.07475
G1 X63.646 Y115.052 E.09432
G1 X63.754 Y112.619 E.07636
G1 X64.088 Y110.199 E.0766
G1 X64.774 Y107.373 E.09118
G1 X65.576 Y105.101 E.07554
G1 X66.611 Y102.857 E.07748
G1 X68.091 Y100.354 E.09117
G1 X69.529 Y98.402 E.07602
G1 X71.105 Y96.629 E.07438
G1 X72.871 Y94.972 E.07593
G1 X74.083 Y94.047 E.0478
G1 X74.083 Y94.047 F9000
G1 X74.299 Y94.338
G1 F1200
G1 X75.489 Y93.454 E.04648
G1 X77.498 Y92.229 E.07378
G1 X80.036 Y91.011 E.08827
G1 X82.502 Y90.129 E.08212
G1 X85.377 Y89.438 E.09271
G1 X88.325 Y89.078 E.09312
G1 X140.443 Y87.627 E1.63476
G1 X142.709 Y87.758 E.07117
G1 X145.051 Y88.093 E.07418
G1 X147.356 Y88.63 E.07421
G1 X149.606 Y89.364 E.07421
G1 X151.193 Y90.016 E.05379
G1 X153.273 Y91.056 E.07291
G1 X155.291 Y92.292 E.0742
G1 X157.195 Y93.697 E.07419
G1 X158.9 Y95.194 E.07114
G1 X160.54 Y96.9 E.0742
G1 X162.026 Y98.742 E.07421
G1 X163.001 Y100.154 E.0538
G1 X164.179 Y102.159 E.07291
G1 X165.197 Y104.295 E.07419
G1 X166.028 Y106.511 E.07421
G1 X166.641 Y108.696 E.07115
G1 X166.993 Y110.438 E.05572
G1 X167.279 Y112.684 E.07099
G1 X167.377 Y115.049 E.07422
G1 X167.27 Y117.413 E.0742
G1 X166.977 Y119.663 E.07114
G1 X166.473 Y121.975 E.07419
G1 X165.772 Y124.235 E.07419
G1 X165.142 Y125.831 E.0538
G1 X164.133 Y127.926 E.07291
G1 X162.926 Y129.962 E.07421
G1 X161.549 Y131.886 E.07418
G1 X160.076 Y133.613 E.07117
G1 X158.9 Y134.806 E.05252
G1 X157.119 Y136.364 E.07419
G1 X155.21 Y137.763 E.07421
G1 X153.188 Y138.991 E.07417
G1 X150.34 Y140.349 E.09893
G1 X147.356 Y141.37 E.09889
G1 X144.274 Y142.041 E.0989
G1 X142.019 Y142.302 E.07118
G1 X140.443 Y142.373 E.04946
G1 X89.238 Y140.966 E1.6061
G1 X86.79 Y140.777 E.07698
G1 X83.888 Y140.248 E.09249
G1 X80.96 Y139.353 E.096
G1 X78.132 Y138.108 E.09688
G1 X75.46 Y136.526 E.09736
G1 X73.001 Y134.642 E.09713
G1 X70.806 Y132.504 E.09607
G1 X68.861 Y130.098 E.09701
G1 X67.207 Y127.461 E.0976
G1 X66.015 Y124.972 E.08653
G1 X65.159 Y122.598 E.07913
G1 X64.563 Y120.269 E.07538
G1 X64.152 Y117.57 E.0856
G1 X64.023 Y115.046 E.07924
G1 X64.129 Y112.657 E.07498
G1 X64.458 Y110.271 E.07552
G1 X65.136 Y107.478 E.09012
G1 X65.924 Y105.245 E.07425
G1 X66.944 Y103.034 E.07635
G1 X68.407 Y100.56 E.09012
G1 X69.822 Y98.641 E.07476
G1 X71.431 Y96.835 E.07584
G1 X73.551 Y94.895 E.0901
G1 X74.251 Y94.374 E.02736
G1 E-3.5 F3600
;WIPE_START
G1 F7200
G1 X74.299 Y94.338 E-.0285
G1 X75.489 Y93.454 E-.70415
G1 X76.868 Y92.613 E-.76735
;WIPE_END
; printing object magcartrige-Part id:0 copy 0
G1 X117.672 Y109.758 F9000
G1 E5 F2400
;TYPE:Perimeter
;WIDTH:0.419999
G1 F1200
G1 X118.012 Y108.474 E.04165
G1 X118.205 Y107.856 E.0203
G1 X118.658 Y106.6 E.04186
G1 X118.919 Y105.966 E.0215
G1 X119.46 Y104.794 E.04047
G1 X120.085 Y103.622 E.04165
G1 X120.435 Y103.032 E.02151
G1 X121.143 Y101.945 E.04067
G1 X121.519 Y101.418 E.0203
G1 X122.336 Y100.37 E.04166
G1 X123.209 Y99.377 E.04146
G1 X124.141 Y98.431 E.04164
G1 X124.644 Y97.964 E.02152
G1 X125.626 Y97.127 E.04046
G1 X126.68 Y96.329 E.04145
G1 X127.778 Y95.593 E.04145
G1 X128.921 Y94.918 E.04162
G1 X129.527 Y94.596 E.02152
G1 X130.691 Y94.039 E.04046
G1 X131.915 Y93.537 E.04148
G1 X133.17 Y93.105 E.04162
G1 X133.829 Y92.911 E.02154
G1 X135.08 Y92.598 E.04043
G1 X136.386 Y92.351 E.04167
G1 X137.065 Y92.253 E.02151
G1 X138.349 Y92.124 E.04046
G1 X139.672 Y92.067 E.04152
G1 X140.641 Y92.076 E.03038
G1 X141.649 Y92.124 E.03164
G1 X142.973 Y92.258 E.04173
G1 X143.651 Y92.357 E.02148
G1 X144.919 Y92.598 E.04047
G1 X146.209 Y92.921 E.0417
G1 X146.829 Y93.105 E.02028
G1 X148.085 Y93.537 E.04165
G1 X149.309 Y94.039 E.04148
G1 X150.506 Y94.612 E.04161
G1 X151.111 Y94.936 E.02152
G1 X152.222 Y95.592 E.04045
G1 X153.326 Y96.333 E.04169
G1 X153.847 Y96.716 E.02027
G1 X154.883 Y97.549 E.04168
G1 X155.863 Y98.435 E.04142
G1 X156.796 Y99.382 E.04168
G1 X157.23 Y99.862 E.02029
G1 X158.078 Y100.885 E.04166
G1 X158.861 Y101.95 E.04145
G1 X159.582 Y103.059 E.04147
G1 X160.24 Y104.213 E.04165
G1 X160.537 Y104.788 E.02029
G1 X161.096 Y106.001 E.04188
G1 X161.342 Y106.6 E.0203
G1 X161.795 Y107.856 E.04186
G1 X161.988 Y108.474 E.0203
G1 X162.328 Y109.758 E.04165
G1 X162.593 Y111.053 E.04145
G1 X162.784 Y112.369 E.04169
G1 X162.849 Y113.012 E.02026
G1 X162.926 Y114.489 E.04637
G1 X162.926 Y115.661 E.03675
G1 X162.849 Y116.988 E.04168
G1 X162.784 Y117.631 E.02026
G1 X162.592 Y118.953 E.04189
G1 X162.33 Y120.235 E.04103
G1 X161.989 Y121.519 E.04165
G1 X161.577 Y122.775 E.04145
G1 X161.091 Y124.012 E.04167
G1 X160.828 Y124.603 E.02028
G1 X160.237 Y125.793 E.04166
G1 X159.582 Y126.941 E.04144
G1 X158.857 Y128.056 E.0417
G1 X158.481 Y128.582 E.02027
G1 X157.664 Y129.63 E.04166
G1 X156.791 Y130.623 E.04146
G1 X155.859 Y131.569 E.04164
G1 X155.385 Y132.01 E.0203
G1 X154.374 Y132.873 E.04168
G1 X153.32 Y133.671 E.04145
G1 X152.217 Y134.411 E.04165
G1 X151.664 Y134.748 E.0203
G1 X150.501 Y135.39 E.04165
G1 X149.309 Y135.961 E.04144
G1 X148.085 Y136.463 E.04148
G1 X146.829 Y136.895 E.04165
G1 X146.209 Y137.079 E.02028
G1 X144.919 Y137.402 E.0417
G1 X143.614 Y137.649 E.04164
G1 X142.973 Y137.742 E.02031
G1 X141.644 Y137.877 E.04188
G1 X140.998 Y137.914 E.02029
G1 X139.663 Y137.933 E.04186
G1 X139.016 Y137.915 E.02029
G1 X137.683 Y137.818 E.04191
G1 X137.04 Y137.744 E.02029
G1 X135.721 Y137.533 E.04188
G1 X135.087 Y137.403 E.02029
G1 X133.798 Y137.081 E.04166
G1 X132.536 Y136.687 E.04145
G1 X131.299 Y136.221 E.04145
G1 X130.085 Y135.682 E.04165
G1 X129.505 Y135.394 E.0203
G1 X128.342 Y134.752 E.04165
G1 X127.218 Y134.043 E.04167
G1 X126.685 Y133.675 E.02031
G1 X125.626 Y132.873 E.04165
G1 X124.62 Y132.015 E.04146
G1 X123.666 Y131.101 E.04142
G1 X122.761 Y130.128 E.04166
G1 X122.341 Y129.635 E.02031
G1 X121.523 Y128.588 E.04166
G1 X120.767 Y127.495 E.04167
G1 X120.422 Y126.947 E.0203
G1 X119.763 Y125.793 E.04167
G1 X119.175 Y124.61 E.04142
G1 X118.656 Y123.394 E.04145
G1 X118.205 Y122.144 E.04167
G1 X118.012 Y121.526 E.0203
G1 X117.672 Y120.242 E.04165
G1 X117.407 Y118.947 E.04145
G1 X117.216 Y117.632 E.04166
G1 X117.148 Y116.949 E.02152
G1 X117.074 Y115.661 E.04045
G1 X117.074 Y114.339 E.04145
G1 X117.151 Y113.013 E.04165
G1 X117.221 Y112.331 E.0215
G1 X117.407 Y111.054 E.04046
G1 X117.66 Y109.817 E.03959
G1 X117.66 Y109.817 F9000
G1 X117.304 Y109.672
G1 F1200
G1 X117.65 Y108.369 E.04227
G1 X117.848 Y107.736 E.0208
G1 X118.306 Y106.464 E.04239
G1 X118.573 Y105.815 E.022
G1 X119.123 Y104.626 E.04108
G1 X119.757 Y103.438 E.04222
G1 X120.115 Y102.833 E.02204
