; generated by PrusaSlicer 2.7.4 on 2024-08-18 at 14:57:26 UTC

; 

; external perimeters extrusion width = 0.42mm
; perimeters extrusion width = 0.44mm
; infill extrusion width = 0.44mm
; solid infill extrusion width = 0.44mm
; top infill extrusion width = 0.40mm
; support material extrusion width = 0.36mm
; first layer extrusion width = 0.42mm

M201 X500 Y500 Z100 E5000 ; sets maximum accelerations, mm/sec^2
M203 X500 Y500 Z10 E60 ; sets maximum feedrates, mm / sec
M204 S500 T1000 ; sets acceleration (S) and retract acceleration (R), mm/sec^2
M205 X8.00 Y8.00 Z0.40 E5.00 ; sets the jerk limits, mm/sec
M205 S0 T0 ; sets the minimum extruding and travel feed rate, mm/sec

; printing object magcartrige-Part id:0 copy 0
; stop printing object magcartrige-Part id:0 copy 0

;TYPE:Custom
G90 ; use absolute coordinates
M83 ; extruder relative mode
M104 S150 ; set temporary nozzle temp to prevent oozing during homing
M140 S60 ; set final bed temp
G4 S30 ; allow partial nozzle warmup
G28 ; home all axis
G1 Z50 F240
G1 X2.0 Y10 F3000
M104 S215 ; set final nozzle temp
M190 S60 ; wait for bed temp to stabilize
M109 S215 ; wait for nozzle temp to stabilize
G1 Z0.28 F240
G92 E0
G1 X2.0 Y140 E10 F1500 ; prime the nozzle
G1 X2.3 Y140 F5000
G92 E0
G1 X2.3 Y10 E10 F1200 ; prime the nozzle
G92 E0
G21 ; set units to millimeters
G90 ; use absolute coordinates
M83 ; use relative distances for extrusion
; Filament gcode
M107
;LAYER_CHANGE
;Z:0.2
;HEIGHT:0.2
G1 E-5 F3600
G1 Z.2 F9000
G1 X119.971 Y119.187
G1 Z.2
G1 E5 F2400
M204 S500
;TYPE:Skirt/Brim
;WIDTH:0.42
G1 F1200
G1 X121.953 Y117.447 E.08269
G1 X124.548 Y115.596 E.09994
G1 X126.838 Y114.288 E.08269
G1 X129.751 Y112.994 E.09994
G1 X132.257 Y112.172 E.08269
G1 X135.371 Y111.488 E.09996
G1 X137.991 Y111.185 E.0827
G1 X140.487 Y111.119 E.07829
G1 X142.979 Y111.269 E.07828
G1 X146.127 Y111.772 E.09996
G1 X148.676 Y112.449 E.08269
G1 X151.659 Y113.573 E.09995
G1 X154.021 Y114.746 E.08269
G1 X156.718 Y116.445 E.09994
G1 X158.797 Y118.068 E.0827
G1 X160.621 Y119.773 E.07829
G1 X162.724 Y122.168 E.09993
G1 X164.256 Y124.316 E.08272
G1 X165.52 Y126.469 E.07828
G1 X166.855 Y129.363 E.09993
G1 X167.713 Y131.857 E.0827
G1 X168.442 Y134.96 E.09994
G1 X168.783 Y137.576 E.08272
G1 X168.875 Y140.762 E.09994
G1 X168.685 Y143.393 E.08271
G1 X168.137 Y146.533 E.09994
G1 X167.423 Y149.072 E.0827
G1 X166.521 Y151.443 E.07954
G1 X165.119 Y154.261 E.09869
G1 X163.714 Y156.493 E.08269
G1 X161.752 Y159.005 E.09994
G1 X159.928 Y160.91 E.08269
G1 X157.502 Y162.979 E.09997
G1 X155.452 Y164.404 E.07828
G1 X153.162 Y165.712 E.08269
G1 X150.249 Y167.006 E.09994
G1 X147.743 Y167.828 E.08269
G1 X144.629 Y168.512 E.09996
G1 X142.15 Y168.805 E.07827
G1 X139.513 Y168.881 E.08272
G1 X137.021 Y168.731 E.07828
G1 X133.873 Y168.228 E.09996
G1 X131.324 Y167.551 E.08269
G1 X128.341 Y166.428 E.09994
G1 X125.979 Y165.254 E.0827
G1 X123.282 Y163.555 E.09994
G1 X121.203 Y161.932 E.0827
G1 X119.309 Y160.153 E.08147
G1 X117.276 Y157.832 E.09674
G1 X115.744 Y155.685 E.0827
G1 X114.164 Y152.916 E.09996
G1 X113.093 Y150.506 E.08269
G1 X112.1 Y147.477 E.09995
G1 X111.534 Y144.901 E.0827
G1 X111.214 Y142.384 E.07955
G1 X111.125 Y139.238 E.09868
G1 X111.315 Y136.608 E.08268
G1 X111.737 Y134.044 E.08147
G1 X112.533 Y131.062 E.09677
G1 X113.462 Y128.594 E.08268
G1 X114.547 Y126.345 E.07829
G1 X116.206 Y123.623 E.09995
G1 X117.799 Y121.521 E.08269
G1 X119.93 Y119.231 E.09808
G1 X119.93 Y119.231 F9000
G1 X120.206 Y119.495
G1 F1200
G1 X120.329 Y119.366 E.00559
G1 X122.217 Y117.719 E.07856
G1 X124.753 Y115.912 E.09764
G1 X127.006 Y114.626 E.08134
G1 X129.889 Y113.345 E.09892
G1 X132.354 Y112.537 E.08133
G1 X135.436 Y111.86 E.09894
G1 X138.012 Y111.561 E.08131
G1 X140.476 Y111.496 E.07728
G1 X143.623 Y111.723 E.09893
G1 X146.178 Y112.17 E.08133
G1 X148.558 Y112.807 E.07725
G1 X151.511 Y113.919 E.09894
G1 X153.834 Y115.074 E.08134
G1 X155.968 Y116.384 E.07851
G1 X158.449 Y118.267 E.09766
G1 X160.348 Y120.034 E.08133
G1 X162.43 Y122.405 E.09893
G1 X163.937 Y124.516 E.08132
G1 X165.184 Y126.641 E.07725
G1 X166.506 Y129.506 E.09893
G1 X167.35 Y131.959 E.08134
G1 X168.071 Y135.031 E.09894
G1 X168.407 Y137.603 E.08133
G1 X168.498 Y140.757 E.09893
G1 X168.311 Y143.344 E.08133
G1 X167.917 Y145.776 E.07725
G1 X167.107 Y148.826 E.09895
G1 X166.193 Y151.253 E.08131
G1 X165.123 Y153.473 E.07727
G1 X163.48 Y156.167 E.09894
G1 X161.914 Y158.234 E.08131
G1 X159.765 Y160.544 E.09892
G1 X157.815 Y162.256 E.08136
G1 X155.247 Y164.088 E.09891
G1 X152.994 Y165.374 E.08134
G1 X150.111 Y166.655 E.09892
G1 X147.646 Y167.463 E.08133
G1 X144.564 Y168.14 E.09894
G1 X142.117 Y168.429 E.07726
G1 X139.524 Y168.504 E.08134
G1 X137.064 Y168.356 E.07727
G1 X133.949 Y167.858 E.09891
G1 X131.442 Y167.193 E.08132
G1 X128.489 Y166.081 E.09894
G1 X126.28 Y164.989 E.07726
G1 X124.065 Y163.639 E.08133
G1 X121.551 Y161.733 E.09892
G1 X119.652 Y159.966 E.08133
G1 X117.57 Y157.595 E.09893
G1 X116.063 Y155.484 E.08132
G1 X114.797 Y153.322 E.07855
G1 X113.494 Y150.494 E.09763
G1 X112.65 Y148.041 E.08134
G1 X111.929 Y144.969 E.09894
G1 X111.593 Y142.397 E.08133
G1 X111.502 Y139.243 E.09893
G1 X111.689 Y136.656 E.08133
G1 X112.232 Y133.548 E.09893
G1 X112.933 Y131.051 E.08132
G1 X113.824 Y128.71 E.07854
G1 X115.211 Y125.921 E.09766
G1 X116.593 Y123.726 E.08133
G1 X118.535 Y121.239 E.09894
G1 X120.164 Y119.539 E.07382
G1 X120.164 Y119.539 F9000
G1 X120.436 Y119.799
G1 F1200
G1 X120.586 Y119.642 E.00681
G1 X122.417 Y118.042 E.07624
G1 X124.959 Y116.228 E.09792
G1 X127.173 Y114.963 E.07995
G1 X130.027 Y113.696 E.09791
G1 X132.451 Y112.901 E.07999
G1 X135.501 Y112.231 E.09791
G1 X138.034 Y111.938 E.07995
G1 X140.465 Y111.873 E.07625
G1 X143.478 Y112.086 E.09471
G1 X145.975 Y112.511 E.07942
G1 X148.441 Y113.165 E.07999
G1 X151.363 Y114.266 E.09791
G1 X153.647 Y115.401 E.07997
G1 X156.289 Y117.065 E.0979
G1 X158.299 Y118.635 E.07997
G1 X160.076 Y120.295 E.07625
G1 X162.136 Y122.641 E.09789
G1 X163.618 Y124.717 E.07998
G1 X165.166 Y127.429 E.09791
G1 X166.201 Y129.76 E.07997
G1 X166.998 Y132.1 E.07751
G1 X167.701 Y135.101 E.09664
G1 X168.031 Y137.63 E.07997
G1 X168.121 Y140.751 E.0979
G1 X167.951 Y143.177 E.07625
G1 X167.548 Y145.695 E.07995
G1 X166.747 Y148.713 E.0979
G1 X165.848 Y151.1 E.07997
G1 X164.793 Y153.291 E.07625
G1 X163.167 Y155.957 E.09791
G1 X161.627 Y157.99 E.07997
G1 X159.5 Y160.276 E.0979
G1 X157.583 Y161.958 E.07996
G1 X155.041 Y163.772 E.09792
G1 X152.826 Y165.037 E.07998
G1 X149.973 Y166.304 E.09788
G1 X147.549 Y167.099 E.07999
G1 X144.499 Y167.769 E.09791
G1 X142.085 Y168.054 E.07621
G1 X139.535 Y168.127 E.07999
G1 X137.108 Y167.982 E.07623
G1 X134.025 Y167.489 E.09789
G1 X131.559 Y166.835 E.07999
G1 X128.637 Y165.734 E.09791
G1 X126.353 Y164.599 E.07997
G1 X123.795 Y162.993 E.0947
G1 X121.791 Y161.443 E.07944
G1 X119.924 Y159.705 E.07998
G1 X117.864 Y157.359 E.09789
G1 X116.382 Y155.283 E.07998
G1 X115.132 Y153.15 E.07752
G1 X113.843 Y150.351 E.09662
G1 X113.013 Y147.939 E.07998
G1 X112.299 Y144.899 E.09791
G1 X111.969 Y142.37 E.07997
G1 X111.879 Y139.249 E.0979
G1 X112.063 Y136.705 E.07997
G1 X112.6 Y133.629 E.0979
G1 X113.29 Y131.173 E.07999
G1 X114.168 Y128.863 E.07748
G1 X115.541 Y126.103 E.09665
G1 X116.9 Y123.945 E.07996
G1 X118.822 Y121.484 E.09791
G1 X120.394 Y119.842 E.07127
G1 X120.394 Y119.842 F9000
G1 X120.668 Y120.097
G1 F1200
G1 X120.765 Y119.993 E.00446
G1 X122.649 Y118.339 E.07861
G1 X125.164 Y116.544 E.09688
G1 X127.341 Y115.301 E.0786
G1 X130.165 Y114.047 E.09688
G1 X132.547 Y113.265 E.07861
G1 X135.565 Y112.603 E.09688
G1 X138.056 Y112.314 E.07863
G1 X140.454 Y112.25 E.07521
G1 X143.435 Y112.461 E.0937
G1 X145.9 Y112.881 E.0784
G1 X148.323 Y113.524 E.0786
G1 X151.215 Y114.613 E.09689
G1 X153.46 Y115.728 E.07859
G1 X155.539 Y117.005 E.0765
G1 X157.968 Y118.848 E.0956
G1 X159.804 Y120.556 E.07862
G1 X161.842 Y122.877 E.09685
G1 X163.298 Y124.918 E.07861
G1 X164.514 Y126.987 E.07525
G1 X165.808 Y129.792 E.09686
G1 X166.624 Y132.163 E.07862
G1 X167.331 Y135.171 E.09688
G1 X167.655 Y137.657 E.07861
G1 X167.744 Y140.746 E.09689
G1 X167.576 Y143.139 E.07522
G1 X167.18 Y145.615 E.07862
G1 X166.387 Y148.601 E.09687
G1 X165.504 Y150.947 E.07859
G1 X164.129 Y153.714 E.09688
G1 X162.793 Y155.836 E.07862
G1 X161.34 Y157.745 E.07522
G1 X159.235 Y160.007 E.09688
G1 X157.351 Y161.661 E.07861
G1 X154.836 Y163.456 E.09688
G1 X152.659 Y164.699 E.0786
G1 X149.835 Y165.953 E.09688
G1 X147.453 Y166.735 E.07861
G1 X144.435 Y167.397 E.09688
G1 X142.052 Y167.678 E.07523
G1 X139.546 Y167.75 E.07861
G1 X136.464 Y167.528 E.09688
G1 X133.994 Y167.096 E.07862
G1 X131.677 Y166.476 E.0752
G1 X128.785 Y165.387 E.09689
G1 X126.635 Y164.324 E.0752
G1 X124.494 Y163.018 E.07863
G1 X122.032 Y161.152 E.09686
G1 X120.196 Y159.444 E.07862
G1 X118.158 Y157.123 E.09685
G1 X116.702 Y155.082 E.07861
G1 X115.468 Y152.977 E.07651
G1 X114.192 Y150.208 E.09559
G1 X113.376 Y147.837 E.07862
G1 X112.67 Y144.829 E.09688
G1 X112.345 Y142.343 E.07861
G1 X112.256 Y139.254 E.09689
G1 X112.437 Y136.754 E.07859
G1 X112.82 Y134.386 E.07521
G1 X113.613 Y131.399 E.0969
G1 X114.496 Y129.053 E.07859
G1 X115.537 Y126.891 E.07524
G1 X117.146 Y124.253 E.09688
G1 X118.66 Y122.255 E.0786
G1 X120.627 Y120.141 E.09054
G1 X120.627 Y120.141 F9000
G1 X120.902 Y120.398
G1 F1200
G1 X121.03 Y120.261 E.00588
G1 X122.881 Y118.636 E.07723
G1 X125.37 Y116.86 E.09587
G1 X127.509 Y115.639 E.07722
G1 X129.697 Y114.636 E.07547
G1 X132.551 Y113.656 E.09461
G1 X134.949 Y113.093 E.07723
G1 X137.981 Y112.698 E.09587
G1 X140.443 Y112.627 E.07723
G1 X143.391 Y112.835 E.09266
G1 X145.824 Y113.25 E.07739
G1 X148.206 Y113.882 E.07727
G1 X151.067 Y114.96 E.09586
G1 X153.273 Y116.056 E.07723
G1 X155.291 Y117.292 E.0742
G1 X157.728 Y119.138 E.09586
G1 X159.531 Y120.816 E.07723
G1 X161.549 Y123.114 E.09589
G1 X162.979 Y125.119 E.07722
G1 X164.179 Y127.159 E.07421
G1 X165.46 Y129.935 E.09586
G1 X166.261 Y132.265 E.07725
G1 X166.96 Y135.241 E.09585
G1 X167.279 Y137.684 E.07725
G1 X167.367 Y140.74 E.09586
G1 X167.189 Y143.198 E.07727
G1 X166.812 Y145.534 E.07419
G1 X166.028 Y148.489 E.09586
G1 X165.159 Y150.794 E.07724
G1 X163.799 Y153.532 E.09586
G1 X162.541 Y155.537 E.07421
G1 X161.053 Y157.5 E.07723
G1 X158.97 Y159.739 E.09588
G1 X157.119 Y161.364 E.07723
G1 X154.63 Y163.14 E.09587
G1 X152.491 Y164.361 E.07722
G1 X149.697 Y165.602 E.09586
G1 X147.356 Y166.37 E.07725
G1 X144.37 Y167.026 E.09586
G1 X142.019 Y167.302 E.07422
G1 X139.557 Y167.373 E.07723
G1 X136.507 Y167.153 E.09588
G1 X134.081 Y166.729 E.07722
G1 X131.794 Y166.118 E.07422
G1 X128.933 Y165.04 E.09586
G1 X126.727 Y163.944 E.07723
G1 X124.224 Y162.373 E.09266
G1 X122.272 Y160.862 E.0774
G1 X120.469 Y159.184 E.07723
G1 X118.451 Y156.886 E.09589
G1 X117.021 Y154.881 E.07722
G1 X115.803 Y152.805 E.07547
G1 X114.54 Y150.065 E.0946
G1 X113.739 Y147.735 E.07725
G1 X113.04 Y144.759 E.09585
G1 X112.721 Y142.316 E.07725
G1 X112.633 Y139.26 E.09586
G1 X112.811 Y136.803 E.07724
G1 X113.197 Y134.427 E.07547
G1 X113.973 Y131.511 E.09461
G1 X114.841 Y129.206 E.07723
G1 X116.201 Y126.468 E.09586
G1 X117.514 Y124.383 E.07726
G1 X119.013 Y122.422 E.07739
G1 X120.862 Y120.442 E.08494
G1 E-3.5 F3600
;WIPE_START
G1 F7200
G1 X120.902 Y120.398 E-.02825
G1 X121.03 Y120.261 E-.08906
G1 X122.881 Y118.636 E-1.16997
G1 X123.245 Y118.376 E-.21272
;WIPE_END
; printing object magcartrige-Part id:0 copy 0
G1 X124.141 Y123.431 F9000
G1 E5 F2400
;TYPE:Perimeter
;WIDTH:0.419999
G1 F1200
G1 X124.644 Y122.964 E.02152
G1 X125.626 Y122.127 E.04046
G1 X126.68 Y121.329 E.04145
G1 X127.778 Y120.593 E.04145
G1 X128.921 Y119.918 E.04162
G1 X129.527 Y119.596 E.02152
G1 X130.691 Y119.039 E.04046
G1 X131.915 Y118.537 E.04148
G1 X133.17 Y118.105 E.04162
G1 X133.829 Y117.911 E.02154
G1 X135.08 Y117.598 E.04043
G1 X136.386 Y117.351 E.04167
G1 X137.065 Y117.253 E.02151
G1 X138.349 Y117.124 E.04046
G1 X139.672 Y117.067 E.04152
G1 X140.641 Y117.076 E.03038
G1 X141.649 Y117.124 E.03164
G1 X142.973 Y117.258 E.04173
G1 X143.651 Y117.357 E.02148
G1 X144.919 Y117.598 E.04047
G1 X146.209 Y117.921 E.0417
G1 X146.829 Y118.105 E.02028
G1 X148.085 Y118.537 E.04165
G1 X149.309 Y119.039 E.04148
G1 X150.506 Y119.612 E.04161
G1 X151.111 Y119.936 E.02152
G1 X152.222 Y120.592 E.04045
G1 X153.326 Y121.333 E.04169
G1 X153.847 Y121.716 E.02027
G1 X154.883 Y122.549 E.04168
G1 X155.863 Y123.435 E.04142
G1 X156.796 Y124.382 E.04168
G1 X157.23 Y124.862 E.02029
G1 X158.078 Y125.885 E.04166
G1 X158.861 Y126.95 E.04145
G1 X159.582 Y128.059 E.04147
G1 X160.24 Y129.213 E.04165
G1 X160.537 Y129.788 E.02029
G1 X161.096 Y131.001 E.04188
G1 X161.342 Y131.6 E.0203
G1 X161.795 Y132.856 E.04186
G1 X161.988 Y133.474 E.0203
G1 X162.328 Y134.758 E.04165
G1 X162.593 Y136.053 E.04145
G1 X162.784 Y137.369 E.04169
G1 X162.849 Y138.012 E.02026
G1 X162.926 Y139.369 E.04262
G1 X162.926 Y140.661 E.04051
G1 X162.849 Y141.988 E.04168
G1 X162.784 Y142.631 E.02026
G1 X162.592 Y143.953 E.04189
G1 X162.33 Y145.235 E.04103
G1 X161.989 Y146.519 E.04165
G1 X161.577 Y147.775 E.04145
G1 X161.091 Y149.012 E.04167
G1 X160.828 Y149.603 E.02028
G1 X160.237 Y150.793 E.04166
G1 X159.582 Y151.941 E.04144
G1 X158.857 Y153.056 E.0417
G1 X158.481 Y153.582 E.02027
G1 X157.664 Y154.63 E.04166
G1 X156.791 Y155.623 E.04146
G1 X155.859 Y156.569 E.04164
G1 X155.385 Y157.01 E.0203
G1 X154.374 Y157.873 E.04168
G1 X153.32 Y158.671 E.04145
G1 X152.217 Y159.411 E.04165
G1 X151.664 Y159.748 E.0203
G1 X150.501 Y160.39 E.04165
G1 X149.309 Y160.961 E.04144
G1 X148.085 Y161.463 E.04148
G1 X146.829 Y161.895 E.04165
G1 X146.209 Y162.079 E.02028
G1 X144.919 Y162.402 E.0417
G1 X143.614 Y162.649 E.04164
G1 X142.973 Y162.742 E.02031
G1 X141.644 Y162.877 E.04188
G1 X140.998 Y162.914 E.02029
G1 X139.663 Y162.933 E.04186
G1 X139.016 Y162.915 E.02029
G1 X137.683 Y162.818 E.04191
G1 X137.04 Y162.744 E.02029
G1 X135.721 Y162.533 E.04188
G1 X135.087 Y162.403 E.02029
G1 X133.798 Y162.081 E.04166
G1 X132.536 Y161.687 E.04145
G1 X131.299 Y161.221 E.04145
G1 X130.085 Y160.682 E.04165
G1 X129.505 Y160.394 E.0203
G1 X128.342 Y159.752 E.04165
G1 X127.218 Y159.043 E.04167
G1 X126.685 Y158.675 E.02031
G1 X125.626 Y157.873 E.04165
G1 X124.62 Y157.015 E.04146
G1 X123.666 Y156.101 E.04142
G1 X122.761 Y155.128 E.04166
G1 X122.341 Y154.635 E.02031
G1 X121.523 Y153.588 E.04166
G1 X120.767 Y152.495 E.04167
G1 X120.422 Y151.947 E.0203
G1 X119.763 Y150.793 E.04167
G1 X119.175 Y149.61 E.04142
G1 X118.656 Y148.394 E.04145
G1 X118.205 Y147.144 E.04167
G1 X118.012 Y146.526 E.0203
G1 X117.672 Y145.242 E.04165
G1 X117.407 Y143.947 E.04145
G1 X117.216 Y142.632 E.04166
G1 X117.148 Y141.949 E.02152
G1 X117.074 Y140.661 E.04045
G1 X117.074 Y139.339 E.04145
G1 X117.151 Y138.013 E.04165
G1 X117.221 Y137.331 E.0215
G1 X117.407 Y136.054 E.04046
G1 X117.672 Y134.758 E.04148
G1 X118.012 Y133.474 E.04165
G1 X118.205 Y132.856 E.0203
G1 X118.658 Y131.6 E.04186
G1 X118.919 Y130.966 E.0215
G1 X119.46 Y129.794 E.04047
G1 X120.085 Y128.622 E.04165
G1 X120.435 Y128.032 E.02151
G1 X121.143 Y126.945 E.04067
G1 X121.519 Y126.418 E.0203
G1 X122.336 Y125.37 E.04166
G1 X123.209 Y124.377 E.04146
G1 X124.099 Y123.474 E.03975
G1 X124.099 Y123.474 F9000
G1 X123.878 Y123.16
G1 F1200
G1 X124.393 Y122.683 E.02201
G1 X125.39 Y121.833 E.04108
G1 X126.461 Y121.022 E.04212
G1 X127.577 Y120.273 E.04214
G1 X128.737 Y119.589 E.04222
G1 X129.357 Y119.259 E.02202
G1 X130.538 Y118.694 E.04105
G1 X131.782 Y118.184 E.04216
G1 X133.056 Y117.746 E.04224
G1 X133.73 Y117.547 E.02203
G1 X135 Y117.23 E.04104
G1 X136.324 Y116.979 E.04225
G1 X137.019 Y116.879 E.02202
G1 X138.322 Y116.748 E.04106
G1 X139.666 Y116.69 E.04218
G1 X140.652 Y116.699 E.03092
G1 X141.677 Y116.748 E.03217
G1 X143.019 Y116.884 E.04229
G1 X143.714 Y116.985 E.02202
G1 X145 Y117.23 E.04105
G1 X146.308 Y117.557 E.04227
G1 X146.944 Y117.745 E.02079
G1 X148.218 Y118.184 E.04225
G1 X149.462 Y118.694 E.04216
G1 X150.677 Y119.276 E.04224
G1 X151.296 Y119.607 E.02201
G1 X152.423 Y120.273 E.04105
G1 X153.543 Y121.024 E.04228
G1 X154.077 Y121.417 E.02079
G1 X155.128 Y122.262 E.04228
G1 X156.124 Y123.163 E.04211
