; generated by PrusaSlicer 2.7.4 on 2024-08-17 at 19:17:38 UTC

; 

; external perimeters extrusion width = 0.42mm
; perimeters extrusion width = 0.44mm
; infill extrusion width = 0.44mm
; solid infill extrusion width = 0.44mm
; top infill extrusion width = 0.40mm
; support material extrusion width = 0.36mm
; first layer extrusion width = 0.42mm

; external perimeters extrusion width = 0.42mm
; perimeters extrusion width = 0.44mm
; infill extrusion width = 0.44mm
; solid infill extrusion width = 0.44mm
; top infill extrusion width = 0.40mm
; support material extrusion width = 0.36mm
; first layer extrusion width = 0.42mm

M201 X500 Y500 Z100 E5000 ; sets maximum accelerations, mm/sec^2
M203 X500 Y500 Z10 E60 ; sets maximum feedrates, mm / sec
M204 S500 T1000 ; sets acceleration (S) and retract acceleration (R), mm/sec^2
M205 X8.00 Y8.00 Z0.40 E5.00 ; sets the jerk limits, mm/sec
M205 S0 T0 ; sets the minimum extruding and travel feed rate, mm/sec

; printing object magretainer-Part id:1 copy 0
; stop printing object magretainer-Part id:1 copy 0
; printing object magcartrige-Part id:0 copy 0
; stop printing object magcartrige-Part id:0 copy 0

;TYPE:Custom
G90 ; use absolute coordinates
M83 ; extruder relative mode
M104 S150 ; set temporary nozzle temp to prevent oozing during homing
M140 S60 ; set final bed temp
G4 S30 ; allow partial nozzle warmup
G28 ; home all axis
G1 Z50 F240
G1 X2.0 Y10 F3000
M104 S215 ; set final nozzle temp
M190 S60 ; wait for bed temp to stabilize
M109 S215 ; wait for nozzle temp to stabilize
G1 Z0.28 F240
G92 E0
G1 X2.0 Y140 E10 F1500 ; prime the nozzle
G1 X2.3 Y140 F5000
G92 E0
G1 X2.3 Y10 E10 F1200 ; prime the nozzle
G92 E0
G21 ; set units to millimeters
G90 ; use absolute coordinates
M83 ; use relative distances for extrusion
; Filament gcode
M107
;LAYER_CHANGE
;Z:0.2
;HEIGHT:0.2
G1 E-5 F3600
G1 Z.2 F9000
G1 X74.33 Y117.439
G1 Z.2
G1 E5 F2400
M204 S500
;TYPE:Skirt/Brim
;WIDTH:0.42
G1 F1200
G1 X76.583 Y116.013 E.0836
G1 X79.084 Y114.776 E.08748
G1 X81.94 Y113.723 E.09544
G1 X84.958 Y112.982 E.09744
G1 X87.754 Y112.607 E.08845
G1 X140.487 Y111.119 E1.65406
G1 X142.979 Y111.269 E.07828
G1 X145.311 Y111.607 E.07388
G1 X147.743 Y112.172 E.07828
G1 X150.117 Y112.945 E.07828
G1 X151.787 Y113.63 E.0566
G1 X154.021 Y114.746 E.0783
G1 X156.032 Y115.973 E.07386
G1 X158.047 Y117.447 E.07828
G1 X159.421 Y118.619 E.05662
G1 X161.195 Y120.376 E.07829
G1 X162.811 Y122.279 E.07828
G1 X164.256 Y124.316 E.07831
G1 X165.453 Y126.345 E.07386
G1 X166.537 Y128.594 E.07828
G1 X167.423 Y130.928 E.07828
G1 X167.937 Y132.659 E.05662
G1 X168.442 Y134.96 E.07386
G1 X168.771 Y137.435 E.07828
G1 X168.885 Y139.93 E.07831
G1 X168.783 Y142.424 E.07826
G1 X168.575 Y144.218 E.05663
G1 X168.104 Y146.67 E.07829
G1 X167.423 Y149.072 E.07828
G1 X166.538 Y151.406 E.07827
G1 X165.52 Y153.531 E.07388
G1 X164.256 Y155.684 E.07828
G1 X163.228 Y157.169 E.05663
G1 X161.659 Y159.111 E.07828
G1 X159.928 Y160.91 E.07828
G1 X158.157 Y162.465 E.0739
G1 X156.149 Y163.949 E.07829
G1 X154.021 Y165.254 E.07827
G1 X152.543 Y166.02 E.0522
G1 X150.892 Y166.753 E.05664
G1 X147.743 Y167.828 E.10433
G1 X144.49 Y168.534 E.10437
G1 X142.839 Y168.745 E.05219
G1 X140.487 Y168.881 E.07387
G1 X89.194 Y167.474 E1.60886
G1 X86.015 Y167.195 E.10006
G1 X82.828 Y166.533 E.10206
G1 X79.742 Y165.499 E.10205
G1 X76.808 Y164.112 E.10175
G1 X74.53 Y162.717 E.08375
G1 X72.039 Y160.805 E.09846
G1 X69.711 Y158.542 E.1018
G1 X67.666 Y156.02 E.1018
G1 X65.985 Y153.368 E.09845
G1 X64.86 Y151.109 E.07913
G1 X63.886 Y148.568 E.08532
G1 X63.131 Y145.785 E.09041
G1 X62.712 Y143.291 E.07929
G1 X62.522 Y140.585 E.08505
G1 X62.615 Y137.664 E.09163
G1 X62.946 Y135.151 E.07947
G1 X63.508 Y132.68 E.07946
G1 X64.284 Y130.299 E.07852
G1 X65.5 Y127.543 E.09445
G1 X66.745 Y125.35 E.07907
G1 X68.237 Y123.214 E.08169
G1 X70.204 Y120.933 E.09444
G1 X72.03 Y119.203 E.07887
G1 X74.062 Y117.608 E.081
G1 X74.279 Y117.471 E.00805
G1 X74.279 Y117.471 F9000
G1 X74.481 Y117.789
G1 F1200
G1 X76.804 Y116.321 E.08616
G1 X79.259 Y115.111 E.08582
G1 X82.049 Y114.084 E.09322
G1 X85.03 Y113.352 E.09624
G1 X87.782 Y112.983 E.08706
G1 X140.476 Y111.496 E1.65284
G1 X142.806 Y111.631 E.07318
G1 X145.246 Y111.979 E.07728
G1 X147.646 Y112.537 E.07726
G1 X149.989 Y113.299 E.07725
G1 X151.629 Y113.972 E.05558
G1 X153.834 Y115.074 E.07729
G1 X155.935 Y116.361 E.07725
G1 X157.815 Y117.744 E.07318
G1 X159.164 Y118.895 E.0556
G1 X160.915 Y120.629 E.07727
G1 X162.51 Y122.507 E.07725
G1 X163.937 Y124.516 E.07726
G1 X165.123 Y126.527 E.0732
G1 X166.193 Y128.747 E.07727
G1 X167.067 Y131.051 E.07726
G1 X167.571 Y132.751 E.0556
G1 X168.094 Y135.159 E.07726
G1 X168.396 Y137.473 E.07317
G1 X168.508 Y139.935 E.07727
G1 X168.407 Y142.397 E.07726
G1 X168.203 Y144.158 E.05558
G1 X167.739 Y146.578 E.07726
G1 X167.067 Y148.949 E.07727
G1 X166.193 Y151.253 E.07726
G1 X165.184 Y153.359 E.07322
G1 X163.937 Y155.484 E.07725
G1 X162.928 Y156.942 E.05559
G1 X161.379 Y158.858 E.07725
G1 X159.765 Y160.544 E.07318
G1 X157.917 Y162.174 E.07726
G1 X155.935 Y163.639 E.07728
G1 X153.834 Y164.926 E.07725
G1 X150.875 Y166.352 E.10299
G1 X149.338 Y166.935 E.05154
G1 X147.646 Y167.463 E.05557
G1 X144.436 Y168.161 E.103
G1 X142.806 Y168.369 E.05152
G1 X140.476 Y168.504 E.07318
G1 X89.204 Y167.097 E1.6082
G1 X86.066 Y166.821 E.09877
G1 X82.922 Y166.168 E.10068
G1 X79.879 Y165.147 E.10064
G1 X76.985 Y163.779 E.10037
G1 X74.734 Y162.4 E.08277
G1 X72.288 Y160.522 E.09669
G1 X69.992 Y158.29 E.1004
G1 X67.974 Y155.803 E.10042
G1 X66.285 Y153.133 E.09906
G1 X65.183 Y150.906 E.07791
G1 X64.244 Y148.451 E.08241
G1 X63.498 Y145.701 E.08934
G1 X63.087 Y143.245 E.07808
G1 X62.899 Y140.578 E.08383
G1 X62.991 Y137.692 E.09053
G1 X63.317 Y135.219 E.07821
G1 X63.882 Y132.744 E.0796
G1 X64.843 Y129.903 E.09404
G1 X65.838 Y127.71 E.07551
G1 X67.063 Y125.552 E.0778
G1 X68.533 Y123.448 E.08048
G1 X70.479 Y121.192 E.09342
G1 X72.276 Y119.488 E.07765
G1 X74.279 Y117.917 E.07982
G1 X74.43 Y117.821 E.00561
G1 X74.43 Y117.821 F9000
G1 X74.665 Y118.129
G1 F1200
G1 X74.984 Y117.885 E.01259
G1 X77.039 Y116.621 E.07565
G1 X79.406 Y115.458 E.08269
G1 X82.25 Y114.417 E.09496
G1 X85.134 Y113.716 E.09306
G1 X87.81 Y113.359 E.08465
G1 X140.465 Y111.873 E1.65162
G1 X142.892 Y112.018 E.07623
G1 X145.181 Y112.35 E.07252
G1 X147.549 Y112.901 E.07623
G1 X149.861 Y113.654 E.07624
G1 X151.508 Y114.331 E.05583
G1 X153.647 Y115.401 E.07499
G1 X155.72 Y116.671 E.07623
G1 X157.583 Y118.042 E.07253
G1 X158.907 Y119.171 E.05456
G1 X160.636 Y120.881 E.07625
G1 X162.21 Y122.735 E.07625
G1 X163.618 Y124.717 E.07623
G1 X164.793 Y126.709 E.07251
G1 X165.848 Y128.9 E.07625
G1 X166.71 Y131.173 E.07622
G1 X167.205 Y132.842 E.05458
G1 X167.721 Y135.218 E.07623
G1 X168.031 Y137.63 E.07625
G1 X168.131 Y139.94 E.0725
G1 X168.031 Y142.37 E.07626
G1 X167.831 Y144.099 E.05457
G1 X167.373 Y146.487 E.07624
G1 X166.71 Y148.827 E.07626
G1 X165.848 Y151.1 E.07622
G1 X164.793 Y153.291 E.07625
G1 X163.618 Y155.283 E.07251
G1 X162.627 Y156.714 E.05458
G1 X161.099 Y158.605 E.07623
G1 X159.5 Y160.276 E.07252
G1 X157.676 Y161.884 E.07624
G1 X155.72 Y163.329 E.07625
G1 X153.647 Y164.599 E.07623
G1 X150.727 Y166.006 E.10163
G1 X147.664 Y167.067 E.10164
G1 X144.499 Y167.769 E.10165
G1 X142.892 Y167.982 E.05083
G1 X141.156 Y168.107 E.05457
G1 X139.539 Y168.127 E.0507
G1 X89.215 Y166.72 E1.57849
G1 X86.741 Y166.531 E.0778
G1 X83.671 Y165.971 E.09785
G1 X80.648 Y165.042 E.09916
G1 X77.763 Y163.766 E.09891
G1 X75.046 Y162.157 E.09901
G1 X72.537 Y160.239 E.09902
G1 X70.272 Y158.038 E.09903
G1 X68.295 Y155.603 E.09834
G1 X66.615 Y152.95 E.09846
G1 X65.529 Y150.757 E.07673
G1 X64.603 Y148.335 E.0813
G1 X63.866 Y145.618 E.08827
G1 X63.461 Y143.199 E.0769
G1 X63.276 Y140.57 E.08263
G1 X63.367 Y137.719 E.08944
G1 X63.688 Y135.287 E.07692
G1 X64.249 Y132.829 E.07905
G1 X65.194 Y130.039 E.09236
G1 X66.207 Y127.816 E.0766
G1 X67.464 Y125.624 E.07923
G1 X69.183 Y123.232 E.09236
G1 X70.822 Y121.379 E.07757
G1 X72.625 Y119.687 E.07753
G1 X74.617 Y118.166 E.07858
G1 X74.617 Y118.166 F9000
G1 X74.846 Y118.465
G1 F1200
G1 X75.2 Y118.195 E.01396
G1 X77.252 Y116.935 E.0755
G1 X79.95 Y115.638 E.09386
G1 X82.459 Y114.749 E.08346
G1 X85.298 Y114.069 E.09153
G1 X88.267 Y113.704 E.09379
G1 X140.454 Y112.25 E1.63692
G1 X142.741 Y112.382 E.07183
G1 X145.116 Y112.722 E.07523
G1 X147.453 Y113.265 E.07523
G1 X149.733 Y114.009 E.0752
G1 X151.351 Y114.674 E.05485
G1 X153.46 Y115.728 E.07392
G1 X155.416 Y116.921 E.07184
G1 X157.351 Y118.339 E.07522
G1 X158.651 Y119.447 E.05356
G1 X160.356 Y121.134 E.0752
G1 X161.909 Y122.963 E.07523
G1 X163.298 Y124.918 E.07519
G1 X164.463 Y126.891 E.07184
G1 X165.504 Y129.053 E.07524
G1 X166.354 Y131.296 E.07521
G1 X167.007 Y133.605 E.07524
G1 X167.349 Y135.278 E.05354
G1 X167.655 Y137.657 E.07521
G1 X167.754 Y140.054 E.07522
G1 X167.645 Y142.451 E.07523
G1 X167.349 Y144.722 E.07181
G1 X166.839 Y147.066 E.07521
G1 X166.129 Y149.358 E.07523
G1 X165.487 Y150.984 E.05481
G1 X164.463 Y153.109 E.07396
G1 X163.24 Y155.172 E.0752
G1 X161.909 Y157.037 E.07184
G1 X160.356 Y158.866 E.07523
G1 X158.651 Y160.553 E.0752
G1 X156.806 Y162.087 E.07523
G1 X155.416 Y163.079 E.05354
G1 X153.365 Y164.324 E.07523
G1 X150.478 Y165.7 E.10028
G1 X147.453 Y166.735 E.10024
G1 X144.328 Y167.414 E.10027
G1 X142.741 Y167.618 E.05017
G1 X140.454 Y167.75 E.07183
G1 X89.225 Y166.343 E1.60686
G1 X86.733 Y166.15 E.07837
G1 X83.764 Y165.606 E.09464
G1 X80.784 Y164.69 E.09775
G1 X77.94 Y163.432 E.09751
G1 X75.26 Y161.846 E.09764
G1 X72.786 Y159.955 E.09764
G1 X70.553 Y157.786 E.09761
G1 X68.601 Y155.382 E.09709
G1 X66.933 Y152.746 E.09781
G1 X65.875 Y150.608 E.07479
G1 X64.958 Y148.207 E.08059
G1 X64.234 Y145.535 E.0868
G1 X63.835 Y143.153 E.07573
G1 X63.653 Y140.563 E.08141
G1 X63.743 Y137.747 E.08834
G1 X64.059 Y135.355 E.07565
G1 X64.612 Y132.934 E.07786
G1 X65.546 Y130.176 E.0913
G1 X66.557 Y127.96 E.07637
G1 X67.78 Y125.83 E.07701
G1 X69.479 Y123.465 E.0913
G1 X71.091 Y121.643 E.07628
G1 X72.885 Y119.961 E.07711
G1 X74.798 Y118.501 E.07545
G1 X74.798 Y118.501 F9000
G1 X75.021 Y118.8
G1 F1200
G1 X75.459 Y118.474 E.01712
G1 X77.516 Y117.22 E.07554
G1 X80.123 Y115.974 E.0906
G1 X82.588 Y115.104 E.08196
G1 X85.364 Y114.44 E.08949
G1 X88.295 Y114.08 E.09259
G1 X140.443 Y112.627 E1.6357
G1 X142.709 Y112.758 E.07117
G1 X145.051 Y113.093 E.07418
G1 X147.356 Y113.63 E.07421
G1 X149.606 Y114.364 E.07421
G1 X151.193 Y115.016 E.05379
G1 X153.273 Y116.056 E.07291
G1 X155.291 Y117.292 E.0742
G1 X157.195 Y118.697 E.07419
G1 X158.9 Y120.194 E.07114
G1 X160.54 Y121.9 E.0742
G1 X162.026 Y123.742 E.07421
G1 X163.001 Y125.154 E.0538
G1 X164.179 Y127.159 E.07291
G1 X165.197 Y129.295 E.07419
G1 X166.028 Y131.511 E.07421
G1 X166.641 Y133.696 E.07115
G1 X166.993 Y135.438 E.05572
G1 X167.279 Y137.684 E.07099
G1 X167.377 Y140.049 E.07422
G1 X167.27 Y142.413 E.0742
G1 X166.977 Y144.663 E.07114
G1 X166.473 Y146.975 E.07419
G1 X165.772 Y149.235 E.07419
G1 X165.142 Y150.831 E.0538
G1 X164.133 Y152.926 E.07291
G1 X162.926 Y154.962 E.07421
G1 X161.549 Y156.886 E.07418
G1 X160.076 Y158.613 E.07117
G1 X158.9 Y159.806 E.05252
G1 X157.119 Y161.364 E.07419
G1 X155.21 Y162.763 E.07421
G1 X153.188 Y163.991 E.07417
G1 X150.34 Y165.349 E.09893
G1 X147.356 Y166.37 E.09889
G1 X144.274 Y167.041 E.0989
G1 X142.019 Y167.302 E.07118
G1 X140.443 Y167.373 E.04946
G1 X89.236 Y165.966 E1.60617
G1 X86.842 Y165.784 E.07528
G1 X83.858 Y165.24 E.0951
G1 X80.919 Y164.338 E.09639
G1 X78.116 Y163.099 E.09609
G1 X75.474 Y161.536 E.09625
G1 X73.035 Y159.672 E.09625
G1 X70.846 Y157.548 E.09563
G1 X68.907 Y155.162 E.0964
G1 X67.243 Y152.527 E.09771
G1 X66.135 Y150.257 E.0792
G1 X65.185 Y147.682 E.08606
G1 X64.579 Y145.345 E.0757
G1 X64.18 Y142.843 E.07944
G1 X64.024 Y140.113 E.08574
G1 X64.124 Y137.709 E.07544
G1 X64.455 Y135.287 E.07665
G1 X65.133 Y132.49 E.09024
G1 X65.93 Y130.232 E.07508
G1 X66.943 Y128.035 E.07586
G1 X68.408 Y125.558 E.09023
G1 X69.829 Y123.632 E.07505
G1 X71.44 Y121.826 E.07588
G1 X73.565 Y119.884 E.09026
G1 X74.972 Y118.836 E.05501
G1 E-3.5 F3600
;WIPE_START
G1 F7200
G1 X75.021 Y118.8 E-.02888
G1 X75.459 Y118.474 E-.25935
G1 X77.516 Y117.22 E-1.14432
G1 X77.644 Y117.159 E-.06745
;WIPE_END
; printing object magcartrige-Part id:0 copy 0
G1 X117.672 Y134.758 F9000
G1 E5 F2400
;TYPE:Perimeter
;WIDTH:0.419999
G1 F1200
G1 X118.012 Y133.474 E.04165
G1 X118.205 Y132.856 E.0203
G1 X118.658 Y131.6 E.04186
G1 X118.919 Y130.966 E.0215
G1 X119.46 Y129.794 E.04047
G1 X120.085 Y128.622 E.04165
G1 X120.435 Y128.032 E.02151
G1 X121.143 Y126.945 E.04067
G1 X121.519 Y126.418 E.0203
G1 X122.336 Y125.37 E.04166
G1 X123.209 Y124.377 E.04146
G1 X124.141 Y123.431 E.04164
G1 X124.644 Y122.964 E.02152
G1 X125.626 Y122.127 E.04046
G1 X126.68 Y121.329 E.04145
G1 X127.778 Y120.593 E.04145
G1 X128.921 Y119.918 E.04162
G1 X129.527 Y119.596 E.02152
G1 X130.691 Y119.039 E.04046
G1 X131.915 Y118.537 E.04148
G1 X133.17 Y118.105 E.04162
G1 X133.829 Y117.911 E.02154
G1 X135.08 Y117.598 E.04043
G1 X136.386 Y117.351 E.04167
G1 X137.065 Y117.253 E.02151
G1 X138.349 Y117.124 E.04046
G1 X139.672 Y117.067 E.04152
G1 X140.641 Y117.076 E.03038
G1 X141.649 Y117.124 E.03164
G1 X142.973 Y117.258 E.04173
G1 X143.651 Y117.357 E.02148
G1 X144.919 Y117.598 E.04047
G1 X146.209 Y117.921 E.0417
G1 X146.829 Y118.105 E.02028
G1 X148.085 Y118.537 E.04165
G1 X149.309 Y119.039 E.04148
G1 X150.506 Y119.612 E.04161
G1 X151.111 Y119.936 E.02152
G1 X152.222 Y120.592 E.04045
G1 X153.326 Y121.333 E.04169
G1 X153.847 Y121.716 E.02027
G1 X154.883 Y122.549 E.04168
G1 X155.863 Y123.435 E.04142
G1 X156.796 Y124.382 E.04168
G1 X157.23 Y124.862 E.02029
G1 X158.078 Y125.885 E.04166
G1 X158.861 Y126.95 E.04145
G1 X159.582 Y128.059 E.04147
G1 X160.24 Y129.213 E.04165
G1 X160.537 Y129.788 E.02029
G1 X161.096 Y131.001 E.04188
G1 X161.342 Y131.6 E.0203
G1 X161.795 Y132.856 E.04186
G1 X161.988 Y133.474 E.0203
G1 X162.328 Y134.758 E.04165
G1 X162.593 Y136.053 E.04145
G1 X162.784 Y137.369 E.04169
G1 X162.849 Y138.012 E.02026
G1 X162.926 Y139.489 E.04637
G1 X162.926 Y140.661 E.03675
G1 X162.849 Y141.988 E.04168
G1 X162.784 Y142.631 E.02026
G1 X162.592 Y143.953 E.04189
G1 X162.33 Y145.235 E.04103
G1 X161.989 Y146.519 E.04165
G1 X161.577 Y147.775 E.04145
G1 X161.091 Y149.012 E.04167
G1 X160.828 Y149.603 E.02028
G1 X160.237 Y150.793 E.04166
G1 X159.582 Y151.941 E.04144
G1 X158.857 Y153.056 E.0417
G1 X158.481 Y153.582 E.02027
G1 X157.664 Y154.63 E.04166
G1 X156.791 Y155.623 E.04146
G1 X155.859 Y156.569 E.04164
G1 X155.385 Y157.01 E.0203
G1 X154.374 Y157.873 E.04168
G1 X153.32 Y158.671 E.04145
G1 X152.217 Y159.411 E.04165
G1 X151.664 Y159.748 E.0203
G1 X150.501 Y160.39 E.04165
G1 X149.309 Y160.961 E.04144
G1 X148.085 Y161.463 E.04148
G1 X146.829 Y161.895 E.04165
G1 X146.209 Y162.079 E.02028
G1 X144.919 Y162.402 E.0417
G1 X143.614 Y162.649 E.04164
G1 X142.973 Y162.742 E.02031
G1 X141.644 Y162.877 E.04188
G1 X140.998 Y162.914 E.02029
G1 X139.663 Y162.933 E.04186
G1 X139.016 Y162.915 E.02029
G1 X137.683 Y162.818 E.04191
G1 X137.04 Y162.744 E.02029
G1 X135.721 Y162.533 E.04188
G1 X135.087 Y162.403 E.02029
G1 X133.798 Y162.081 E.04166
G1 X132.536 Y161.687 E.04145
G1 X131.299 Y161.221 E.04145
G1 X130.085 Y160.682 E.04165
G1 X129.505 Y160.394 E.0203
G1 X128.342 Y159.752 E.04165
G1 X127.218 Y159.043 E.04167
G1 X126.685 Y158.675 E.02031
G1 X125.626 Y157.873 E.04165
G1 X124.62 Y157.015 E.04146
G1 X123.666 Y156.101 E.04142
G1 X122.761 Y155.128 E.04166
G1 X122.341 Y154.635 E.02031
G1 X121.523 Y153.588 E.04166
G1 X120.767 Y152.495 E.04167
G1 X120.422 Y151.947 E.0203
G1 X119.763 Y150.793 E.04167
G1 X119.175 Y149.61 E.04142
G1 X118.656 Y148.394 E.04145
G1 X118.205 Y147.144 E.04167
G1 X118.012 Y146.526 E.0203
G1 X117.672 Y145.242 E.04165
G1 X117.407 Y143.947 E.04145
G1 X117.216 Y142.632 E.04166
G1 X117.148 Y141.949 E.02152
G1 X117.074 Y140.661 E.04045
G1 X117.074 Y139.339 E.04145
G1 X117.151 Y138.013 E.04165
G1 X117.221 Y137.331 E.0215
G1 X117.407 Y136.054 E.04046
G1 X117.66 Y134.817 E.03959
G1 X117.66 Y134.817 F9000
G1 X117.304 Y134.672
G1 F1200
