(Exported by FreeCAD)
(Post Processor: script_module)
(Output Time:2024-08-17 22:05:22.571255)
(Begin preamble)
G17 G90
G21
(Begin operation: Fixture)
(Path: Fixture)
G54
(Finish operation: Fixture)
(Begin operation: 2mm Endmill001)
(Path: 2mm Endmill001)
(2mm Endmill001)
(Begin toolchange)
( M6 T2 )
M3 S1000
(Finish operation: 2mm Endmill001)
(Begin operation: Profile)
(Path: Profile)
(Profile)
(Compensated Tool Path. Diameter: 2.0)
G0 Z5.000
G0 X5.585 Y5.585
G0 Z3.000
G1 X5.585 Y5.585 Z0.000 F50.000
G2 X1.451 Y-7.764 Z0.000 I-5.585 J-5.585 K0.000 F50.000
G2 X-1.451 Y7.764 Z0.000 I-1.451 J7.764 K0.000 F50.000
G2 X5.585 Y5.585 Z0.000 I1.451 J-7.764 K0.000 F50.000
G1 X5.585 Y5.585 Z-0.600 F50.000
G2 X1.451 Y-7.764 Z-0.600 I-5.585 J-5.585 K0.000 F50.000
G2 X-1.451 Y7.764 Z-0.600 I-1.451 J7.764 K0.000 F50.000
G2 X5.585 Y5.585 Z-0.600 I1.451 J-7.764 K0.000 F50.000
G1 X5.585 Y5.585 Z-1.200 F50.000
G2 X1.451 Y-7.764 Z-1.200 I-5.585 J-5.585 K0.000 F50.000
G2 X-1.451 Y7.764 Z-1.200 I-1.451 J7.764 K0.000 F50.000
G2 X5.585 Y5.585 Z-1.200 I1.451 J-7.764 K0.000 F50.000
G1 X5.585 Y5.585 Z-1.800 F50.000
G2 X1.451 Y-7.764 Z-1.800 I-5.585 J-5.585 K0.000 F50.000
G2 X-1.451 Y7.764 Z-1.800 I-1.451 J7.764 K0.000 F50.000
G2 X5.585 Y5.585 Z-1.800 I1.451 J-7.764 K0.000 F50.000
G0 Z5.000
G0 Z5.000
G0 X5.585 Y5.585
G0 X0.146 Y17.189
G0 X0.146 Y17.189 Z3.000
G1 X0.146 Y17.189 Z0.000 F50.000
G2 X0.116 Y17.177 Z0.000 I-0.146 J0.311 K0.000 F50.000
G2 X-0.116 Y17.823 Z0.000 I-0.116 J0.323 K0.000 F50.000
G2 X0.146 Y17.189 Z0.000 I0.116 J-0.323 K0.000 F50.000
G1 X0.146 Y17.189 Z-0.600 F50.000
G2 X0.116 Y17.177 Z-0.600 I-0.146 J0.311 K0.000 F50.000
G2 X-0.116 Y17.823 Z-0.600 I-0.116 J0.323 K0.000 F50.000
G2 X0.146 Y17.189 Z-0.600 I0.116 J-0.323 K0.000 F50.000
G1 X0.146 Y17.189 Z-1.200 F50.000
G2 X0.116 Y17.177 Z-1.200 I-0.146 J0.311 K0.000 F50.000
G2 X-0.116 Y17.823 Z-1.200 I-0.116 J0.323 K0.000 F50.000
G2 X0.146 Y17.189 Z-1.200 I0.116 J-0.323 K0.000 F50.000
G1 X0.146 Y17.189 Z-1.800 F50.000
G2 X0.116 Y17.177 Z-1.800 I-0.146 J0.311 K0.000 F50.000
G2 X-0.116 Y17.823 Z-1.800 I-0.116 J0.323 K0.000 F50.000
G2 X0.146 Y17.189 Z-1.800 I0.116 J-0.323 K0.000 F50.000
G0 Z5.000
G0 Z5.000
G0 X0.146 Y17.189
G0 X-14.981 Y-8.454
G0 X-14.981 Y-8.454 Z3.000
G1 X-14.981 Y-8.454 Z0.000 F50.000
G2 X-15.039 Y-9.073 Z0.000 I-0.175 J-0.296 K0.000 F50.000
G2 X-15.272 Y-8.427 Z0.000 I-0.116 J0.323 K0.000 F50.000
G2 X-14.981 Y-8.454 Z0.000 I0.116 J-0.323 K0.000 F50.000
G1 X-14.981 Y-8.454 Z-0.600 F50.000
G2 X-15.039 Y-9.073 Z-0.600 I-0.175 J-0.296 K0.000 F50.000
G2 X-15.272 Y-8.427 Z-0.600 I-0.116 J0.323 K0.000 F50.000
G2 X-14.981 Y-8.454 Z-0.600 I0.116 J-0.323 K0.000 F50.000
G1 X-14.981 Y-8.454 Z-1.200 F50.000
G2 X-15.039 Y-9.073 Z-1.200 I-0.175 J-0.296 K0.000 F50.000
G2 X-15.272 Y-8.427 Z-1.200 I-0.116 J0.323 K0.000 F50.000
G2 X-14.981 Y-8.454 Z-1.200 I0.116 J-0.323 K0.000 F50.000
G1 X-14.981 Y-8.454 Z-1.800 F50.000
G2 X-15.039 Y-9.073 Z-1.800 I-0.175 J-0.296 K0.000 F50.000
G2 X-15.272 Y-8.427 Z-1.800 I-0.116 J0.323 K0.000 F50.000
G2 X-14.981 Y-8.454 Z-1.800 I0.116 J-0.323 K0.000 F50.000
G0 Z5.000
G0 Z5.000
G0 X-14.981 Y-8.454
G0 X14.812 Y-8.746
G0 X14.812 Y-8.746 Z3.000
G1 X14.812 Y-8.746 Z0.000 F50.000
G2 X15.039 Y-8.427 Z0.000 I0.343 J-0.003 K0.000 F50.000
G2 X15.277 Y-9.070 Z0.000 I0.116 J-0.323 K0.000 F50.000
G1 X15.192 Y-9.091 Z0.000 F50.000
G2 X14.812 Y-8.746 Z0.000 I-0.037 J0.341 K0.000 F50.000
G1 X14.812 Y-8.746 Z-0.600 F50.000
G2 X15.039 Y-8.427 Z-0.600 I0.343 J-0.003 K0.000 F50.000
G2 X15.277 Y-9.070 Z-0.600 I0.116 J-0.323 K0.000 F50.000
G1 X15.192 Y-9.091 Z-0.600 F50.000
G2 X14.812 Y-8.746 Z-0.600 I-0.037 J0.341 K0.000 F50.000
G1 X14.812 Y-8.746 Z-1.200 F50.000
G2 X15.039 Y-8.427 Z-1.200 I0.343 J-0.003 K0.000 F50.000
G2 X15.277 Y-9.070 Z-1.200 I0.116 J-0.323 K0.000 F50.000
G1 X15.192 Y-9.091 Z-1.200 F50.000
G2 X14.812 Y-8.746 Z-1.200 I-0.037 J0.341 K0.000 F50.000
G1 X14.812 Y-8.746 Z-1.800 F50.000
G2 X15.039 Y-8.427 Z-1.800 I0.343 J-0.003 K0.000 F50.000
G2 X15.277 Y-9.070 Z-1.800 I0.116 J-0.323 K0.000 F50.000
G1 X15.192 Y-9.091 Z-1.800 F50.000
G2 X14.812 Y-8.746 Z-1.800 I-0.037 J0.341 K0.000 F50.000
G0 Z5.000
G0 Z5.000
(Finish operation: Profile)
(Begin operation: Pocket_Shape)
(Path: Pocket_Shape)
(Pocket_Shape)
G0 Z5.000
G0 X6.852 Y16.873
G0 Z3.000
G1 X6.852 Y16.873 Z-0.250 F50.000
G3 X4.200 Y17.882 Z-0.250 I-1.590 J-0.190 K0.000 F50.000
G3 X3.708 Y16.254 Z-0.250 I1.112 J-1.224 K0.000 F50.000
G2 X1.540 Y14.016 Z-0.250 I-1.986 J-0.245 K0.000 F50.000
G3 X-1.646 Y14.013 Z-0.250 I-1.580 J-14.873 K0.000 F50.000
G2 X-3.704 Y16.301 Z-0.250 I-0.080 J1.998 K0.000 F50.000
G3 X-4.881 Y18.240 Z-0.250 I-1.555 J0.383 K0.000 F50.000
G3 X-6.816 Y17.057 Z-0.250 I-0.378 J-1.556 K0.000 F50.000
G3 X-6.286 Y15.441 Z-0.250 I1.613 J-0.365 K0.000 F50.000
G2 X-6.770 Y12.369 Z-0.250 I-1.487 J-1.340 K0.000 F50.000
G3 X-14.103 Y-0.419 Z-0.250 I6.801 J-12.397 K0.000 F50.000
G2 X-16.562 Y-2.269 Z-0.250 I-1.997 J0.095 K0.000 F50.000
G3 X-18.596 Y-3.273 Z-0.250 I-0.517 J-1.515 K0.000 F50.000
G3 X-17.586 Y-5.303 Z-0.250 I1.517 J-0.512 K0.000 F50.000
G3 X-15.930 Y-4.916 Z-0.250 I0.504 J1.575 K0.000 F50.000
G2 X-12.908 Y-5.674 Z-0.250 I1.205 J-1.598 K0.000 F50.000
G3 X-11.313 Y-8.432 Z-0.250 I13.670 J6.069 K0.000 F50.000
G2 X-12.265 Y-11.358 Z-0.250 I-1.690 J-1.068 K0.000 F50.000
G3 X-13.356 Y-13.347 Z-0.250 I0.446 J-1.538 K0.000 F50.000
G3 X-11.364 Y-14.431 Z-0.250 I1.536 J0.451 K0.000 F50.000
G3 X-10.230 Y-13.164 Z-0.250 I-0.490 J1.580 K0.000 F50.000
G2 X-7.327 Y-12.047 Z-0.250 I1.904 J-0.617 K0.000 F50.000
G3 X7.414 Y-12.004 Z-0.250 I7.336 J12.089 K0.000 F50.000
G2 X10.246 Y-13.209 Z-0.250 I0.916 J-1.777 K0.000 F50.000
G3 X12.440 Y-14.374 Z-0.250 I1.577 J0.321 K0.000 F50.000
G3 X12.222 Y-11.338 Z-0.250 I-0.631 J1.481 K0.000 F50.000
G2 X11.368 Y-8.342 Z-0.250 I0.781 J1.843 K0.000 F50.000
G3 X12.959 Y-5.581 Z-0.250 I-12.091 J8.805 K0.000 F50.000
G2 X15.969 Y-4.943 Z-0.250 I1.770 J-0.930 K0.000 F50.000
G3 X18.237 Y-4.893 Z-0.250 I1.109 J1.155 K0.000 F50.000
G3 X18.180 Y-2.626 Z-0.250 I-1.159 J1.105 K0.000 F50.000
G3 X16.515 Y-2.277 Z-0.250 I-1.123 J-1.215 K0.000 F50.000
G2 X14.097 Y-0.322 Z-0.250 I-0.417 J1.957 K0.000 F50.000
G3 X6.689 Y12.423 Z-0.250 I-14.137 J0.308 K0.000 F50.000
G2 X6.316 Y15.478 Z-0.250 I1.081 J1.682 K0.000 F50.000
G3 X6.852 Y16.873 Z-0.250 I-1.054 J1.205 K0.000 F50.000
G0 Z5.000
G0 X5.849 Y16.753 Z5.000
G0 X5.849 Y16.753 Z3.000
G1 X5.849 Y16.753 Z-0.250 F50.000
G3 X5.759 Y17.013 Z-0.250 I-0.645 J-0.077 K0.000 F50.000
G3 X4.670 Y16.675 Z-0.250 I-0.497 J-0.323 K0.000 F50.000
G2 X3.204 Y13.402 Z-0.250 I-2.986 J-0.627 K0.000 F50.000
G2 X1.459 Y13.019 Z-0.250 I-1.512 J2.724 K0.000 F50.000
G3 X-1.672 Y13.013 Z-0.250 I-1.536 J-16.070 K0.000 F50.000
G2 X-4.699 Y16.406 Z-0.250 I-0.053 J2.999 K0.000 F50.000
G3 X-5.041 Y17.240 Z-0.250 I-0.604 J0.239 K0.000 F50.000
G3 X-5.739 Y16.338 Z-0.250 I-0.222 J-0.550 K0.000 F50.000
G2 X-5.063 Y12.816 Z-0.250 I-2.086 J-2.226 K0.000 F50.000
G2 X-6.256 Y11.511 Z-0.250 I-2.751 J1.318 K0.000 F50.000
G3 X-13.082 Y0.676 Z-0.250 I6.268 J-11.516 K0.000 F50.000
G2 X-13.140 Y-0.796 Z-0.250 I-8.194 J-0.413 K0.000 F50.000
G2 X-16.753 Y-3.251 Z-0.250 I-2.962 J0.473 K0.000 F50.000
G3 X-17.613 Y-3.519 Z-0.250 I-0.291 J-0.581 K0.000 F50.000
G3 X-16.776 Y-4.293 Z-0.250 I0.528 J-0.269 K0.000 F50.000
G2 X-13.209 Y-3.926 Z-0.250 I2.036 J-2.272 K0.000 F50.000
G2 X-12.005 Y-5.246 Z-0.250 I-1.603 J-2.671 K0.000 F50.000
G3 X-10.434 Y-7.955 Z-0.250 I14.685 J6.705 K0.000 F50.000
G2 X-11.859 Y-12.272 Z-0.250 I-2.570 J-1.545 K0.000 F50.000
G3 X-12.410 Y-12.985 Z-0.250 I0.095 J-0.642 K0.000 F50.000
G3 X-11.279 Y-13.139 Z-0.250 I0.587 J0.083 K0.000 F50.000
G2 X-8.568 Y-10.792 Z-0.250 I2.971 J-0.693 K0.000 F50.000
G2 X-6.841 Y-11.174 Z-0.250 I0.234 J-3.042 K0.000 F50.000
G3 X5.955 Y-11.667 Z-0.250 I6.839 J11.186 K0.000 F50.000
G2 X7.260 Y-10.981 Z-0.250 I4.455 J-6.890 K0.000 F50.000
G2 X11.192 Y-12.883 Z-0.250 I1.071 J-2.802 K0.000 F50.000
G3 X11.854 Y-13.494 Z-0.250 I0.648 J0.038 K0.000 F50.000
G3 X12.106 Y-12.381 Z-0.250 I-0.031 J0.592 K0.000 F50.000
G2 X10.005 Y-9.476 Z-0.250 I0.950 J2.899 K0.000 F50.000
G2 X10.545 Y-7.773 Z-0.250 I3.115 J-0.052 K0.000 F50.000
G3 X12.106 Y-5.058 Z-0.250 I-13.149 J9.365 K0.000 F50.000
G2 X16.557 Y-4.134 Z-0.250 I2.623 J-1.453 K0.000 F50.000
G3 X17.450 Y-4.255 Z-0.250 I0.509 J0.403 K0.000 F50.000
G3 X17.018 Y-3.199 Z-0.250 I-0.365 J0.467 K0.000 F50.000
G2 X13.630 Y-2.024 Z-0.250 I-0.885 J2.920 K0.000 F50.000
G2 X13.097 Y-0.338 Z-0.250 I2.518 J1.724 K0.000 F50.000
G3 X7.126 Y10.991 Z-0.250 I-13.107 J0.330 K0.000 F50.000
G2 X5.880 Y11.778 Z-0.250 I3.739 J7.303 K0.000 F50.000
G2 X5.561 Y16.134 Z-0.250 I1.891 J2.328 K0.000 F50.000
G3 X5.849 Y16.753 Z-0.250 I-0.357 J0.542 K0.000 F50.000
G0 Z5.000
G0 X4.017 Y12.736 Z5.000
G0 X4.017 Y12.736 Z3.000
G1 X4.017 Y12.736 Z-0.250 F50.000
G2 X1.379 Y12.023 Z-0.250 I-2.312 J3.315 K0.000 F50.000
G3 X-1.698 Y12.014 Z-0.250 I-1.492 J-16.424 K0.000 F50.000
G2 X-4.015 Y12.737 Z-0.250 I-0.034 J3.963 K0.000 F50.000
G2 X-5.742 Y10.653 Z-0.250 I-3.794 J1.389 K0.000 F50.000
G3 X-12.097 Y-0.354 Z-0.250 I5.768 J-10.668 K0.000 F50.000
G2 X-13.038 Y-2.889 Z-0.250 I-4.011 J0.046 K0.000 F50.000
G2 X-11.101 Y-4.817 Z-0.250 I-1.715 J-3.659 K0.000 F50.000
G3 X-9.555 Y-7.478 Z-0.250 I14.969 J6.920 K0.000 F50.000
G2 X-9.023 Y-9.845 Z-0.250 I-3.415 J-2.011 K0.000 F50.000
G2 X-6.355 Y-10.300 Z-0.250 I0.694 J-3.981 K0.000 F50.000
G3 X2.181 Y-11.900 Z-0.250 I6.355 J10.333 K0.000 F50.000
G3 X6.355 Y-10.300 Z-0.250 I-2.226 J12.051 K0.000 F50.000
G2 X9.021 Y-9.847 Z-0.250 I1.966 J-3.497 K0.000 F50.000
G2 X9.722 Y-7.205 Z-0.250 I4.026 J0.345 K0.000 F50.000
G3 X11.253 Y-4.536 Z-0.250 I-13.477 J9.504 K0.000 F50.000
G2 X13.037 Y-2.892 Z-0.250 I3.450 J-1.952 K0.000 F50.000
G2 X12.097 Y-0.354 Z-0.250 I3.100 J2.592 K0.000 F50.000
G3 X5.742 Y10.653 Z-0.250 I-12.123 J0.339 K0.000 F50.000
G2 X4.017 Y12.736 Z-0.250 I2.045 J3.451 K0.000 F50.000
G0 Z5.000
G0 X3.787 Y12.018 Z5.000
G0 X3.787 Y12.018 Z3.000
G1 X3.787 Y12.018 Z-0.250 F50.000
G2 X3.529 Y11.884 Z-0.250 I-0.628 J0.891 K0.000 F50.000
G2 X3.942 Y11.747 Z-0.250 I-1.278 J-4.527 K0.000 F50.000
G2 X3.787 Y12.018 Z-0.250 I0.933 J0.713 K0.000 F50.000
G0 Z5.000
G0 X3.575 Y11.348 Z5.000
G0 X3.575 Y11.348 Z3.000
G1 X3.575 Y11.348 Z-0.250 F50.000
G3 X0.960 Y11.859 Z-0.250 I-3.575 J-11.348 K0.000 F50.000
G3 X-0.960 Y-11.859 Z-0.250 I-0.960 J-11.859 K0.000 F50.000
G3 X3.575 Y11.348 Z-0.250 I0.960 J11.859 K0.000 F50.000
G0 Z5.000
G0 X3.275 Y10.395 Z5.000
G0 X3.275 Y10.395 Z3.000
G1 X3.275 Y10.395 Z-0.250 F50.000
G3 X2.093 Y10.695 Z-0.250 I-3.275 J-10.395 K0.000 F50.000
G3 X-2.093 Y-10.695 Z-0.250 I-2.093 J-10.695 K0.000 F50.000
G3 X3.275 Y10.395 Z-0.250 I2.093 J10.695 K0.000 F50.000
G0 Z5.000
G0 X2.975 Y9.442 Z5.000
G0 X2.975 Y9.442 Z3.000
G1 X2.975 Y9.442 Z-0.250 F50.000
G3 X1.864 Y9.722 Z-0.250 I-2.975 J-9.442 K0.000 F50.000
G3 X-1.864 Y-9.722 Z-0.250 I-1.864 J-9.722 K0.000 F50.000
G3 X2.975 Y9.442 Z-0.250 I1.864 J9.722 K0.000 F50.000
G0 Z5.000
G0 X-3.519 Y11.887 Z5.000
G0 X-3.519 Y11.887 Z3.000
G1 X-3.519 Y11.887 Z-0.250 F50.000
G2 X-3.792 Y12.017 Z-0.250 I0.346 J1.080 K0.000 F50.000
G2 X-3.932 Y11.750 Z-0.250 I-1.062 J0.388 K0.000 F50.000
G2 X-3.519 Y11.887 Z-0.250 I1.687 J-4.396 K0.000 F50.000
G0 Z5.000
G0 X-12.148 Y-2.469 Z5.000
G0 X-12.148 Y-2.469 Z3.000
G1 X-12.148 Y-2.469 Z-0.250 F50.000
G2 X-12.301 Y-2.730 Z-0.250 I-1.050 J0.441 K0.000 F50.000
G2 X-12.048 Y-2.893 Z-0.250 I-0.479 J-1.024 K0.000 F50.000
G1 X-12.148 Y-2.469 Z-0.250 F50.000
G0 Z5.000
G0 X-8.536 Y-8.987 Z5.000
G0 X-8.536 Y-8.987 Z3.000
G1 X-8.536 Y-8.987 Z-0.250 F50.000
G2 X-8.511 Y-9.292 Z-0.250 I-1.123 J-0.244 K0.000 F50.000
G2 X-8.221 Y-9.279 Z-0.250 I0.193 J-1.074 K0.000 F50.000
G2 X-8.536 Y-8.987 Z-0.250 I2.869 J3.411 K0.000 F50.000
G0 Z5.000
G0 X8.212 Y-9.286 Z5.000
G0 X8.212 Y-9.286 Z3.000
G1 X8.212 Y-9.286 Z-0.250 F50.000
G2 X8.515 Y-9.288 Z-0.250 I0.143 J-1.128 K0.000 F50.000
G2 X8.528 Y-8.995 Z-0.250 I1.099 J0.098 K0.000 F50.000
G2 X8.212 Y-9.286 Z-0.250 I-2.783 J2.699 K0.000 F50.000
G0 Z5.000
G0 X12.046 Y-2.903 Z5.000
G0 X12.046 Y-2.903 Z3.000
G1 X12.046 Y-2.903 Z-0.250 F50.000
G2 X12.303 Y-2.725 Z-0.250 I0.790 J-0.867 K0.000 F50.000
G2 X12.146 Y-2.478 Z-0.250 I0.838 J0.707 K0.000 F50.000
G1 X12.046 Y-2.903 Z-0.250 F50.000
G1 X12.046 Y-2.903 Z-0.500 F50.000
G2 X12.303 Y-2.725 Z-0.500 I0.790 J-0.867 K0.000 F50.000
G2 X12.146 Y-2.478 Z-0.500 I0.838 J0.707 K0.000 F50.000
G1 X12.046 Y-2.903 Z-0.500 F50.000
G0 Z5.000
G0 X11.567 Y-2.787 Z5.000
G0 X11.567 Y-2.787 Z3.000
G1 X11.567 Y-2.787 Z-0.500 F50.000
G3 X0.960 Y11.859 Z-0.500 I-11.567 J2.787 K0.000 F50.000
G3 X-0.960 Y-11.859 Z-0.500 I-0.960 J-11.859 K0.000 F50.000
G3 X11.567 Y-2.787 Z-0.500 I0.960 J11.859 K0.000 F50.000
G0 Z5.000
G0 X12.141 Y-3.464 Z5.000
G0 X12.141 Y-3.464 Z3.000
G1 X12.141 Y-3.464 Z-0.500 F50.000
G2 X13.037 Y-2.892 Z-0.500 I2.562 J-3.024 K0.000 F50.000
G2 X12.097 Y-0.354 Z-0.500 I3.100 J2.592 K0.000 F50.000
G3 X5.742 Y10.653 Z-0.500 I-12.123 J0.339 K0.000 F50.000
G2 X4.017 Y12.736 Z-0.500 I2.045 J3.451 K0.000 F50.000
G2 X1.379 Y12.023 Z-0.500 I-2.312 J3.315 K0.000 F50.000
G3 X-1.698 Y12.014 Z-0.500 I-1.492 J-16.424 K0.000 F50.000
G2 X-4.015 Y12.737 Z-0.500 I-0.034 J3.963 K0.000 F50.000
G2 X-5.742 Y10.653 Z-0.500 I-3.794 J1.389 K0.000 F50.000
G3 X-12.097 Y-0.354 Z-0.500 I5.768 J-10.668 K0.000 F50.000
G2 X-13.038 Y-2.889 Z-0.500 I-4.011 J0.046 K0.000 F50.000
G2 X-11.101 Y-4.817 Z-0.500 I-1.715 J-3.659 K0.000 F50.000
G3 X-9.555 Y-7.478 Z-0.500 I14.969 J6.920 K0.000 F50.000
G2 X-9.023 Y-9.845 Z-0.500 I-3.415 J-2.011 K0.000 F50.000
G2 X-6.355 Y-10.300 Z-0.500 I0.694 J-3.981 K0.000 F50.000
G3 X2.181 Y-11.900 Z-0.500 I6.355 J10.333 K0.000 F50.000
G3 X6.355 Y-10.300 Z-0.500 I-2.226 J12.051 K0.000 F50.000
G2 X9.021 Y-9.847 Z-0.500 I1.966 J-3.497 K0.000 F50.000
G2 X9.722 Y-7.205 Z-0.500 I4.026 J0.345 K0.000 F50.000
G3 X11.253 Y-4.536 Z-0.500 I-13.477 J9.504 K0.000 F50.000
G2 X12.141 Y-3.464 Z-0.500 I3.450 J-1.952 K0.000 F50.000
G0 Z5.000
G0 X12.788 Y-4.226 Z5.000
G0 X12.788 Y-4.226 Z3.000
G1 X12.788 Y-4.226 Z-0.500 F50.000
G2 X16.557 Y-4.134 Z-0.500 I1.942 J-2.286 K0.000 F50.000
G3 X17.450 Y-4.255 Z-0.500 I0.509 J0.403 K0.000 F50.000
G3 X17.018 Y-3.199 Z-0.500 I-0.365 J0.467 K0.000 F50.000
G2 X13.630 Y-2.024 Z-0.500 I-0.885 J2.920 K0.000 F50.000
G2 X13.097 Y-0.338 Z-0.500 I2.518 J1.724 K0.000 F50.000
G3 X7.126 Y10.991 Z-0.500 I-13.107 J0.330 K0.000 F50.000
G2 X5.880 Y11.778 Z-0.500 I3.739 J7.303 K0.000 F50.000
G2 X5.561 Y16.134 Z-0.500 I1.891 J2.328 K0.000 F50.000
G3 X5.759 Y17.013 Z-0.500 I-0.357 J0.542 K0.000 F50.000
G3 X4.670 Y16.675 Z-0.500 I-0.497 J-0.323 K0.000 F50.000
G2 X3.204 Y13.402 Z-0.500 I-2.986 J-0.627 K0.000 F50.000
G2 X1.459 Y13.019 Z-0.500 I-1.512 J2.724 K0.000 F50.000
G3 X-1.672 Y13.013 Z-0.500 I-1.536 J-16.070 K0.000 F50.000
G2 X-4.699 Y16.406 Z-0.500 I-0.053 J2.999 K0.000 F50.000
G3 X-5.041 Y17.240 Z-0.500 I-0.604 J0.239 K0.000 F50.000
G3 X-5.739 Y16.338 Z-0.500 I-0.222 J-0.550 K0.000 F50.000
G2 X-5.063 Y12.816 Z-0.500 I-2.086 J-2.226 K0.000 F50.000
G2 X-6.256 Y11.511 Z-0.500 I-2.751 J1.318 K0.000 F50.000
G3 X-13.082 Y0.676 Z-0.500 I6.268 J-11.516 K0.000 F50.000
G2 X-13.140 Y-0.796 Z-0.500 I-8.194 J-0.413 K0.000 F50.000
G2 X-16.753 Y-3.251 Z-0.500 I-2.962 J0.473 K0.000 F50.000
G3 X-17.613 Y-3.519 Z-0.500 I-0.291 J-0.581 K0.000 F50.000
G3 X-16.776 Y-4.293 Z-0.500 I0.528 J-0.269 K0.000 F50.000
G2 X-13.209 Y-3.926 Z-0.500 I2.036 J-2.272 K0.000 F50.000
G2 X-12.005 Y-5.246 Z-0.500 I-1.603 J-2.671 K0.000 F50.000
G3 X-10.434 Y-7.955 Z-0.500 I14.685 J6.705 K0.000 F50.000
G2 X-11.859 Y-12.272 Z-0.500 I-2.570 J-1.545 K0.000 F50.000
G3 X-12.410 Y-12.985 Z-0.500 I0.095 J-0.642 K0.000 F50.000
G3 X-11.279 Y-13.139 Z-0.500 I0.587 J0.083 K0.000 F50.000
G2 X-8.568 Y-10.792 Z-0.500 I2.971 J-0.693 K0.000 F50.000
G2 X-6.841 Y-11.174 Z-0.500 I0.234 J-3.042 K0.000 F50.000
G3 X5.955 Y-11.667 Z-0.500 I6.839 J11.186 K0.000 F50.000
G2 X7.260 Y-10.981 Z-0.500 I4.455 J-6.890 K0.000 F50.000
G2 X11.192 Y-12.883 Z-0.500 I1.071 J-2.802 K0.000 F50.000
G3 X11.854 Y-13.494 Z-0.500 I0.648 J0.038 K0.000 F50.000
G3 X12.106 Y-12.381 Z-0.500 I-0.031 J0.592 K0.000 F50.000
G2 X10.005 Y-9.476 Z-0.500 I0.950 J2.899 K0.000 F50.000
G2 X10.545 Y-7.773 Z-0.500 I3.115 J-0.052 K0.000 F50.000
G3 X12.106 Y-5.058 Z-0.500 I-13.149 J9.365 K0.000 F50.000
G2 X12.788 Y-4.226 Z-0.500 I2.623 J-1.453 K0.000 F50.000
G0 Z5.000
G0 X13.434 Y-4.987 Z5.000
G0 X13.434 Y-4.987 Z3.000
G1 X13.434 Y-4.987 Z-0.500 F50.000
G2 X15.969 Y-4.943 Z-0.500 I1.295 J-1.524 K0.000 F50.000
G3 X18.237 Y-4.893 Z-0.500 I1.109 J1.155 K0.000 F50.000
G3 X18.180 Y-2.626 Z-0.500 I-1.159 J1.105 K0.000 F50.000
G3 X16.515 Y-2.277 Z-0.500 I-1.123 J-1.215 K0.000 F50.000
G2 X14.097 Y-0.322 Z-0.500 I-0.417 J1.957 K0.000 F50.000
G3 X6.689 Y12.423 Z-0.500 I-14.137 J0.308 K0.000 F50.000
G2 X6.316 Y15.478 Z-0.500 I1.081 J1.682 K0.000 F50.000
G3 X6.464 Y17.741 Z-0.500 I-1.054 J1.205 K0.000 F50.000
G3 X4.200 Y17.882 Z-0.500 I-1.202 J-1.058 K0.000 F50.000
G3 X3.708 Y16.254 Z-0.500 I1.112 J-1.224 K0.000 F50.000
G2 X1.540 Y14.016 Z-0.500 I-1.986 J-0.245 K0.000 F50.000
G3 X-1.646 Y14.013 Z-0.500 I-1.580 J-14.873 K0.000 F50.000
G2 X-3.704 Y16.301 Z-0.500 I-0.080 J1.998 K0.000 F50.000
G3 X-4.881 Y18.240 Z-0.500 I-1.555 J0.383 K0.000 F50.000
G3 X-6.816 Y17.057 Z-0.500 I-0.378 J-1.556 K0.000 F50.000
G3 X-6.286 Y15.441 Z-0.500 I1.613 J-0.365 K0.000 F50.000
G2 X-6.770 Y12.369 Z-0.500 I-1.487 J-1.340 K0.000 F50.000
G3 X-14.103 Y-0.419 Z-0.500 I6.801 J-12.397 K0.000 F50.000
G2 X-16.562 Y-2.269 Z-0.500 I-1.997 J0.095 K0.000 F50.000
G3 X-18.596 Y-3.273 Z-0.500 I-0.517 J-1.515 K0.000 F50.000
G3 X-17.586 Y-5.303 Z-0.500 I1.517 J-0.512 K0.000 F50.000
G3 X-15.930 Y-4.916 Z-0.500 I0.504 J1.575 K0.000 F50.000
G2 X-12.908 Y-5.674 Z-0.500 I1.205 J-1.598 K0.000 F50.000
G3 X-11.313 Y-8.432 Z-0.500 I13.670 J6.069 K0.000 F50.000
G2 X-12.265 Y-11.358 Z-0.500 I-1.690 J-1.068 K0.000 F50.000
G3 X-13.356 Y-13.347 Z-0.500 I0.446 J-1.538 K0.000 F50.000
G3 X-11.364 Y-14.431 Z-0.500 I1.536 J0.451 K0.000 F50.000
G3 X-10.230 Y-13.164 Z-0.500 I-0.490 J1.580 K0.000 F50.000
G2 X-7.327 Y-12.047 Z-0.500 I1.904 J-0.617 K0.000 F50.000
G3 X7.414 Y-12.004 Z-0.500 I7.336 J12.089 K0.000 F50.000
G2 X10.246 Y-13.209 Z-0.500 I0.916 J-1.777 K0.000 F50.000
G3 X12.440 Y-14.374 Z-0.500 I1.577 J0.321 K0.000 F50.000
G3 X12.222 Y-11.338 Z-0.500 I-0.631 J1.481 K0.000 F50.000
G2 X11.368 Y-8.342 Z-0.500 I0.781 J1.843 K0.000 F50.000
G3 X12.959 Y-5.581 Z-0.500 I-12.091 J8.805 K0.000 F50.000
G2 X13.434 Y-4.987 Z-0.500 I1.770 J-0.930 K0.000 F50.000
G0 Z5.000
G0 X10.217 Y-3.793 Z5.000
G0 X10.217 Y-3.793 Z3.000
G1 X10.217 Y-3.793 Z-0.500 F50.000
G3 X2.093 Y10.695 Z-0.500 I-10.217 J3.793 K0.000 F50.000
G3 X-2.093 Y-10.695 Z-0.500 I-2.093 J-10.695 K0.000 F50.000
G3 X10.217 Y-3.793 Z-0.500 I2.093 J10.695 K0.000 F50.000
G0 Z5.000
G0 X9.280 Y-3.445 Z5.000
G0 X9.280 Y-3.445 Z3.000
G1 X9.280 Y-3.445 Z-0.500 F50.000
G3 X1.864 Y9.722 Z-0.500 I-9.280 J3.445 K0.000 F50.000
G3 X-1.864 Y-9.722 Z-0.500 I-1.864 J-9.722 K0.000 F50.000
G3 X9.280 Y-3.445 Z-0.500 I1.864 J9.722 K0.000 F50.000
G0 Z5.000
G0 X8.528 Y-8.995 Z5.000
G0 X8.528 Y-8.995 Z3.000
G1 X8.528 Y-8.995 Z-0.500 F50.000
G2 X8.212 Y-9.286 Z-0.500 I-2.783 J2.699 K0.000 F50.000
G2 X8.515 Y-9.288 Z-0.500 I0.143 J-1.128 K0.000 F50.000
G2 X8.528 Y-8.995 Z-0.500 I1.099 J0.098 K0.000 F50.000
G0 Z5.000
G0 X-8.221 Y-9.279 Z5.000
G0 X-8.221 Y-9.279 Z3.000
G1 X-8.221 Y-9.279 Z-0.500 F50.000
G2 X-8.536 Y-8.987 Z-0.500 I2.869 J3.411 K0.000 F50.000
G2 X-8.511 Y-9.292 Z-0.500 I-1.123 J-0.244 K0.000 F50.000
G2 X-8.221 Y-9.279 Z-0.500 I0.193 J-1.074 K0.000 F50.000
G0 Z5.000
G0 X-12.048 Y-2.893 Z5.000
G0 X-12.048 Y-2.893 Z3.000
G1 X-12.048 Y-2.893 Z-0.500 F50.000
G1 X-12.148 Y-2.469 Z-0.500 F50.000
G2 X-12.301 Y-2.730 Z-0.500 I-1.050 J0.441 K0.000 F50.000
G2 X-12.048 Y-2.893 Z-0.500 I-0.479 J-1.024 K0.000 F50.000
G0 Z5.000
G0 X-3.932 Y11.750 Z5.000
G0 X-3.932 Y11.750 Z3.000
G1 X-3.932 Y11.750 Z-0.500 F50.000
G2 X-3.519 Y11.887 Z-0.500 I1.687 J-4.396 K0.000 F50.000
G2 X-3.792 Y12.017 Z-0.500 I0.346 J1.080 K0.000 F50.000
G2 X-3.932 Y11.750 Z-0.500 I-1.062 J0.388 K0.000 F50.000
G0 Z5.000
G0 X3.529 Y11.884 Z5.000
G0 X3.529 Y11.884 Z3.000
G1 X3.529 Y11.884 Z-0.500 F50.000
G2 X3.942 Y11.747 Z-0.500 I-1.278 J-4.527 K0.000 F50.000
G2 X3.787 Y12.018 Z-0.500 I0.933 J0.713 K0.000 F50.000
G2 X3.529 Y11.884 Z-0.500 I-0.628 J0.891 K0.000 F50.000
G1 X3.529 Y11.884 Z-0.750 F50.000
G2 X3.942 Y11.747 Z-0.750 I-1.278 J-4.527 K0.000 F50.000
G2 X3.787 Y12.018 Z-0.750 I0.933 J0.713 K0.000 F50.000
G2 X3.529 Y11.884 Z-0.750 I-0.628 J0.891 K0.000 F50.000
G0 Z5.000
G0 X3.387 Y11.405 Z5.000
G0 X3.387 Y11.405 Z3.000
G1 X3.387 Y11.405 Z-0.750 F50.000
G3 X0.960 Y11.859 Z-0.750 I-3.387 J-11.405 K0.000 F50.000
G3 X-0.960 Y-11.859 Z-0.750 I-0.960 J-11.859 K0.000 F50.000
G3 X3.387 Y11.405 Z-0.750 I0.960 J11.859 K0.000 F50.000
G0 Z5.000
G0 X3.081 Y12.251 Z5.000
G0 X3.081 Y12.251 Z3.000
G1 X3.081 Y12.251 Z-0.750 F50.000
G2 X1.379 Y12.023 Z-0.750 I-1.376 J3.800 K0.000 F50.000
G3 X-1.698 Y12.014 Z-0.750 I-1.492 J-16.424 K0.000 F50.000
G2 X-4.015 Y12.737 Z-0.750 I-0.034 J3.963 K0.000 F50.000
G2 X-5.742 Y10.653 Z-0.750 I-3.794 J1.389 K0.000 F50.000
G3 X-12.097 Y-0.354 Z-0.750 I5.768 J-10.668 K0.000 F50.000
G2 X-13.038 Y-2.889 Z-0.750 I-4.011 J0.046 K0.000 F50.000
G2 X-11.101 Y-4.817 Z-0.750 I-1.715 J-3.659 K0.000 F50.000
G3 X-9.555 Y-7.478 Z-0.750 I14.969 J6.920 K0.000 F50.000
G2 X-9.023 Y-9.845 Z-0.750 I-3.415 J-2.011 K0.000 F50.000
G2 X-6.355 Y-10.300 Z-0.750 I0.694 J-3.981 K0.000 F50.000
G3 X2.181 Y-11.900 Z-0.750 I6.355 J10.333 K0.000 F50.000
G3 X6.355 Y-10.300 Z-0.750 I-2.226 J12.051 K0.000 F50.000
G2 X9.021 Y-9.847 Z-0.750 I1.966 J-3.497 K0.000 F50.000
G2 X9.722 Y-7.205 Z-0.750 I4.026 J0.345 K0.000 F50.000
G3 X11.253 Y-4.536 Z-0.750 I-13.477 J9.504 K0.000 F50.000
G2 X13.037 Y-2.892 Z-0.750 I3.450 J-1.952 K0.000 F50.000
G2 X12.097 Y-0.354 Z-0.750 I3.100 J2.592 K0.000 F50.000
G3 X5.742 Y10.653 Z-0.750 I-12.123 J0.339 K0.000 F50.000
G2 X4.017 Y12.736 Z-0.750 I2.045 J3.451 K0.000 F50.000
G2 X3.081 Y12.251 Z-0.750 I-2.312 J3.315 K0.000 F50.000
G0 Z5.000
G0 X2.743 Y13.193 Z5.000
G0 X2.743 Y13.193 Z3.000
G1 X2.743 Y13.193 Z-0.750 F50.000
G2 X1.459 Y13.019 Z-0.750 I-1.051 J2.933 K0.000 F50.000
G3 X-1.672 Y13.013 Z-0.750 I-1.536 J-16.070 K0.000 F50.000
G2 X-4.699 Y16.406 Z-0.750 I-0.053 J2.999 K0.000 F50.000
G3 X-5.041 Y17.240 Z-0.750 I-0.604 J0.239 K0.000 F50.000
G3 X-5.739 Y16.338 Z-0.750 I-0.222 J-0.550 K0.000 F50.000
G2 X-5.063 Y12.816 Z-0.750 I-2.086 J-2.226 K0.000 F50.000
G2 X-6.256 Y11.511 Z-0.750 I-2.751 J1.318 K0.000 F50.000
G3 X-13.082 Y0.676 Z-0.750 I6.268 J-11.516 K0.000 F50.000
G2 X-13.140 Y-0.796 Z-0.750 I-8.194 J-0.413 K0.000 F50.000
G2 X-16.753 Y-3.251 Z-0.750 I-2.962 J0.473 K0.000 F50.000
G3 X-17.613 Y-3.519 Z-0.750 I-0.291 J-0.581 K0.000 F50.000
G3 X-16.776 Y-4.293 Z-0.750 I0.528 J-0.269 K0.000 F50.000
G2 X-13.209 Y-3.926 Z-0.750 I2.036 J-2.272 K0.000 F50.000
G2 X-12.005 Y-5.246 Z-0.750 I-1.603 J-2.671 K0.000 F50.000
G3 X-10.434 Y-7.955 Z-0.750 I14.685 J6.705 K0.000 F50.000
G2 X-11.859 Y-12.272 Z-0.750 I-2.570 J-1.545 K0.000 F50.000
G3 X-12.410 Y-12.985 Z-0.750 I0.095 J-0.642 K0.000 F50.000
G3 X-11.279 Y-13.139 Z-0.750 I0.587 J0.083 K0.000 F50.000
G2 X-8.568 Y-10.792 Z-0.750 I2.971 J-0.693 K0.000 F50.000
G2 X-6.841 Y-11.174 Z-0.750 I0.234 J-3.042 K0.000 F50.000
G3 X5.955 Y-11.667 Z-0.750 I6.839 J11.186 K0.000 F50.000
G2 X7.260 Y-10.981 Z-0.750 I4.455 J-6.890 K0.000 F50.000
G2 X11.192 Y-12.883 Z-0.750 I1.071 J-2.802 K0.000 F50.000
G3 X11.854 Y-13.494 Z-0.750 I0.648 J0.038 K0.000 F50.000
G3 X12.106 Y-12.381 Z-0.750 I-0.031 J0.592 K0.000 F50.000
G2 X10.005 Y-9.476 Z-0.750 I0.950 J2.899 K0.000 F50.000
G2 X10.545 Y-7.773 Z-0.750 I3.115 J-0.052 K0.000 F50.000
G3 X12.106 Y-5.058 Z-0.750 I-13.149 J9.365 K0.000 F50.000
G2 X16.557 Y-4.134 Z-0.750 I2.623 J-1.453 K0.000 F50.000
G3 X17.450 Y-4.255 Z-0.750 I0.509 J0.403 K0.000 F50.000
G3 X17.018 Y-3.199 Z-0.750 I-0.365 J0.467 K0.000 F50.000
G2 X13.630 Y-2.024 Z-0.750 I-0.885 J2.920 K0.000 F50.000
G2 X13.097 Y-0.338 Z-0.750 I2.518 J1.724 K0.000 F50.000
G3 X7.126 Y10.991 Z-0.750 I-13.107 J0.330 K0.000 F50.000
G2 X5.880 Y11.778 Z-0.750 I3.739 J7.303 K0.000 F50.000
G2 X5.561 Y16.134 Z-0.750 I1.891 J2.328 K0.000 F50.000
G3 X5.759 Y17.013 Z-0.750 I-0.357 J0.542 K0.000 F50.000
G3 X4.670 Y16.675 Z-0.750 I-0.497 J-0.323 K0.000 F50.000
G2 X3.204 Y13.402 Z-0.750 I-2.986 J-0.627 K0.000 F50.000
G2 X2.743 Y13.193 Z-0.750 I-1.512 J2.724 K0.000 F50.000
G0 Z5.000
G0 X2.404 Y14.128 Z5.000
G0 X2.404 Y14.128 Z3.000
G1 X2.404 Y14.128 Z-0.750 F50.000
G2 X1.540 Y14.016 Z-0.750 I-0.683 J1.881 K0.000 F50.000
G3 X-1.646 Y14.013 Z-0.750 I-1.580 J-14.873 K0.000 F50.000
G2 X-3.704 Y16.301 Z-0.750 I-0.080 J1.998 K0.000 F50.000
G3 X-4.881 Y18.240 Z-0.750 I-1.555 J0.383 K0.000 F50.000
G3 X-6.816 Y17.057 Z-0.750 I-0.378 J-1.556 K0.000 F50.000
G3 X-6.286 Y15.441 Z-0.750 I1.613 J-0.365 K0.000 F50.000
G2 X-6.770 Y12.369 Z-0.750 I-1.487 J-1.340 K0.000 F50.000
G3 X-14.103 Y-0.419 Z-0.750 I6.801 J-12.397 K0.000 F50.000
G2 X-16.562 Y-2.269 Z-0.750 I-1.997 J0.095 K0.000 F50.000
G3 X-18.596 Y-3.273 Z-0.750 I-0.517 J-1.515 K0.000 F50.000
G3 X-17.586 Y-5.303 Z-0.750 I1.517 J-0.512 K0.000 F50.000
G3 X-15.930 Y-4.916 Z-0.750 I0.504 J1.575 K0.000 F50.000
G2 X-12.908 Y-5.674 Z-0.750 I1.205 J-1.598 K0.000 F50.000
G3 X-11.313 Y-8.432 Z-0.750 I13.670 J6.069 K0.000 F50.000
G2 X-12.265 Y-11.358 Z-0.750 I-1.690 J-1.068 K0.000 F50.000
G3 X-13.356 Y-13.347 Z-0.750 I0.446 J-1.538 K0.000 F50.000
G3 X-11.364 Y-14.431 Z-0.750 I1.536 J0.451 K0.000 F50.000
G3 X-10.230 Y-13.164 Z-0.750 I-0.490 J1.580 K0.000 F50.000
G2 X-7.327 Y-12.047 Z-0.750 I1.904 J-0.617 K0.000 F50.000
G3 X7.414 Y-12.004 Z-0.750 I7.336 J12.089 K0.000 F50.000
G2 X10.246 Y-13.209 Z-0.750 I0.916 J-1.777 K0.000 F50.000
G3 X12.440 Y-14.374 Z-0.750 I1.577 J0.321 K0.000 F50.000
G3 X12.222 Y-11.338 Z-0.750 I-0.631 J1.481 K0.000 F50.000
G2 X11.368 Y-8.342 Z-0.750 I0.781 J1.843 K0.000 F50.000
G3 X12.959 Y-5.581 Z-0.750 I-12.091 J8.805 K0.000 F50.000
G2 X15.969 Y-4.943 Z-0.750 I1.770 J-0.930 K0.000 F50.000
G3 X18.237 Y-4.893 Z-0.750 I1.109 J1.155 K0.000 F50.000
G3 X18.180 Y-2.626 Z-0.750 I-1.159 J1.105 K0.000 F50.000
G3 X16.515 Y-2.277 Z-0.750 I-1.123 J-1.215 K0.000 F50.000
G2 X14.097 Y-0.322 Z-0.750 I-0.417 J1.957 K0.000 F50.000
G3 X6.689 Y12.423 Z-0.750 I-14.137 J0.308 K0.000 F50.000
G2 X6.316 Y15.478 Z-0.750 I1.081 J1.682 K0.000 F50.000
G3 X6.464 Y17.741 Z-0.750 I-1.054 J1.205 K0.000 F50.000
G3 X4.200 Y17.882 Z-0.750 I-1.202 J-1.058 K0.000 F50.000
G3 X3.708 Y16.254 Z-0.750 I1.112 J-1.224 K0.000 F50.000
G2 X2.404 Y14.128 Z-0.750 I-1.986 J-0.245 K0.000 F50.000
G0 Z5.000
G0 X1.828 Y10.744 Z5.000
G0 X1.828 Y10.744 Z3.000
G1 X1.828 Y10.744 Z-0.750 F50.000
G3 X-2.093 Y-10.695 Z-0.750 I-1.828 J-10.744 K0.000 F50.000
G3 X10.695 Y-2.093 Z-0.750 I2.093 J10.695 K0.000 F50.000
G3 X2.093 Y10.695 Z-0.750 I-10.695 J2.093 K0.000 F50.000
G3 X1.828 Y10.744 Z-0.750 I-2.093 J-10.695 K0.000 F50.000
G0 Z5.000
G0 X1.661 Y9.759 Z5.000
G0 X1.661 Y9.759 Z3.000
G1 X1.661 Y9.759 Z-0.750 F50.000
G3 X-1.864 Y-9.722 Z-0.750 I-1.661 J-9.759 K0.000 F50.000
G3 X9.722 Y-1.864 Z-0.750 I1.864 J9.722 K0.000 F50.000
G3 X1.864 Y9.722 Z-0.750 I-9.722 J1.864 K0.000 F50.000
G3 X1.661 Y9.759 Z-0.750 I-1.864 J-9.722 K0.000 F50.000
G0 Z5.000
G0 X-3.519 Y11.887 Z5.000
G0 X-3.519 Y11.887 Z3.000
G1 X-3.519 Y11.887 Z-0.750 F50.000
G2 X-3.792 Y12.017 Z-0.750 I0.346 J1.080 K0.000 F50.000
G2 X-3.932 Y11.750 Z-0.750 I-1.062 J0.388 K0.000 F50.000
G2 X-3.519 Y11.887 Z-0.750 I1.687 J-4.396 K0.000 F50.000
G0 Z5.000
G0 X-12.148 Y-2.469 Z5.000
G0 X-12.148 Y-2.469 Z3.000
G1 X-12.148 Y-2.469 Z-0.750 F50.000
G2 X-12.301 Y-2.730 Z-0.750 I-1.050 J0.441 K0.000 F50.000
G2 X-12.048 Y-2.893 Z-0.750 I-0.479 J-1.024 K0.000 F50.000
G1 X-12.148 Y-2.469 Z-0.750 F50.000
G0 Z5.000
G0 X-8.536 Y-8.987 Z5.000
G0 X-8.536 Y-8.987 Z3.000
G1 X-8.536 Y-8.987 Z-0.750 F50.000
G2 X-8.511 Y-9.292 Z-0.750 I-1.123 J-0.244 K0.000 F50.000
G2 X-8.221 Y-9.279 Z-0.750 I0.193 J-1.074 K0.000 F50.000
G2 X-8.536 Y-8.987 Z-0.750 I2.869 J3.411 K0.000 F50.000
G0 Z5.000
G0 X8.212 Y-9.286 Z5.000
G0 X8.212 Y-9.286 Z3.000
G1 X8.212 Y-9.286 Z-0.750 F50.000
G2 X8.515 Y-9.288 Z-0.750 I0.143 J-1.128 K0.000 F50.000
G2 X8.528 Y-8.995 Z-0.750 I1.099 J0.098 K0.000 F50.000
G2 X8.212 Y-9.286 Z-0.750 I-2.783 J2.699 K0.000 F50.000
G0 Z5.000
G0 X12.046 Y-2.903 Z5.000
G0 X12.046 Y-2.903 Z3.000
G1 X12.046 Y-2.903 Z-0.750 F50.000
G2 X12.303 Y-2.725 Z-0.750 I0.790 J-0.867 K0.000 F50.000
G2 X12.146 Y-2.478 Z-0.750 I0.838 J0.707 K0.000 F50.000
G1 X12.046 Y-2.903 Z-0.750 F50.000
G1 X12.046 Y-2.903 Z-1.000 F50.000
G2 X12.303 Y-2.725 Z-1.000 I0.790 J-0.867 K0.000 F50.000
G2 X12.146 Y-2.478 Z-1.000 I0.838 J0.707 K0.000 F50.000
G1 X12.046 Y-2.903 Z-1.000 F50.000
G0 Z5.000
G0 X11.567 Y-2.787 Z5.000
G0 X11.567 Y-2.787 Z3.000
G1 X11.567 Y-2.787 Z-1.000 F50.000
G3 X0.960 Y11.859 Z-1.000 I-11.567 J2.787 K0.000 F50.000
G3 X-0.960 Y-11.859 Z-1.000 I-0.960 J-11.859 K0.000 F50.000
G3 X11.567 Y-2.787 Z-1.000 I0.960 J11.859 K0.000 F50.000
G0 Z5.000
G0 X12.141 Y-3.464 Z5.000
G0 X12.141 Y-3.464 Z3.000
G1 X12.141 Y-3.464 Z-1.000 F50.000
G2 X13.037 Y-2.892 Z-1.000 I2.562 J-3.024 K0.000 F50.000
G2 X12.097 Y-0.354 Z-1.000 I3.100 J2.592 K0.000 F50.000
G3 X5.742 Y10.653 Z-1.000 I-12.123 J0.339 K0.000 F50.000
G2 X4.017 Y12.736 Z-1.000 I2.045 J3.451 K0.000 F50.000
G2 X1.379 Y12.023 Z-1.000 I-2.312 J3.315 K0.000 F50.000
G3 X-1.698 Y12.014 Z-1.000 I-1.492 J-16.424 K0.000 F50.000
G2 X-4.015 Y12.737 Z-1.000 I-0.034 J3.963 K0.000 F50.000
G2 X-5.742 Y10.653 Z-1.000 I-3.794 J1.389 K0.000 F50.000
G3 X-12.097 Y-0.354 Z-1.000 I5.768 J-10.668 K0.000 F50.000
G2 X-13.038 Y-2.889 Z-1.000 I-4.011 J0.046 K0.000 F50.000
G2 X-11.101 Y-4.817 Z-1.000 I-1.715 J-3.659 K0.000 F50.000
G3 X-9.555 Y-7.478 Z-1.000 I14.969 J6.920 K0.000 F50.000
G2 X-9.023 Y-9.845 Z-1.000 I-3.415 J-2.011 K0.000 F50.000
G2 X-6.355 Y-10.300 Z-1.000 I0.694 J-3.981 K0.000 F50.000
G3 X2.181 Y-11.900 Z-1.000 I6.355 J10.333 K0.000 F50.000
G3 X6.355 Y-10.300 Z-1.000 I-2.226 J12.051 K0.000 F50.000
G2 X9.021 Y-9.847 Z-1.000 I1.966 J-3.497 K0.000 F50.000
G2 X9.722 Y-7.205 Z-1.000 I4.026 J0.345 K0.000 F50.000
G3 X11.253 Y-4.536 Z-1.000 I-13.477 J9.504 K0.000 F50.000
G2 X12.141 Y-3.464 Z-1.000 I3.450 J-1.952 K0.000 F50.000
G0 Z5.000
G0 X12.788 Y-4.226 Z5.000
G0 X12.788 Y-4.226 Z3.000
G1 X12.788 Y-4.226 Z-1.000 F50.000
G2 X16.557 Y-4.134 Z-1.000 I1.942 J-2.286 K0.000 F50.000
G3 X17.450 Y-4.255 Z-1.000 I0.509 J0.403 K0.000 F50.000
G3 X17.018 Y-3.199 Z-1.000 I-0.365 J0.467 K0.000 F50.000
G2 X13.630 Y-2.024 Z-1.000 I-0.885 J2.920 K0.000 F50.000
G2 X13.097 Y-0.338 Z-1.000 I2.518 J1.724 K0.000 F50.000
G3 X7.126 Y10.991 Z-1.000 I-13.107 J0.330 K0.000 F50.000
G2 X5.880 Y11.778 Z-1.000 I3.739 J7.303 K0.000 F50.000
G2 X5.561 Y16.134 Z-1.000 I1.891 J2.328 K0.000 F50.000
G3 X5.759 Y17.013 Z-1.000 I-0.357 J0.542 K0.000 F50.000
G3 X4.670 Y16.675 Z-1.000 I-0.497 J-0.323 K0.000 F50.000
G2 X3.204 Y13.402 Z-1.000 I-2.986 J-0.627 K0.000 F50.000
G2 X1.459 Y13.019 Z-1.000 I-1.512 J2.724 K0.000 F50.000
G3 X-1.672 Y13.013 Z-1.000 I-1.536 J-16.070 K0.000 F50.000
G2 X-4.699 Y16.406 Z-1.000 I-0.053 J2.999 K0.000 F50.000
G3 X-5.041 Y17.240 Z-1.000 I-0.604 J0.239 K0.000 F50.000
G3 X-5.739 Y16.338 Z-1.000 I-0.222 J-0.550 K0.000 F50.000
G2 X-5.063 Y12.816 Z-1.000 I-2.086 J-2.226 K0.000 F50.000
G2 X-6.256 Y11.511 Z-1.000 I-2.751 J1.318 K0.000 F50.000
G3 X-13.082 Y0.676 Z-1.000 I6.268 J-11.516 K0.000 F50.000
G2 X-13.140 Y-0.796 Z-1.000 I-8.194 J-0.413 K0.000 F50.000
G2 X-16.753 Y-3.251 Z-1.000 I-2.962 J0.473 K0.000 F50.000
G3 X-17.613 Y-3.519 Z-1.000 I-0.291 J-0.581 K0.000 F50.000
G3 X-16.776 Y-4.293 Z-1.000 I0.528 J-0.269 K0.000 F50.000
G2 X-13.209 Y-3.926 Z-1.000 I2.036 J-2.272 K0.000 F50.000
G2 X-12.005 Y-5.246 Z-1.000 I-1.603 J-2.671 K0.000 F50.000
G3 X-10.434 Y-7.955 Z-1.000 I14.685 J6.705 K0.000 F50.000
G2 X-11.859 Y-12.272 Z-1.000 I-2.570 J-1.545 K0.000 F50.000
G3 X-12.410 Y-12.985 Z-1.000 I0.095 J-0.642 K0.000 F50.000
G3 X-11.279 Y-13.139 Z-1.000 I0.587 J0.083 K0.000 F50.000
G2 X-8.568 Y-10.792 Z-1.000 I2.971 J-0.693 K0.000 F50.000
G2 X-6.841 Y-11.174 Z-1.000 I0.234 J-3.042 K0.000 F50.000
G3 X5.955 Y-11.667 Z-1.000 I6.839 J11.186 K0.000 F50.000
G2 X7.260 Y-10.981 Z-1.000 I4.455 J-6.890 K0.000 F50.000
G2 X11.192 Y-12.883 Z-1.000 I1.071 J-2.802 K0.000 F50.000
G3 X11.854 Y-13.494 Z-1.000 I0.648 J0.038 K0.000 F50.000
G3 X12.106 Y-12.381 Z-1.000 I-0.031 J0.592 K0.000 F50.000
G2 X10.005 Y-9.476 Z-1.000 I0.950 J2.899 K0.000 F50.000
G2 X10.545 Y-7.773 Z-1.000 I3.115 J-0.052 K0.000 F50.000
G3 X12.106 Y-5.058 Z-1.000 I-13.149 J9.365 K0.000 F50.000
G2 X12.788 Y-4.226 Z-1.000 I2.623 J-1.453 K0.000 F50.000
G0 Z5.000
G0 X13.434 Y-4.987 Z5.000
G0 X13.434 Y-4.987 Z3.000
G1 X13.434 Y-4.987 Z-1.000 F50.000
G2 X15.969 Y-4.943 Z-1.000 I1.295 J-1.524 K0.000 F50.000
G3 X18.237 Y-4.893 Z-1.000 I1.109 J1.155 K0.000 F50.000
G3 X18.180 Y-2.626 Z-1.000 I-1.159 J1.105 K0.000 F50.000
G3 X16.515 Y-2.277 Z-1.000 I-1.123 J-1.215 K0.000 F50.000
G2 X14.097 Y-0.322 Z-1.000 I-0.417 J1.957 K0.000 F50.000
G3 X6.689 Y12.423 Z-1.000 I-14.137 J0.308 K0.000 F50.000
G2 X6.316 Y15.478 Z-1.000 I1.081 J1.682 K0.000 F50.000
G3 X6.464 Y17.741 Z-1.000 I-1.054 J1.205 K0.000 F50.000
G3 X4.200 Y17.882 Z-1.000 I-1.202 J-1.058 K0.000 F50.000
G3 X3.708 Y16.254 Z-1.000 I1.112 J-1.224 K0.000 F50.000
G2 X1.540 Y14.016 Z-1.000 I-1.986 J-0.245 K0.000 F50.000
G3 X-1.646 Y14.013 Z-1.000 I-1.580 J-14.873 K0.000 F50.000
G2 X-3.704 Y16.301 Z-1.000 I-0.080 J1.998 K0.000 F50.000
G3 X-4.881 Y18.240 Z-1.000 I-1.555 J0.383 K0.000 F50.000
G3 X-6.816 Y17.057 Z-1.000 I-0.378 J-1.556 K0.000 F50.000
G3 X-6.286 Y15.441 Z-1.000 I1.613 J-0.365 K0.000 F50.000
G2 X-6.770 Y12.369 Z-1.000 I-1.487 J-1.340 K0.000 F50.000
G3 X-14.103 Y-0.419 Z-1.000 I6.801 J-12.397 K0.000 F50.000
G2 X-16.562 Y-2.269 Z-1.000 I-1.997 J0.095 K0.000 F50.000
G3 X-18.596 Y-3.273 Z-1.000 I-0.517 J-1.515 K0.000 F50.000
G3 X-17.586 Y-5.303 Z-1.000 I1.517 J-0.512 K0.000 F50.000
G3 X-15.930 Y-4.916 Z-1.000 I0.504 J1.575 K0.000 F50.000
G2 X-12.908 Y-5.674 Z-1.000 I1.205 J-1.598 K0.000 F50.000
G3 X-11.313 Y-8.432 Z-1.000 I13.670 J6.069 K0.000 F50.000
G2 X-12.265 Y-11.358 Z-1.000 I-1.690 J-1.068 K0.000 F50.000
G3 X-13.356 Y-13.347 Z-1.000 I0.446 J-1.538 K0.000 F50.000
G3 X-11.364 Y-14.431 Z-1.000 I1.536 J0.451 K0.000 F50.000
G3 X-10.230 Y-13.164 Z-1.000 I-0.490 J1.580 K0.000 F50.000
G2 X-7.327 Y-12.047 Z-1.000 I1.904 J-0.617 K0.000 F50.000
G3 X7.414 Y-12.004 Z-1.000 I7.336 J12.089 K0.000 F50.000
G2 X10.246 Y-13.209 Z-1.000 I0.916 J-1.777 K0.000 F50.000
G3 X12.440 Y-14.374 Z-1.000 I1.577 J0.321 K0.000 F50.000
G3 X12.222 Y-11.338 Z-1.000 I-0.631 J1.481 K0.000 F50.000
G2 X11.368 Y-8.342 Z-1.000 I0.781 J1.843 K0.000 F50.000
G3 X12.959 Y-5.581 Z-1.000 I-12.091 J8.805 K0.000 F50.000
G2 X13.434 Y-4.987 Z-1.000 I1.770 J-0.930 K0.000 F50.000
G0 Z5.000
G0 X10.217 Y-3.793 Z5.000
G0 X10.217 Y-3.793 Z3.000
G1 X10.217 Y-3.793 Z-1.000 F50.000
G3 X2.093 Y10.695 Z-1.000 I-10.217 J3.793 K0.000 F50.000
G3 X-2.093 Y-10.695 Z-1.000 I-2.093 J-10.695 K0.000 F50.000
G3 X10.217 Y-3.793 Z-1.000 I2.093 J10.695 K0.000 F50.000
G0 Z5.000
G0 X9.280 Y-3.445 Z5.000
G0 X9.280 Y-3.445 Z3.000
G1 X9.280 Y-3.445 Z-1.000 F50.000
G3 X1.864 Y9.722 Z-1.000 I-9.280 J3.445 K0.000 F50.000
G3 X-1.864 Y-9.722 Z-1.000 I-1.864 J-9.722 K0.000 F50.000
G3 X9.280 Y-3.445 Z-1.000 I1.864 J9.722 K0.000 F50.000
G0 Z5.000
G0 X8.528 Y-8.995 Z5.000
G0 X8.528 Y-8.995 Z3.000
G1 X8.528 Y-8.995 Z-1.000 F50.000
G2 X8.212 Y-9.286 Z-1.000 I-2.783 J2.699 K0.000 F50.000
G2 X8.515 Y-9.288 Z-1.000 I0.143 J-1.128 K0.000 F50.000
G2 X8.528 Y-8.995 Z-1.000 I1.099 J0.098 K0.000 F50.000
G0 Z5.000
G0 X-8.221 Y-9.279 Z5.000
G0 X-8.221 Y-9.279 Z3.000
G1 X-8.221 Y-9.279 Z-1.000 F50.000
G2 X-8.536 Y-8.987 Z-1.000 I2.869 J3.411 K0.000 F50.000
G2 X-8.511 Y-9.292 Z-1.000 I-1.123 J-0.244 K0.000 F50.000
G2 X-8.221 Y-9.279 Z-1.000 I0.193 J-1.074 K0.000 F50.000
G0 Z5.000
G0 X-12.048 Y-2.893 Z5.000
G0 X-12.048 Y-2.893 Z3.000
G1 X-12.048 Y-2.893 Z-1.000 F50.000
G1 X-12.148 Y-2.469 Z-1.000 F50.000
G2 X-12.301 Y-2.730 Z-1.000 I-1.050 J0.441 K0.000 F50.000
G2 X-12.048 Y-2.893 Z-1.000 I-0.479 J-1.024 K0.000 F50.000
G0 Z5.000
G0 X-3.932 Y11.750 Z5.000
G0 X-3.932 Y11.750 Z3.000
G1 X-3.932 Y11.750 Z-1.000 F50.000
G2 X-3.519 Y11.887 Z-1.000 I1.687 J-4.396 K0.000 F50.000
G2 X-3.792 Y12.017 Z-1.000 I0.346 J1.080 K0.000 F50.000
G2 X-3.932 Y11.750 Z-1.000 I-1.062 J0.388 K0.000 F50.000
G0 Z5.000
G0 X3.529 Y11.884 Z5.000
G0 X3.529 Y11.884 Z3.000
G1 X3.529 Y11.884 Z-1.000 F50.000
G2 X3.942 Y11.747 Z-1.000 I-1.278 J-4.527 K0.000 F50.000
G2 X3.787 Y12.018 Z-1.000 I0.933 J0.713 K0.000 F50.000
G2 X3.529 Y11.884 Z-1.000 I-0.628 J0.891 K0.000 F50.000
G1 X3.529 Y11.884 Z-1.250 F50.000
G2 X3.942 Y11.747 Z-1.250 I-1.278 J-4.527 K0.000 F50.000
G2 X3.787 Y12.018 Z-1.250 I0.933 J0.713 K0.000 F50.000
G2 X3.529 Y11.884 Z-1.250 I-0.628 J0.891 K0.000 F50.000
G0 Z5.000
G0 X3.387 Y11.405 Z5.000
G0 X3.387 Y11.405 Z3.000
G1 X3.387 Y11.405 Z-1.250 F50.000
G3 X0.960 Y11.859 Z-1.250 I-3.387 J-11.405 K0.000 F50.000
G3 X-0.960 Y-11.859 Z-1.250 I-0.960 J-11.859 K0.000 F50.000
G3 X3.387 Y11.405 Z-1.250 I0.960 J11.859 K0.000 F50.000
G0 Z5.000
G0 X3.081 Y12.251 Z5.000
G0 X3.081 Y12.251 Z3.000
G1 X3.081 Y12.251 Z-1.250 F50.000
G2 X1.379 Y12.023 Z-1.250 I-1.376 J3.800 K0.000 F50.000
G3 X-1.698 Y12.014 Z-1.250 I-1.492 J-16.424 K0.000 F50.000
G2 X-4.015 Y12.737 Z-1.250 I-0.034 J3.963 K0.000 F50.000
G2 X-5.742 Y10.653 Z-1.250 I-3.794 J1.389 K0.000 F50.000
G3 X-12.097 Y-0.354 Z-1.250 I5.768 J-10.668 K0.000 F50.000
G2 X-13.038 Y-2.889 Z-1.250 I-4.011 J0.046 K0.000 F50.000
G2 X-11.101 Y-4.817 Z-1.250 I-1.715 J-3.659 K0.000 F50.000
G3 X-9.555 Y-7.478 Z-1.250 I14.969 J6.920 K0.000 F50.000
G2 X-9.023 Y-9.845 Z-1.250 I-3.415 J-2.011 K0.000 F50.000
G2 X-6.355 Y-10.300 Z-1.250 I0.694 J-3.981 K0.000 F50.000
G3 X2.181 Y-11.900 Z-1.250 I6.355 J10.333 K0.000 F50.000
G3 X6.355 Y-10.300 Z-1.250 I-2.226 J12.051 K0.000 F50.000
G2 X9.021 Y-9.847 Z-1.250 I1.966 J-3.497 K0.000 F50.000
G2 X9.722 Y-7.205 Z-1.250 I4.026 J0.345 K0.000 F50.000
G3 X11.253 Y-4.536 Z-1.250 I-13.477 J9.504 K0.000 F50.000
G2 X13.037 Y-2.892 Z-1.250 I3.450 J-1.952 K0.000 F50.000
G2 X12.097 Y-0.354 Z-1.250 I3.100 J2.592 K0.000 F50.000
G3 X5.742 Y10.653 Z-1.250 I-12.123 J0.339 K0.000 F50.000
G2 X4.017 Y12.736 Z-1.250 I2.045 J3.451 K0.000 F50.000
G2 X3.081 Y12.251 Z-1.250 I-2.312 J3.315 K0.000 F50.000
G0 Z5.000
G0 X2.743 Y13.193 Z5.000
G0 X2.743 Y13.193 Z3.000
G1 X2.743 Y13.193 Z-1.250 F50.000
G2 X1.459 Y13.019 Z-1.250 I-1.051 J2.933 K0.000 F50.000
G3 X-1.672 Y13.013 Z-1.250 I-1.536 J-16.070 K0.000 F50.000
G2 X-4.699 Y16.406 Z-1.250 I-0.053 J2.999 K0.000 F50.000
G3 X-5.041 Y17.240 Z-1.250 I-0.604 J0.239 K0.000 F50.000
G3 X-5.739 Y16.338 Z-1.250 I-0.222 J-0.550 K0.000 F50.000
G2 X-5.063 Y12.816 Z-1.250 I-2.086 J-2.226 K0.000 F50.000
G2 X-6.256 Y11.511 Z-1.250 I-2.751 J1.318 K0.000 F50.000
G3 X-13.082 Y0.676 Z-1.250 I6.268 J-11.516 K0.000 F50.000
G2 X-13.140 Y-0.796 Z-1.250 I-8.194 J-0.413 K0.000 F50.000
G2 X-16.753 Y-3.251 Z-1.250 I-2.962 J0.473 K0.000 F50.000
G3 X-17.613 Y-3.519 Z-1.250 I-0.291 J-0.581 K0.000 F50.000
G3 X-16.776 Y-4.293 Z-1.250 I0.528 J-0.269 K0.000 F50.000
G2 X-13.209 Y-3.926 Z-1.250 I2.036 J-2.272 K0.000 F50.000
G2 X-12.005 Y-5.246 Z-1.250 I-1.603 J-2.671 K0.000 F50.000
G3 X-10.434 Y-7.955 Z-1.250 I14.685 J6.705 K0.000 F50.000
G2 X-11.859 Y-12.272 Z-1.250 I-2.570 J-1.545 K0.000 F50.000
G3 X-12.410 Y-12.985 Z-1.250 I0.095 J-0.642 K0.000 F50.000
G3 X-11.279 Y-13.139 Z-1.250 I0.587 J0.083 K0.000 F50.000
G2 X-8.568 Y-10.792 Z-1.250 I2.971 J-0.693 K0.000 F50.000
G2 X-6.841 Y-11.174 Z-1.250 I0.234 J-3.042 K0.000 F50.000
G3 X5.955 Y-11.667 Z-1.250 I6.839 J11.186 K0.000 F50.000
G2 X7.260 Y-10.981 Z-1.250 I4.455 J-6.890 K0.000 F50.000
G2 X11.192 Y-12.883 Z-1.250 I1.071 J-2.802 K0.000 F50.000
G3 X11.854 Y-13.494 Z-1.250 I0.648 J0.038 K0.000 F50.000
G3 X12.106 Y-12.381 Z-1.250 I-0.031 J0.592 K0.000 F50.000
G2 X10.005 Y-9.476 Z-1.250 I0.950 J2.899 K0.000 F50.000
G2 X10.545 Y-7.773 Z-1.250 I3.115 J-0.052 K0.000 F50.000
G3 X12.106 Y-5.058 Z-1.250 I-13.149 J9.365 K0.000 F50.000
G2 X16.557 Y-4.134 Z-1.250 I2.623 J-1.453 K0.000 F50.000
G3 X17.450 Y-4.255 Z-1.250 I0.509 J0.403 K0.000 F50.000
G3 X17.018 Y-3.199 Z-1.250 I-0.365 J0.467 K0.000 F50.000
G2 X13.630 Y-2.024 Z-1.250 I-0.885 J2.920 K0.000 F50.000
G2 X13.097 Y-0.338 Z-1.250 I2.518 J1.724 K0.000 F50.000
G3 X7.126 Y10.991 Z-1.250 I-13.107 J0.330 K0.000 F50.000
G2 X5.880 Y11.778 Z-1.250 I3.739 J7.303 K0.000 F50.000
G2 X5.561 Y16.134 Z-1.250 I1.891 J2.328 K0.000 F50.000
G3 X5.759 Y17.013 Z-1.250 I-0.357 J0.542 K0.000 F50.000
G3 X4.670 Y16.675 Z-1.250 I-0.497 J-0.323 K0.000 F50.000
G2 X3.204 Y13.402 Z-1.250 I-2.986 J-0.627 K0.000 F50.000
G2 X2.743 Y13.193 Z-1.250 I-1.512 J2.724 K0.000 F50.000
G0 Z5.000
G0 X2.404 Y14.128 Z5.000
G0 X2.404 Y14.128 Z3.000
G1 X2.404 Y14.128 Z-1.250 F50.000
G2 X1.540 Y14.016 Z-1.250 I-0.683 J1.881 K0.000 F50.000
G3 X-1.646 Y14.013 Z-1.250 I-1.580 J-14.873 K0.000 F50.000
G2 X-3.704 Y16.301 Z-1.250 I-0.080 J1.998 K0.000 F50.000
G3 X-4.881 Y18.240 Z-1.250 I-1.555 J0.383 K0.000 F50.000
G3 X-6.816 Y17.057 Z-1.250 I-0.378 J-1.556 K0.000 F50.000
G3 X-6.286 Y15.441 Z-1.250 I1.613 J-0.365 K0.000 F50.000
G2 X-6.770 Y12.369 Z-1.250 I-1.487 J-1.340 K0.000 F50.000
G3 X-14.103 Y-0.419 Z-1.250 I6.801 J-12.397 K0.000 F50.000
G2 X-16.562 Y-2.269 Z-1.250 I-1.997 J0.095 K0.000 F50.000
G3 X-18.596 Y-3.273 Z-1.250 I-0.517 J-1.515 K0.000 F50.000
G3 X-17.586 Y-5.303 Z-1.250 I1.517 J-0.512 K0.000 F50.000
G3 X-15.930 Y-4.916 Z-1.250 I0.504 J1.575 K0.000 F50.000
G2 X-12.908 Y-5.674 Z-1.250 I1.205 J-1.598 K0.000 F50.000
G3 X-11.313 Y-8.432 Z-1.250 I13.670 J6.069 K0.000 F50.000
G2 X-12.265 Y-11.358 Z-1.250 I-1.690 J-1.068 K0.000 F50.000
G3 X-13.356 Y-13.347 Z-1.250 I0.446 J-1.538 K0.000 F50.000
G3 X-11.364 Y-14.431 Z-1.250 I1.536 J0.451 K0.000 F50.000
G3 X-10.230 Y-13.164 Z-1.250 I-0.490 J1.580 K0.000 F50.000
G2 X-7.327 Y-12.047 Z-1.250 I1.904 J-0.617 K0.000 F50.000
G3 X7.414 Y-12.004 Z-1.250 I7.336 J12.089 K0.000 F50.000
G2 X10.246 Y-13.209 Z-1.250 I0.916 J-1.777 K0.000 F50.000
G3 X12.440 Y-14.374 Z-1.250 I1.577 J0.321 K0.000 F50.000
G3 X12.222 Y-11.338 Z-1.250 I-0.631 J1.481 K0.000 F50.000
G2 X11.368 Y-8.342 Z-1.250 I0.781 J1.843 K0.000 F50.000
G3 X12.959 Y-5.581 Z-1.250 I-12.091 J8.805 K0.000 F50.000
G2 X15.969 Y-4.943 Z-1.250 I1.770 J-0.930 K0.000 F50.000
G3 X18.237 Y-4.893 Z-1.250 I1.109 J1.155 K0.000 F50.000
G3 X18.180 Y-2.626 Z-1.250 I-1.159 J1.105 K0.000 F50.000
G3 X16.515 Y-2.277 Z-1.250 I-1.123 J-1.215 K0.000 F50.000
G2 X14.097 Y-0.322 Z-1.250 I-0.417 J1.957 K0.000 F50.000
G3 X6.689 Y12.423 Z-1.250 I-14.137 J0.308 K0.000 F50.000
G2 X6.316 Y15.478 Z-1.250 I1.081 J1.682 K0.000 F50.000
G3 X6.464 Y17.741 Z-1.250 I-1.054 J1.205 K0.000 F50.000
G3 X4.200 Y17.882 Z-1.250 I-1.202 J-1.058 K0.000 F50.000
G3 X3.708 Y16.254 Z-1.250 I1.112 J-1.224 K0.000 F50.000
G2 X2.404 Y14.128 Z-1.250 I-1.986 J-0.245 K0.000 F50.000
G0 Z5.000
G0 X1.828 Y10.744 Z5.000
G0 X1.828 Y10.744 Z3.000
G1 X1.828 Y10.744 Z-1.250 F50.000
G3 X-2.093 Y-10.695 Z-1.250 I-1.828 J-10.744 K0.000 F50.000
G3 X10.695 Y-2.093 Z-1.250 I2.093 J10.695 K0.000 F50.000
G3 X2.093 Y10.695 Z-1.250 I-10.695 J2.093 K0.000 F50.000
G3 X1.828 Y10.744 Z-1.250 I-2.093 J-10.695 K0.000 F50.000
G0 Z5.000
G0 X1.661 Y9.759 Z5.000
G0 X1.661 Y9.759 Z3.000
G1 X1.661 Y9.759 Z-1.250 F50.000
G3 X-1.864 Y-9.722 Z-1.250 I-1.661 J-9.759 K0.000 F50.000
G3 X9.722 Y-1.864 Z-1.250 I1.864 J9.722 K0.000 F50.000
G3 X1.864 Y9.722 Z-1.250 I-9.722 J1.864 K0.000 F50.000
G3 X1.661 Y9.759 Z-1.250 I-1.864 J-9.722 K0.000 F50.000
G0 Z5.000
G0 X-3.519 Y11.887 Z5.000
G0 X-3.519 Y11.887 Z3.000
G1 X-3.519 Y11.887 Z-1.250 F50.000
G2 X-3.792 Y12.017 Z-1.250 I0.346 J1.080 K0.000 F50.000
G2 X-3.932 Y11.750 Z-1.250 I-1.062 J0.388 K0.000 F50.000
G2 X-3.519 Y11.887 Z-1.250 I1.687 J-4.396 K0.000 F50.000
G0 Z5.000
G0 X-12.148 Y-2.469 Z5.000
G0 X-12.148 Y-2.469 Z3.000
G1 X-12.148 Y-2.469 Z-1.250 F50.000
G2 X-12.301 Y-2.730 Z-1.250 I-1.050 J0.441 K0.000 F50.000
G2 X-12.048 Y-2.893 Z-1.250 I-0.479 J-1.024 K0.000 F50.000
G1 X-12.148 Y-2.469 Z-1.250 F50.000
G0 Z5.000
G0 X-8.536 Y-8.987 Z5.000
G0 X-8.536 Y-8.987 Z3.000
G1 X-8.536 Y-8.987 Z-1.250 F50.000
G2 X-8.511 Y-9.292 Z-1.250 I-1.123 J-0.244 K0.000 F50.000
G2 X-8.221 Y-9.279 Z-1.250 I0.193 J-1.074 K0.000 F50.000
G2 X-8.536 Y-8.987 Z-1.250 I2.869 J3.411 K0.000 F50.000
G0 Z5.000
G0 X8.212 Y-9.286 Z5.000
G0 X8.212 Y-9.286 Z3.000
G1 X8.212 Y-9.286 Z-1.250 F50.000
G2 X8.515 Y-9.288 Z-1.250 I0.143 J-1.128 K0.000 F50.000
G2 X8.528 Y-8.995 Z-1.250 I1.099 J0.098 K0.000 F50.000
G2 X8.212 Y-9.286 Z-1.250 I-2.783 J2.699 K0.000 F50.000
G0 Z5.000
G0 X12.046 Y-2.903 Z5.000
G0 X12.046 Y-2.903 Z3.000
G1 X12.046 Y-2.903 Z-1.250 F50.000
G2 X12.303 Y-2.725 Z-1.250 I0.790 J-0.867 K0.000 F50.000
G2 X12.146 Y-2.478 Z-1.250 I0.838 J0.707 K0.000 F50.000
G1 X12.046 Y-2.903 Z-1.250 F50.000
G1 X12.046 Y-2.903 Z-1.400 F50.000
G2 X12.303 Y-2.725 Z-1.400 I0.790 J-0.867 K0.000 F50.000
G2 X12.146 Y-2.478 Z-1.400 I0.838 J0.707 K0.000 F50.000
G1 X12.046 Y-2.903 Z-1.400 F50.000
G0 Z5.000
G0 X11.567 Y-2.787 Z5.000
G0 X11.567 Y-2.787 Z3.000
G1 X11.567 Y-2.787 Z-1.400 F50.000
G3 X0.960 Y11.859 Z-1.400 I-11.567 J2.787 K0.000 F50.000
G3 X-0.960 Y-11.859 Z-1.400 I-0.960 J-11.859 K0.000 F50.000
G3 X11.567 Y-2.787 Z-1.400 I0.960 J11.859 K0.000 F50.000
G0 Z5.000
G0 X12.141 Y-3.464 Z5.000
G0 X12.141 Y-3.464 Z3.000
G1 X12.141 Y-3.464 Z-1.400 F50.000
G2 X13.037 Y-2.892 Z-1.400 I2.562 J-3.024 K0.000 F50.000
G2 X12.097 Y-0.354 Z-1.400 I3.100 J2.592 K0.000 F50.000
G3 X5.742 Y10.653 Z-1.400 I-12.123 J0.339 K0.000 F50.000
G2 X4.017 Y12.736 Z-1.400 I2.045 J3.451 K0.000 F50.000
G2 X1.379 Y12.023 Z-1.400 I-2.312 J3.315 K0.000 F50.000
G3 X-1.698 Y12.014 Z-1.400 I-1.492 J-16.424 K0.000 F50.000
G2 X-4.015 Y12.737 Z-1.400 I-0.034 J3.963 K0.000 F50.000
G2 X-5.742 Y10.653 Z-1.400 I-3.794 J1.389 K0.000 F50.000
G3 X-12.097 Y-0.354 Z-1.400 I5.768 J-10.668 K0.000 F50.000
G2 X-13.038 Y-2.889 Z-1.400 I-4.011 J0.046 K0.000 F50.000
G2 X-11.101 Y-4.817 Z-1.400 I-1.715 J-3.659 K0.000 F50.000
G3 X-9.555 Y-7.478 Z-1.400 I14.969 J6.920 K0.000 F50.000
G2 X-9.023 Y-9.845 Z-1.400 I-3.415 J-2.011 K0.000 F50.000
G2 X-6.355 Y-10.300 Z-1.400 I0.694 J-3.981 K0.000 F50.000
G3 X2.181 Y-11.900 Z-1.400 I6.355 J10.333 K0.000 F50.000
G3 X6.355 Y-10.300 Z-1.400 I-2.226 J12.051 K0.000 F50.000
G2 X9.021 Y-9.847 Z-1.400 I1.966 J-3.497 K0.000 F50.000
G2 X9.722 Y-7.205 Z-1.400 I4.026 J0.345 K0.000 F50.000
G3 X11.253 Y-4.536 Z-1.400 I-13.477 J9.504 K0.000 F50.000
G2 X12.141 Y-3.464 Z-1.400 I3.450 J-1.952 K0.000 F50.000
G0 Z5.000
G0 X12.788 Y-4.226 Z5.000
G0 X12.788 Y-4.226 Z3.000
G1 X12.788 Y-4.226 Z-1.400 F50.000
G2 X16.557 Y-4.134 Z-1.400 I1.942 J-2.286 K0.000 F50.000
G3 X17.450 Y-4.255 Z-1.400 I0.509 J0.403 K0.000 F50.000
G3 X17.018 Y-3.199 Z-1.400 I-0.365 J0.467 K0.000 F50.000
G2 X13.630 Y-2.024 Z-1.400 I-0.885 J2.920 K0.000 F50.000
G2 X13.097 Y-0.338 Z-1.400 I2.518 J1.724 K0.000 F50.000
G3 X7.126 Y10.991 Z-1.400 I-13.107 J0.330 K0.000 F50.000
G2 X5.880 Y11.778 Z-1.400 I3.739 J7.303 K0.000 F50.000
G2 X5.561 Y16.134 Z-1.400 I1.891 J2.328 K0.000 F50.000
G3 X5.759 Y17.013 Z-1.400 I-0.357 J0.542 K0.000 F50.000
G3 X4.670 Y16.675 Z-1.400 I-0.497 J-0.323 K0.000 F50.000
G2 X3.204 Y13.402 Z-1.400 I-2.986 J-0.627 K0.000 F50.000
G2 X1.459 Y13.019 Z-1.400 I-1.512 J2.724 K0.000 F50.000
G3 X-1.672 Y13.013 Z-1.400 I-1.536 J-16.070 K0.000 F50.000
G2 X-4.699 Y16.406 Z-1.400 I-0.053 J2.999 K0.000 F50.000
G3 X-5.041 Y17.240 Z-1.400 I-0.604 J0.239 K0.000 F50.000
G3 X-5.739 Y16.338 Z-1.400 I-0.222 J-0.550 K0.000 F50.000
G2 X-5.063 Y12.816 Z-1.400 I-2.086 J-2.226 K0.000 F50.000
G2 X-6.256 Y11.511 Z-1.400 I-2.751 J1.318 K0.000 F50.000
G3 X-13.082 Y0.676 Z-1.400 I6.268 J-11.516 K0.000 F50.000
G2 X-13.140 Y-0.796 Z-1.400 I-8.194 J-0.413 K0.000 F50.000
G2 X-16.753 Y-3.251 Z-1.400 I-2.962 J0.473 K0.000 F50.000
G3 X-17.613 Y-3.519 Z-1.400 I-0.291 J-0.581 K0.000 F50.000
G3 X-16.776 Y-4.293 Z-1.400 I0.528 J-0.269 K0.000 F50.000
G2 X-13.209 Y-3.926 Z-1.400 I2.036 J-2.272 K0.000 F50.000
G2 X-12.005 Y-5.246 Z-1.400 I-1.603 J-2.671 K0.000 F50.000
G3 X-10.434 Y-7.955 Z-1.400 I14.685 J6.705 K0.000 F50.000
G2 X-11.859 Y-12.272 Z-1.400 I-2.570 J-1.545 K0.000 F50.000
G3 X-12.410 Y-12.985 Z-1.400 I0.095 J-0.642 K0.000 F50.000
G3 X-11.279 Y-13.139 Z-1.400 I0.587 J0.083 K0.000 F50.000
G2 X-8.568 Y-10.792 Z-1.400 I2.971 J-0.693 K0.000 F50.000
G2 X-6.841 Y-11.174 Z-1.400 I0.234 J-3.042 K0.000 F50.000
G3 X5.955 Y-11.667 Z-1.400 I6.839 J11.186 K0.000 F50.000
G2 X7.260 Y-10.981 Z-1.400 I4.455 J-6.890 K0.000 F50.000
G2 X11.192 Y-12.883 Z-1.400 I1.071 J-2.802 K0.000 F50.000
G3 X11.854 Y-13.494 Z-1.400 I0.648 J0.038 K0.000 F50.000
G3 X12.106 Y-12.381 Z-1.400 I-0.031 J0.592 K0.000 F50.000
G2 X10.005 Y-9.476 Z-1.400 I0.950 J2.899 K0.000 F50.000
G2 X10.545 Y-7.773 Z-1.400 I3.115 J-0.052 K0.000 F50.000
G3 X12.106 Y-5.058 Z-1.400 I-13.149 J9.365 K0.000 F50.000
G2 X12.788 Y-4.226 Z-1.400 I2.623 J-1.453 K0.000 F50.000
G0 Z5.000
G0 X13.434 Y-4.987 Z5.000
G0 X13.434 Y-4.987 Z3.000
G1 X13.434 Y-4.987 Z-1.400 F50.000
G2 X15.969 Y-4.943 Z-1.400 I1.295 J-1.524 K0.000 F50.000
G3 X18.237 Y-4.893 Z-1.400 I1.109 J1.155 K0.000 F50.000
G3 X18.180 Y-2.626 Z-1.400 I-1.159 J1.105 K0.000 F50.000
G3 X16.515 Y-2.277 Z-1.400 I-1.123 J-1.215 K0.000 F50.000
G2 X14.097 Y-0.322 Z-1.400 I-0.417 J1.957 K0.000 F50.000
G3 X6.689 Y12.423 Z-1.400 I-14.137 J0.308 K0.000 F50.000
G2 X6.316 Y15.478 Z-1.400 I1.081 J1.682 K0.000 F50.000
G3 X6.464 Y17.741 Z-1.400 I-1.054 J1.205 K0.000 F50.000
G3 X4.200 Y17.882 Z-1.400 I-1.202 J-1.058 K0.000 F50.000
G3 X3.708 Y16.254 Z-1.400 I1.112 J-1.224 K0.000 F50.000
G2 X1.540 Y14.016 Z-1.400 I-1.986 J-0.245 K0.000 F50.000
G3 X-1.646 Y14.013 Z-1.400 I-1.580 J-14.873 K0.000 F50.000
G2 X-3.704 Y16.301 Z-1.400 I-0.080 J1.998 K0.000 F50.000
G3 X-4.881 Y18.240 Z-1.400 I-1.555 J0.383 K0.000 F50.000
G3 X-6.816 Y17.057 Z-1.400 I-0.378 J-1.556 K0.000 F50.000
G3 X-6.286 Y15.441 Z-1.400 I1.613 J-0.365 K0.000 F50.000
G2 X-6.770 Y12.369 Z-1.400 I-1.487 J-1.340 K0.000 F50.000
G3 X-14.103 Y-0.419 Z-1.400 I6.801 J-12.397 K0.000 F50.000
G2 X-16.562 Y-2.269 Z-1.400 I-1.997 J0.095 K0.000 F50.000
G3 X-18.596 Y-3.273 Z-1.400 I-0.517 J-1.515 K0.000 F50.000
G3 X-17.586 Y-5.303 Z-1.400 I1.517 J-0.512 K0.000 F50.000
G3 X-15.930 Y-4.916 Z-1.400 I0.504 J1.575 K0.000 F50.000
G2 X-12.908 Y-5.674 Z-1.400 I1.205 J-1.598 K0.000 F50.000
G3 X-11.313 Y-8.432 Z-1.400 I13.670 J6.069 K0.000 F50.000
G2 X-12.265 Y-11.358 Z-1.400 I-1.690 J-1.068 K0.000 F50.000
G3 X-13.356 Y-13.347 Z-1.400 I0.446 J-1.538 K0.000 F50.000
G3 X-11.364 Y-14.431 Z-1.400 I1.536 J0.451 K0.000 F50.000
G3 X-10.230 Y-13.164 Z-1.400 I-0.490 J1.580 K0.000 F50.000
G2 X-7.327 Y-12.047 Z-1.400 I1.904 J-0.617 K0.000 F50.000
G3 X7.414 Y-12.004 Z-1.400 I7.336 J12.089 K0.000 F50.000
G2 X10.246 Y-13.209 Z-1.400 I0.916 J-1.777 K0.000 F50.000
G3 X12.440 Y-14.374 Z-1.400 I1.577 J0.321 K0.000 F50.000
G3 X12.222 Y-11.338 Z-1.400 I-0.631 J1.481 K0.000 F50.000
G2 X11.368 Y-8.342 Z-1.400 I0.781 J1.843 K0.000 F50.000
G3 X12.959 Y-5.581 Z-1.400 I-12.091 J8.805 K0.000 F50.000
G2 X13.434 Y-4.987 Z-1.400 I1.770 J-0.930 K0.000 F50.000
G0 Z5.000
G0 X10.217 Y-3.793 Z5.000
G0 X10.217 Y-3.793 Z3.000
G1 X10.217 Y-3.793 Z-1.400 F50.000
G3 X2.093 Y10.695 Z-1.400 I-10.217 J3.793 K0.000 F50.000
G3 X-2.093 Y-10.695 Z-1.400 I-2.093 J-10.695 K0.000 F50.000
G3 X10.217 Y-3.793 Z-1.400 I2.093 J10.695 K0.000 F50.000
G0 Z5.000
G0 X9.280 Y-3.445 Z5.000
G0 X9.280 Y-3.445 Z3.000
G1 X9.280 Y-3.445 Z-1.400 F50.000
G3 X1.864 Y9.722 Z-1.400 I-9.280 J3.445 K0.000 F50.000
G3 X-1.864 Y-9.722 Z-1.400 I-1.864 J-9.722 K0.000 F50.000
G3 X9.280 Y-3.445 Z-1.400 I1.864 J9.722 K0.000 F50.000
G0 Z5.000
G0 X8.528 Y-8.995 Z5.000
G0 X8.528 Y-8.995 Z3.000
G1 X8.528 Y-8.995 Z-1.400 F50.000
G2 X8.212 Y-9.286 Z-1.400 I-2.783 J2.699 K0.000 F50.000
G2 X8.515 Y-9.288 Z-1.400 I0.143 J-1.128 K0.000 F50.000
G2 X8.528 Y-8.995 Z-1.400 I1.099 J0.098 K0.000 F50.000
G0 Z5.000
G0 X-8.221 Y-9.279 Z5.000
G0 X-8.221 Y-9.279 Z3.000
G1 X-8.221 Y-9.279 Z-1.400 F50.000
G2 X-8.536 Y-8.987 Z-1.400 I2.869 J3.411 K0.000 F50.000
G2 X-8.511 Y-9.292 Z-1.400 I-1.123 J-0.244 K0.000 F50.000
G2 X-8.221 Y-9.279 Z-1.400 I0.193 J-1.074 K0.000 F50.000
G0 Z5.000
G0 X-12.048 Y-2.893 Z5.000
G0 X-12.048 Y-2.893 Z3.000
G1 X-12.048 Y-2.893 Z-1.400 F50.000
G1 X-12.148 Y-2.469 Z-1.400 F50.000
G2 X-12.301 Y-2.730 Z-1.400 I-1.050 J0.441 K0.000 F50.000
G2 X-12.048 Y-2.893 Z-1.400 I-0.479 J-1.024 K0.000 F50.000
G0 Z5.000
G0 X-3.932 Y11.750 Z5.000
G0 X-3.932 Y11.750 Z3.000
G1 X-3.932 Y11.750 Z-1.400 F50.000
G2 X-3.519 Y11.887 Z-1.400 I1.687 J-4.396 K0.000 F50.000
G2 X-3.792 Y12.017 Z-1.400 I0.346 J1.080 K0.000 F50.000
G2 X-3.932 Y11.750 Z-1.400 I-1.062 J0.388 K0.000 F50.000
G0 Z5.000
G0 X3.529 Y11.884 Z5.000
G0 X3.529 Y11.884 Z3.000
G1 X3.529 Y11.884 Z-1.400 F50.000
G2 X3.942 Y11.747 Z-1.400 I-1.278 J-4.527 K0.000 F50.000
G2 X3.787 Y12.018 Z-1.400 I0.933 J0.713 K0.000 F50.000
G2 X3.529 Y11.884 Z-1.400 I-0.628 J0.891 K0.000 F50.000
G0 Z5.000
G0 Z5.000
(Finish operation: Pocket_Shape)
(Begin operation: Profile001)
(Path: Profile001)
(Profile001)
(Compensated Tool Path. Diameter: 2.0)
G0 Z5.000
G0 X17.677 Y17.677
G0 Z3.000
G1 X17.677 Y17.677 Z-0.300 F50.000
G2 X2.142 Y-24.908 Z-0.300 I-17.677 J-17.677 K0.000 F50.000
G2 X-2.142 Y24.908 Z-0.300 I-2.142 J24.908 K0.000 F50.000
G2 X17.677 Y17.677 Z-0.300 I2.142 J-24.908 K0.000 F50.000
G1 X17.677 Y17.677 Z-0.600 F50.000
G2 X2.142 Y-24.908 Z-0.600 I-17.677 J-17.677 K0.000 F50.000
G2 X-2.142 Y24.908 Z-0.600 I-2.142 J24.908 K0.000 F50.000
G2 X17.677 Y17.677 Z-0.600 I2.142 J-24.908 K0.000 F50.000
G1 X17.677 Y17.677 Z-0.900 F50.000
G2 X2.142 Y-24.908 Z-0.900 I-17.677 J-17.677 K0.000 F50.000
G2 X-2.142 Y24.908 Z-0.900 I-2.142 J24.908 K0.000 F50.000
G2 X17.677 Y17.677 Z-0.900 I2.142 J-24.908 K0.000 F50.000
G1 X17.677 Y17.677 Z-1.200 F50.000
G2 X2.142 Y-24.908 Z-1.200 I-17.677 J-17.677 K0.000 F50.000
G2 X-2.142 Y24.908 Z-1.200 I-2.142 J24.908 K0.000 F50.000
G2 X17.677 Y17.677 Z-1.200 I2.142 J-24.908 K0.000 F50.000
G1 X17.677 Y17.677 Z-1.500 F50.000
G2 X2.142 Y-24.908 Z-1.500 I-17.677 J-17.677 K0.000 F50.000
G2 X-2.142 Y24.908 Z-1.500 I-2.142 J24.908 K0.000 F50.000
G2 X17.677 Y17.677 Z-1.500 I2.142 J-24.908 K0.000 F50.000
G1 X17.677 Y17.677 Z-1.700 F50.000
G2 X2.142 Y-24.908 Z-1.700 I-17.677 J-17.677 K0.000 F50.000
G2 X-2.142 Y24.908 Z-1.700 I-2.142 J24.908 K0.000 F50.000
G2 X17.677 Y17.677 Z-1.700 I2.142 J-24.908 K0.000 F50.000
G0 Z5.000
G0 Z5.000
(Finish operation: Profile001)
(Begin postamble)
M5
G17 G90
M2
