; generated by PrusaSlicer 2.7.4 on 2024-07-14 at 23:07:02 UTC

; 

; external perimeters extrusion width = 0.42mm
; perimeters extrusion width = 0.44mm
; infill extrusion width = 0.44mm
; solid infill extrusion width = 0.44mm
; top infill extrusion width = 0.40mm
; first layer extrusion width = 0.42mm

; external perimeters extrusion width = 0.42mm
; perimeters extrusion width = 0.44mm
; infill extrusion width = 0.44mm
; solid infill extrusion width = 0.44mm
; top infill extrusion width = 0.40mm
; first layer extrusion width = 0.42mm

M201 X500 Y500 Z100 E5000 ; sets maximum accelerations, mm/sec^2
M203 X500 Y500 Z10 E60 ; sets maximum feedrates, mm / sec
M204 S500 T1000 ; sets acceleration (S) and retract acceleration (R), mm/sec^2
M205 X8.00 Y8.00 Z0.40 E5.00 ; sets the jerk limits, mm/sec
M205 S0 T0 ; sets the minimum extruding and travel feed rate, mm/sec

; printing object magcartrige-Part id:1 copy 0
; stop printing object magcartrige-Part id:1 copy 0
; printing object magretainer-Part id:0 copy 0
; stop printing object magretainer-Part id:0 copy 0

;TYPE:Custom
G90 ; use absolute coordinates
M83 ; extruder relative mode
M104 S150 ; set temporary nozzle temp to prevent oozing during homing
M140 S60 ; set final bed temp
G4 S30 ; allow partial nozzle warmup
G28 ; home all axis
G1 Z50 F240
G1 X2.0 Y10 F3000
M104 S215 ; set final nozzle temp
M190 S60 ; wait for bed temp to stabilize
M109 S215 ; wait for nozzle temp to stabilize
G1 Z0.28 F240
G92 E0
G1 X2.0 Y140 E10 F1500 ; prime the nozzle
G1 X2.3 Y140 F5000
G92 E0
G1 X2.3 Y10 E10 F1200 ; prime the nozzle
G92 E0
G21 ; set units to millimeters
G90 ; use absolute coordinates
M83 ; use relative distances for extrusion
; Filament gcode
M107
;LAYER_CHANGE
;Z:0.2
;HEIGHT:0.2
G1 E-5 F3600
G1 Z.2 F9000
G1 X73.818 Y93.293
G1 Z.2
G1 E5 F2400
M204 S500
;TYPE:Skirt/Brim
;WIDTH:0.42
G1 F1200
G1 X73.975 Y93.169 E.00627
G1 X76.094 Y91.792 E.07924
G1 X78.957 Y90.33 E.10079
G1 X81.842 Y89.254 E.09654
G1 X84.417 Y88.588 E.08339
G1 X87.634 Y88.117 E.10194
G1 X140.487 Y86.619 E1.65783
G1 X142.979 Y86.769 E.07828
G1 X145.311 Y87.107 E.07388
G1 X147.743 Y87.672 E.07828
G1 X150.117 Y88.445 E.07828
G1 X151.787 Y89.13 E.0566
G1 X154.021 Y90.246 E.0783
G1 X156.032 Y91.473 E.07386
G1 X158.047 Y92.947 E.07828
G1 X159.421 Y94.119 E.05662
G1 X161.195 Y95.876 E.07829
G1 X162.811 Y97.779 E.07828
G1 X164.256 Y99.816 E.07831
G1 X165.453 Y101.845 E.07386
G1 X166.537 Y104.094 E.07828
G1 X167.423 Y106.428 E.07828
G1 X167.937 Y108.159 E.05662
G1 X168.442 Y110.46 E.07386
G1 X168.771 Y112.935 E.07828
G1 X168.885 Y115.43 E.07831
G1 X168.783 Y117.924 E.07826
G1 X168.575 Y119.718 E.05663
G1 X168.104 Y122.17 E.07829
G1 X167.467 Y124.438 E.07386
G1 X166.593 Y126.777 E.07829
G1 X165.836 Y128.416 E.05661
G1 X164.624 Y130.599 E.07829
G1 X163.228 Y132.669 E.07828
G1 X161.752 Y134.505 E.07386
G1 X160.522 Y135.827 E.05662
G1 X158.69 Y137.523 E.07828
G1 X156.718 Y139.055 E.0783
G1 X154.621 Y140.411 E.0783
G1 X151.659 Y141.928 E.10434
G1 X150.117 Y142.555 E.05219
G1 X147.878 Y143.29 E.07389
G1 X144.629 Y144.012 E.10436
G1 X142.839 Y144.245 E.0566
G1 X141.178 Y144.361 E.05221
G1 X139.518 Y144.381 E.05205
G1 X89.194 Y142.974 E1.57849
G1 X86.703 Y142.787 E.07832
G1 X83.521 Y142.211 E.10139
G1 X80.427 Y141.265 E.10144
G1 X77.465 Y139.961 E.10147
G1 X74.736 Y138.357 E.09925
G1 X72.114 Y136.37 E.10315
G1 X69.854 Y134.197 E.0983
G1 X68.05 Y132.043 E.08809
G1 X66.256 Y129.346 E.10156
G1 X64.938 Y126.784 E.09034
G1 X63.95 Y124.269 E.08472
G1 X63.263 Y121.874 E.07812
G1 X62.743 Y119.028 E.09071
G1 X62.528 Y116.38 E.0833
G1 X62.566 Y113.811 E.08056
G1 X62.84 Y111.283 E.07973
G1 X63.463 Y108.341 E.09429
G1 X64.235 Y105.926 E.0795
G1 X65.247 Y103.552 E.08092
G1 X66.701 Y100.919 E.09431
G1 X68.163 Y98.807 E.08054
G1 X69.803 Y96.858 E.07987
G1 X71.961 Y94.762 E.09432
G1 X73.77 Y93.331 E.07232
G1 X73.77 Y93.331 F9000
G1 X74.014 Y93.65
G1 F1200
G1 X74.748 Y93.089 E.02897
G1 X76.848 Y91.795 E.07734
G1 X79.186 Y90.642 E.08174
G1 X82.109 Y89.565 E.09767
G1 X85.064 Y88.846 E.09536
G1 X87.662 Y88.493 E.08221
G1 X140.476 Y86.996 E1.65661
G1 X142.806 Y87.131 E.07318
G1 X145.246 Y87.479 E.07728
G1 X147.646 Y88.037 E.07726
G1 X149.989 Y88.799 E.07725
G1 X151.629 Y89.472 E.05558
G1 X153.834 Y90.574 E.07729
G1 X155.935 Y91.861 E.07725
G1 X157.815 Y93.244 E.07318
G1 X159.164 Y94.395 E.0556
G1 X160.915 Y96.129 E.07727
G1 X162.51 Y98.007 E.07725
G1 X163.937 Y100.016 E.07726
G1 X165.123 Y102.027 E.0732
G1 X166.193 Y104.247 E.07727
G1 X167.067 Y106.551 E.07726
G1 X167.571 Y108.251 E.0556
G1 X168.094 Y110.659 E.07726
G1 X168.396 Y112.973 E.07317
G1 X168.508 Y115.435 E.07727
G1 X168.407 Y117.897 E.07726
G1 X168.203 Y119.658 E.05558
G1 X167.739 Y122.078 E.07726
G1 X167.067 Y124.449 E.07727
G1 X166.193 Y126.753 E.07726
G1 X165.184 Y128.859 E.07322
G1 X163.937 Y130.984 E.07725
G1 X162.928 Y132.442 E.05559
G1 X161.379 Y134.358 E.07725
G1 X159.765 Y136.044 E.07318
G1 X157.917 Y137.674 E.07726
G1 X155.935 Y139.139 E.07728
G1 X153.834 Y140.426 E.07725
G1 X150.875 Y141.852 E.10299
G1 X149.338 Y142.435 E.05154
G1 X147.646 Y142.963 E.05557
G1 X144.436 Y143.661 E.103
G1 X142.806 Y143.869 E.05152
G1 X140.476 Y144.004 E.07318
G1 X89.205 Y142.597 E1.60817
G1 X86.072 Y142.322 E.09861
G1 X84.391 Y142.022 E.05354
G1 X82.839 Y141.646 E.05007
G1 X79.895 Y140.655 E.0974
G1 X76.998 Y139.287 E.10045
G1 X74.773 Y137.928 E.08175
G1 X72.26 Y135.998 E.09935
G1 X69.971 Y133.769 E.10018
G1 X67.96 Y131.285 E.10021
G1 X66.312 Y128.682 E.0966
G1 X65.174 Y126.389 E.08026
G1 X64.281 Y124.071 E.07789
G1 X63.528 Y121.336 E.08894
G1 X63.086 Y118.752 E.0822
G1 X62.901 Y116.236 E.0791
G1 X62.992 Y113.164 E.09636
G1 X63.324 Y110.672 E.07883
G1 X63.873 Y108.271 E.07722
G1 X64.844 Y105.396 E.09515
G1 X65.874 Y103.137 E.07784
G1 X67.146 Y100.921 E.08011
G1 X68.88 Y98.505 E.09324
G1 X70.536 Y96.631 E.07841
G1 X72.386 Y94.894 E.07957
G1 X73.967 Y93.686 E.06239
G1 X73.967 Y93.686 F9000
G1 X74.195 Y93.986
G1 F1200
G1 X74.965 Y93.398 E.03038
G1 X77.084 Y92.096 E.07798
G1 X79.73 Y90.821 E.09209
G1 X82.218 Y89.926 E.0829
G1 X85.012 Y89.24 E.09021
G1 X87.69 Y88.869 E.08477
G1 X140.465 Y87.373 E1.65539
G1 X142.892 Y87.518 E.07623
G1 X145.181 Y87.85 E.07252
G1 X147.549 Y88.401 E.07623
G1 X149.861 Y89.154 E.07624
G1 X151.508 Y89.831 E.05583
G1 X153.647 Y90.901 E.07499
G1 X155.72 Y92.171 E.07623
G1 X157.583 Y93.542 E.07253
G1 X158.907 Y94.671 E.05456
G1 X160.636 Y96.381 E.07625
G1 X162.21 Y98.235 E.07625
G1 X163.618 Y100.217 E.07623
G1 X164.793 Y102.209 E.07251
G1 X165.848 Y104.4 E.07625
G1 X166.71 Y106.673 E.07622
G1 X167.205 Y108.342 E.05458
G1 X167.721 Y110.718 E.07623
G1 X168.031 Y113.13 E.07625
G1 X168.131 Y115.44 E.0725
G1 X168.031 Y117.87 E.07626
G1 X167.831 Y119.599 E.05457
G1 X167.373 Y121.987 E.07624
G1 X166.71 Y124.327 E.07626
G1 X165.848 Y126.6 E.07622
G1 X164.793 Y128.791 E.07625
G1 X163.618 Y130.783 E.07251
G1 X162.627 Y132.214 E.05458
G1 X161.099 Y134.105 E.07623
G1 X159.5 Y135.776 E.07252
G1 X157.676 Y137.384 E.07624
G1 X155.72 Y138.829 E.07625
G1 X153.647 Y140.099 E.07623
G1 X152.207 Y140.844 E.05083
G1 X150.616 Y141.551 E.05459
G1 X147.549 Y142.599 E.10162
G1 X144.382 Y143.288 E.10162
G1 X142.774 Y143.494 E.05083
G1 X140.465 Y143.627 E.07252
G1 X89.215 Y142.22 E1.60751
G1 X86.122 Y141.948 E.09735
G1 X82.941 Y141.283 E.10189
G1 X80.032 Y140.303 E.09625
G1 X77.175 Y138.954 E.09906
G1 X74.966 Y137.603 E.08119
G1 X72.507 Y135.713 E.09724
G1 X70.249 Y133.514 E.09882
G1 X68.266 Y131.064 E.09883
G1 X66.585 Y128.398 E.09882
G1 X65.486 Y126.162 E.07812
G1 X64.509 Y123.546 E.08756
G1 X63.847 Y121.035 E.08142
G1 X63.448 Y118.594 E.07755
G1 X63.269 Y115.657 E.09226
G1 X63.368 Y113.192 E.07735
G1 X63.694 Y110.742 E.0775
G1 X64.252 Y108.318 E.07799
G1 X65.196 Y105.532 E.09223
G1 X66.209 Y103.31 E.07657
G1 X67.462 Y101.127 E.07892
G1 X69.177 Y98.738 E.09221
G1 X70.806 Y96.894 E.07715
G1 X72.628 Y95.183 E.07837
G1 X74.148 Y94.022 E.05997
G1 X74.148 Y94.022 F9000
G1 X74.376 Y94.321
G1 F1200
G1 X75.18 Y93.708 E.0317
G1 X77.268 Y92.425 E.07684
G1 X79.877 Y91.169 E.09079
G1 X82.396 Y90.267 E.08389
G1 X85.305 Y89.567 E.09381
G1 X88.155 Y89.212 E.09005
G1 X140.454 Y87.75 E1.64044
G1 X142.741 Y87.882 E.07183
G1 X145.116 Y88.222 E.07523
G1 X147.453 Y88.765 E.07523
G1 X149.733 Y89.509 E.0752
G1 X151.351 Y90.174 E.05485
G1 X153.46 Y91.228 E.07392
G1 X155.416 Y92.421 E.07184
G1 X157.351 Y93.839 E.07522
G1 X158.651 Y94.947 E.05356
G1 X160.356 Y96.634 E.0752
G1 X161.909 Y98.463 E.07523
G1 X163.298 Y100.418 E.07519
G1 X164.463 Y102.391 E.07184
G1 X165.504 Y104.553 E.07524
G1 X166.354 Y106.796 E.07521
G1 X167.007 Y109.105 E.07524
G1 X167.349 Y110.778 E.05354
G1 X167.655 Y113.157 E.07521
G1 X167.754 Y115.554 E.07522
G1 X167.645 Y117.951 E.07523
G1 X167.349 Y120.222 E.07181
G1 X166.839 Y122.566 E.07521
G1 X166.129 Y124.858 E.07523
G1 X165.487 Y126.484 E.05481
G1 X164.463 Y128.609 E.07396
G1 X163.24 Y130.672 E.0752
G1 X161.909 Y132.537 E.07184
G1 X160.356 Y134.366 E.07523
G1 X158.651 Y136.053 E.0752
G1 X156.806 Y137.587 E.07523
G1 X155.416 Y138.579 E.05354
G1 X153.365 Y139.824 E.07523
G1 X150.478 Y141.2 E.10028
G1 X147.453 Y142.235 E.10024
G1 X144.328 Y142.914 E.10027
G1 X142.741 Y143.118 E.05017
G1 X140.454 Y143.25 E.07183
G1 X89.226 Y141.843 E1.60682
G1 X86.172 Y141.575 E.09612
G1 X83.043 Y140.92 E.10023
G1 X80.168 Y139.952 E.09512
G1 X77.352 Y138.621 E.09766
G1 X75.181 Y137.293 E.0798
G1 X72.753 Y135.428 E.09599
G1 X70.507 Y133.237 E.09838
G1 X68.552 Y130.816 E.09757
G1 X66.897 Y128.182 E.09754
G1 X65.834 Y126.015 E.07568
G1 X64.864 Y123.419 E.08689
G1 X64.205 Y120.908 E.0814
G1 X63.823 Y118.555 E.07474
G1 X63.645 Y115.552 E.09432
G1 X63.753 Y113.119 E.07636
G1 X64.087 Y110.699 E.0766
G1 X64.773 Y107.873 E.09118
G1 X65.574 Y105.601 E.07553
G1 X66.61 Y103.357 E.0775
G1 X68.089 Y100.854 E.09116
G1 X69.528 Y98.902 E.07604
G1 X71.104 Y97.129 E.07438
G1 X72.869 Y95.472 E.07591
G1 X74.329 Y94.358 E.05758
G1 X74.329 Y94.358 F9000
G1 X74.548 Y94.653
G1 F1200
G1 X75.488 Y93.954 E.03673
G1 X77.497 Y92.729 E.07378
G1 X80.035 Y91.511 E.08827
G1 X82.5 Y90.629 E.08209
G1 X85.376 Y89.938 E.09274
G1 X88.322 Y89.578 E.09306
G1 X140.443 Y88.127 E1.63485
G1 X142.709 Y88.258 E.07117
G1 X145.051 Y88.593 E.07418
G1 X147.356 Y89.13 E.07421
G1 X149.606 Y89.864 E.07421
G1 X151.193 Y90.516 E.05379
G1 X153.273 Y91.556 E.07291
G1 X155.291 Y92.792 E.0742
G1 X157.195 Y94.197 E.07419
G1 X158.9 Y95.694 E.07114
G1 X160.54 Y97.4 E.0742
G1 X162.026 Y99.242 E.07421
G1 X163.001 Y100.654 E.0538
G1 X164.179 Y102.659 E.07291
G1 X165.197 Y104.795 E.07419
G1 X166.028 Y107.011 E.07421
G1 X166.641 Y109.196 E.07115
G1 X166.993 Y110.938 E.05572
G1 X167.279 Y113.184 E.07099
G1 X167.377 Y115.549 E.07422
G1 X167.27 Y117.913 E.0742
G1 X166.977 Y120.163 E.07114
G1 X166.473 Y122.475 E.07419
G1 X165.772 Y124.735 E.07419
G1 X165.142 Y126.331 E.0538
G1 X164.133 Y128.426 E.07291
G1 X162.926 Y130.462 E.07421
G1 X161.549 Y132.386 E.07418
G1 X160.076 Y134.113 E.07117
G1 X158.9 Y135.306 E.05252
G1 X157.119 Y136.864 E.07419
G1 X155.21 Y138.263 E.07421
G1 X153.188 Y139.491 E.07417
G1 X150.34 Y140.849 E.09893
G1 X147.356 Y141.87 E.09889
G1 X144.274 Y142.541 E.0989
G1 X142.019 Y142.802 E.07118
G1 X140.443 Y142.873 E.04946
G1 X89.236 Y141.466 E1.60617
G1 X86.788 Y141.277 E.07698
G1 X83.886 Y140.748 E.09249
G1 X80.959 Y139.853 E.09597
G1 X78.131 Y138.608 E.09688
G1 X75.458 Y137.026 E.09739
G1 X73 Y135.142 E.0971
G1 X70.805 Y133.004 E.09607
G1 X68.86 Y130.598 E.09701
G1 X67.206 Y127.961 E.0976
G1 X66.013 Y125.472 E.08654
G1 X65.158 Y123.098 E.07912
G1 X64.562 Y120.769 E.07538
G1 X64.152 Y118.075 E.08544
G1 X64.022 Y115.546 E.0794
G1 X64.128 Y113.157 E.07498
G1 X64.457 Y110.771 E.07552
G1 X65.135 Y107.978 E.09012
G1 X65.923 Y105.745 E.07425
G1 X66.943 Y103.534 E.07635
G1 X68.405 Y101.06 E.0901
G1 X69.82 Y99.141 E.07476
G1 X71.429 Y97.335 E.07584
G1 X73.55 Y95.395 E.09013
G1 X74.5 Y94.689 E.03711
G1 E-3.5 F3600
;WIPE_START
G1 F7200
G1 X74.548 Y94.653 E-.0285
G1 X75.488 Y93.954 E-.55642
G1 X77.133 Y92.951 E-.91508
;WIPE_END
; printing object magcartrige-Part id:1 copy 0
G1 X131.323 Y94.279 F9000
G1 E5 F2400
;TYPE:Perimeter
;WIDTH:0.419999
G1 F1200
G1 X131.915 Y94.037 E.02005
G1 X133.17 Y93.605 E.04162
G1 X133.829 Y93.411 E.02154
G1 X135.08 Y93.098 E.04043
G1 X136.386 Y92.851 E.04167
G1 X137.065 Y92.753 E.02151
G1 X138.349 Y92.624 E.04046
G1 X139.672 Y92.567 E.04152
G1 X140.641 Y92.576 E.03038
G1 X141.649 Y92.624 E.03164
G1 X142.973 Y92.758 E.04173
G1 X143.651 Y92.857 E.02148
G1 X144.919 Y93.098 E.04047
G1 X146.209 Y93.421 E.0417
G1 X146.829 Y93.605 E.02028
G1 X148.085 Y94.037 E.04165
G1 X149.309 Y94.539 E.04148
G1 X150.506 Y95.112 E.04161
G1 X151.111 Y95.436 E.02152
G1 X152.222 Y96.092 E.04045
G1 X153.326 Y96.833 E.04169
G1 X153.847 Y97.216 E.02027
G1 X154.883 Y98.049 E.04168
G1 X155.863 Y98.935 E.04142
G1 X156.796 Y99.882 E.04168
G1 X157.23 Y100.362 E.02029
G1 X158.078 Y101.385 E.04166
G1 X158.861 Y102.45 E.04145
G1 X159.582 Y103.559 E.04147
G1 X160.24 Y104.713 E.04165
G1 X160.537 Y105.288 E.02029
G1 X161.096 Y106.501 E.04188
G1 X161.342 Y107.1 E.0203
G1 X161.795 Y108.356 E.04186
G1 X161.988 Y108.974 E.0203
G1 X162.328 Y110.258 E.04165
G1 X162.593 Y111.553 E.04145
G1 X162.784 Y112.869 E.04169
G1 X162.873 Y113.925 E.03323
G1 X162.926 Y115.026 E.03456
G1 X162.926 Y116.161 E.03559
G1 X162.849 Y117.488 E.04168
G1 X162.784 Y118.131 E.02026
G1 X162.592 Y119.453 E.04189
G1 X162.33 Y120.735 E.04103
G1 X161.989 Y122.019 E.04165
G1 X161.577 Y123.275 E.04145
G1 X161.091 Y124.512 E.04167
G1 X160.828 Y125.103 E.02028
G1 X160.237 Y126.293 E.04166
G1 X159.582 Y127.441 E.04144
G1 X158.857 Y128.556 E.0417
G1 X158.481 Y129.082 E.02027
G1 X157.664 Y130.13 E.04166
G1 X156.791 Y131.123 E.04146
G1 X155.859 Y132.069 E.04164
G1 X155.385 Y132.51 E.0203
G1 X154.374 Y133.373 E.04168
G1 X153.32 Y134.171 E.04145
G1 X152.217 Y134.911 E.04165
G1 X151.664 Y135.248 E.0203
G1 X150.501 Y135.89 E.04165
G1 X149.309 Y136.461 E.04144
G1 X148.085 Y136.963 E.04148
G1 X146.829 Y137.395 E.04165
G1 X146.209 Y137.579 E.02028
G1 X144.919 Y137.902 E.0417
G1 X143.614 Y138.149 E.04164
G1 X142.973 Y138.242 E.02031
G1 X141.644 Y138.377 E.04188
G1 X140.998 Y138.414 E.02029
G1 X139.663 Y138.433 E.04186
G1 X139.016 Y138.415 E.02029
G1 X137.683 Y138.318 E.04191
G1 X137.04 Y138.244 E.02029
G1 X135.721 Y138.033 E.04188
G1 X135.087 Y137.903 E.02029
G1 X133.798 Y137.581 E.04166
G1 X132.536 Y137.187 E.04145
G1 X131.299 Y136.721 E.04145
G1 X130.085 Y136.182 E.04165
G1 X129.505 Y135.894 E.0203
G1 X128.342 Y135.252 E.04165
G1 X127.218 Y134.543 E.04167
G1 X126.685 Y134.175 E.02031
G1 X125.626 Y133.373 E.04165
G1 X124.62 Y132.515 E.04146
G1 X123.666 Y131.601 E.04142
G1 X122.761 Y130.628 E.04166
G1 X122.341 Y130.135 E.02031
G1 X121.523 Y129.088 E.04166
G1 X120.767 Y127.995 E.04167
G1 X120.422 Y127.447 E.0203
G1 X119.763 Y126.293 E.04167
G1 X119.175 Y125.11 E.04142
G1 X118.656 Y123.894 E.04145
G1 X118.205 Y122.644 E.04167
G1 X118.012 Y122.026 E.0203
G1 X117.672 Y120.742 E.04165
G1 X117.407 Y119.447 E.04145
G1 X117.216 Y118.132 E.04166
G1 X117.148 Y117.449 E.02152
G1 X117.074 Y116.161 E.04045
G1 X117.074 Y114.839 E.04145
G1 X117.151 Y113.513 E.04165
G1 X117.221 Y112.831 E.0215
G1 X117.407 Y111.554 E.04046
G1 X117.672 Y110.258 E.04148
G1 X118.012 Y108.974 E.04165
G1 X118.205 Y108.356 E.0203
G1 X118.658 Y107.1 E.04186
G1 X118.919 Y106.466 E.0215
G1 X119.46 Y105.294 E.04047
G1 X120.085 Y104.122 E.04165
G1 X120.435 Y103.532 E.02151
G1 X121.143 Y102.445 E.04067
G1 X121.519 Y101.918 E.0203
G1 X122.336 Y100.87 E.04166
G1 X123.209 Y99.877 E.04146
G1 X124.141 Y98.931 E.04164
G1 X124.644 Y98.464 E.02152
G1 X125.626 Y97.627 E.04046
G1 X126.68 Y96.829 E.04145
G1 X127.778 Y96.093 E.04145
G1 X128.921 Y95.418 E.04162
G1 X129.527 Y95.096 E.02152
G1 X130.691 Y94.539 E.04046
G1 X131.268 Y94.302 E.01956
G1 X131.268 Y94.302 F9000
G1 X131.18 Y93.931
G1 F1200
G1 X131.782 Y93.684 E.0204
G1 X133.056 Y93.246 E.04224
G1 X133.73 Y93.047 E.02203
G1 X135 Y92.73 E.04104
G1 X136.324 Y92.479 E.04225
G1 X137.019 Y92.379 E.02202
G1 X138.322 Y92.248 E.04106
