(Exported by FreeCAD)
(Post Processor: script_module)
(Output Time:2024-09-09 03:44:14.684020)
(Begin preamble)
G17 G90
G21
(Begin operation: Fixture)
(Path: Fixture)
G54
(Finish operation: Fixture)
(Begin operation: 2mm Endmill001)
(Path: 2mm Endmill001)
(2mm Endmill001)
(Begin toolchange)
( M6 T2 )
M3 S1000
(Finish operation: 2mm Endmill001)
(Begin operation: Pocket_Shape)
(Path: Pocket_Shape)
(Pocket_Shape)
G0 Z5.000
G0
G0 X-8.375 Y-15.240
G0 X-8.375 Y-15.240 Z3.000
G1 X-8.375 Y-15.240 Z-0.300 F30.000
G3 X-8.437 Y-15.578 Z-0.300 I0.138 J-0.200 K0.000 F60.000
G3 X-8.099 Y-15.640 Z-0.300 I0.200 J0.138 K0.000 F60.000
G3 X-8.038 Y-15.302 Z-0.300 I-0.138 J0.200 K0.000 F60.000
G3 X-8.375 Y-15.240 Z-0.300 I-0.200 J-0.138 K0.000 F60.000
G1 X-8.375 Y-15.240 Z-0.500 F30.000
G3 X-8.437 Y-15.578 Z-0.500 I0.138 J-0.200 K0.000 F60.000
G3 X-8.099 Y-15.640 Z-0.500 I0.200 J0.138 K0.000 F60.000
G3 X-8.038 Y-15.302 Z-0.500 I-0.138 J0.200 K0.000 F60.000
G3 X-8.375 Y-15.240 Z-0.500 I-0.200 J-0.138 K0.000 F60.000
G0 Z5.000
G0 Z5.000
G0 X0.000 Y0.000
G0 X-4.838 Y-16.657
G0 X-4.838 Y-16.657 Z3.000
G1 X-4.838 Y-16.657 Z-0.300 F30.000
G3 X-4.900 Y-16.995 Z-0.300 I0.138 J-0.200 K0.000 F60.000
G3 X-4.562 Y-17.057 Z-0.300 I0.200 J0.138 K0.000 F60.000
G3 X-4.501 Y-16.719 Z-0.300 I-0.138 J0.200 K0.000 F60.000
G3 X-4.838 Y-16.657 Z-0.300 I-0.200 J-0.138 K0.000 F60.000
G1 X-4.838 Y-16.657 Z-0.500 F30.000
G3 X-4.900 Y-16.995 Z-0.500 I0.138 J-0.200 K0.000 F60.000
G3 X-4.562 Y-17.057 Z-0.500 I0.200 J0.138 K0.000 F60.000
G3 X-4.501 Y-16.719 Z-0.500 I-0.138 J0.200 K0.000 F60.000
G3 X-4.838 Y-16.657 Z-0.500 I-0.200 J-0.138 K0.000 F60.000
G0 Z5.000
G0 Z5.000
G0 X0.000 Y0.000
G0 X-1.078 Y-17.275
G0 X-1.078 Y-17.275 Z3.000
G1 X-1.078 Y-17.275 Z-0.300 F30.000
G3 X-1.140 Y-17.613 Z-0.300 I0.138 J-0.200 K0.000 F60.000
G3 X-0.802 Y-17.674 Z-0.300 I0.200 J0.138 K0.000 F60.000
G3 X-0.741 Y-17.337 Z-0.300 I-0.138 J0.200 K0.000 F60.000
G3 X-1.078 Y-17.275 Z-0.300 I-0.200 J-0.138 K0.000 F60.000
G1 X-1.078 Y-17.275 Z-0.500 F30.000
G3 X-1.140 Y-17.613 Z-0.500 I0.138 J-0.200 K0.000 F60.000
G3 X-0.802 Y-17.674 Z-0.500 I0.200 J0.138 K0.000 F60.000
G3 X-0.741 Y-17.337 Z-0.500 I-0.138 J0.200 K0.000 F60.000
G3 X-1.078 Y-17.275 Z-0.500 I-0.200 J-0.138 K0.000 F60.000
G0 Z5.000
G0 Z5.000
G0 X0.000 Y0.000
G0 X2.726 Y-17.064
G0 X2.726 Y-17.064 Z3.000
G1 X2.726 Y-17.064 Z-0.300 F30.000
G3 X2.665 Y-17.402 Z-0.300 I0.138 J-0.200 K0.000 F60.000
G3 X3.002 Y-17.464 Z-0.300 I0.200 J0.138 K0.000 F60.000
G3 X3.064 Y-17.126 Z-0.300 I-0.138 J0.200 K0.000 F60.000
G3 X2.726 Y-17.064 Z-0.300 I-0.200 J-0.138 K0.000 F60.000
G1 X2.726 Y-17.064 Z-0.500 F30.000
G3 X2.665 Y-17.402 Z-0.500 I0.138 J-0.200 K0.000 F60.000
G3 X3.002 Y-17.464 Z-0.500 I0.200 J0.138 K0.000 F60.000
G3 X3.064 Y-17.126 Z-0.500 I-0.138 J0.200 K0.000 F60.000
G3 X2.726 Y-17.064 Z-0.500 I-0.200 J-0.138 K0.000 F60.000
G0 Z5.000
G0 Z5.000
G0 X0.000 Y0.000
G0 X17.352 Y0.786
G0 X17.352 Y0.786 Z3.000
G1 X17.352 Y0.786 Z-0.300 F30.000
G3 X17.290 Y0.448 Z-0.300 I0.138 J-0.200 K0.000 F60.000
G3 X17.628 Y0.387 Z-0.300 I0.200 J0.138 K0.000 F60.000
G3 X17.690 Y0.724 Z-0.300 I-0.138 J0.200 K0.000 F60.000
G3 X17.352 Y0.786 Z-0.300 I-0.200 J-0.138 K0.000 F60.000
G1 X17.352 Y0.786 Z-0.500 F30.000
G3 X17.290 Y0.448 Z-0.500 I0.138 J-0.200 K0.000 F60.000
G3 X17.628 Y0.387 Z-0.500 I0.200 J0.138 K0.000 F60.000
G3 X17.690 Y0.724 Z-0.500 I-0.138 J0.200 K0.000 F60.000
G3 X17.352 Y0.786 Z-0.500 I-0.200 J-0.138 K0.000 F60.000
G0 Z5.000
G0 Z5.000
G0 X0.000 Y0.000
G0 X16.811 Y4.558
G0 X16.811 Y4.558 Z3.000
G1 X16.811 Y4.558 Z-0.300 F30.000
G3 X16.749 Y4.220 Z-0.300 I0.138 J-0.200 K0.000 F60.000
G3 X17.087 Y4.158 Z-0.300 I0.200 J0.138 K0.000 F60.000
G3 X17.148 Y4.496 Z-0.300 I-0.138 J0.200 K0.000 F60.000
G3 X16.811 Y4.558 Z-0.300 I-0.200 J-0.138 K0.000 F60.000
G1 X16.811 Y4.558 Z-0.500 F30.000
G3 X16.749 Y4.220 Z-0.500 I0.138 J-0.200 K0.000 F60.000
G3 X17.087 Y4.158 Z-0.500 I0.200 J0.138 K0.000 F60.000
G3 X17.148 Y4.496 Z-0.500 I-0.138 J0.200 K0.000 F60.000
G3 X16.811 Y4.558 Z-0.500 I-0.200 J-0.138 K0.000 F60.000
G0 Z5.000
G0 Z5.000
G0 X0.000 Y0.000
G0 X15.466 Y8.123
G0 X15.466 Y8.123 Z3.000
G1 X15.466 Y8.123 Z-0.300 F30.000
G3 X15.404 Y7.785 Z-0.300 I0.138 J-0.200 K0.000 F60.000
G3 X15.742 Y7.723 Z-0.300 I0.200 J0.138 K0.000 F60.000
G3 X15.803 Y8.061 Z-0.300 I-0.138 J0.200 K0.000 F60.000
G3 X15.466 Y8.123 Z-0.300 I-0.200 J-0.138 K0.000 F60.000
G1 X15.466 Y8.123 Z-0.500 F30.000
G3 X15.404 Y7.785 Z-0.500 I0.138 J-0.200 K0.000 F60.000
G3 X15.742 Y7.723 Z-0.500 I0.200 J0.138 K0.000 F60.000
G3 X15.803 Y8.061 Z-0.500 I-0.138 J0.200 K0.000 F60.000
G3 X15.466 Y8.123 Z-0.500 I-0.200 J-0.138 K0.000 F60.000
G0 Z5.000
G0 Z5.000
G0 X0.000 Y0.000
G0 X13.381 Y11.312
G0 X13.381 Y11.312 Z3.000
G1 X13.381 Y11.312 Z-0.300 F30.000
G3 X13.319 Y10.975 Z-0.300 I0.138 J-0.200 K0.000 F60.000
G3 X13.657 Y10.913 Z-0.300 I0.200 J0.138 K0.000 F60.000
G3 X13.719 Y11.250 Z-0.300 I-0.138 J0.200 K0.000 F60.000
G3 X13.381 Y11.312 Z-0.300 I-0.200 J-0.138 K0.000 F60.000
G1 X13.381 Y11.312 Z-0.500 F30.000
G3 X13.319 Y10.975 Z-0.500 I0.138 J-0.200 K0.000 F60.000
G3 X13.657 Y10.913 Z-0.500 I0.200 J0.138 K0.000 F60.000
G3 X13.719 Y11.250 Z-0.500 I-0.138 J0.200 K0.000 F60.000
G3 X13.381 Y11.312 Z-0.500 I-0.200 J-0.138 K0.000 F60.000
G0 Z5.000
G0 Z5.000
(Finish operation: Pocket_Shape)
(Begin operation: Pocket_Shape001)
(Path: Pocket_Shape001)
(Pocket_Shape001)
G0 Z5.000
G0
G0 X-16.438 Y-6.764
G0 X-16.438 Y-6.764 Z3.000
G1 X-16.438 Y-6.764 Z-0.300 F30.000
G2 X-15.807 Y-7.002 Z-0.300 I-0.420 J-2.068 K0.000 F60.000
G2 X-16.210 Y-6.013 Z-0.300 I6.911 J3.391 K0.000 F60.000
G3 X-16.438 Y-6.764 Z-0.300 I-0.075 J-0.387 K0.000 F60.000
G0 Z5.000
G0 X-14.079 Y-10.925 Z5.000
G0 X-14.079 Y-10.925 Z3.000
G1 X-14.079 Y-10.925 Z-0.300 F30.000
G3 X-13.560 Y-11.276 Z-0.300 I0.392 J0.021 K0.000 F60.000
G3 X-13.311 Y-11.032 Z-0.300 I-0.143 J0.396 K0.000 F60.000
G2 X-13.967 Y-10.189 Z-0.300 I5.735 J5.142 K0.000 F60.000
G2 X-14.079 Y-10.925 Z-0.300 I-14.958 J1.890 K0.000 F60.000
G0 Z5.000
G0 X-15.203 Y-10.376 Z5.000
G0 X-15.203 Y-10.376 Z3.000
G1 X-15.203 Y-10.376 Z-0.300 F30.000
G3 X-13.171 Y-12.415 Z-0.300 I1.518 J-0.520 K0.000 F60.000
G3 X-12.154 Y-11.411 Z-0.300 I-0.572 J1.596 K0.000 F60.000
G2 X-11.810 Y-10.931 Z-0.300 I1.355 J-0.609 K0.000 F60.000
G2 X-15.373 Y-4.762 Z-0.300 I11.585 J10.804 K0.000 F60.000
G2 X-16.361 Y-4.806 Z-0.300 I-0.611 J2.606 K0.000 F60.000
G3 X-16.540 Y-7.996 Z-0.300 I0.084 J-1.604 K0.000 F60.000
G2 X-15.203 Y-10.376 Z-0.300 I-0.608 J-1.906 K0.000 F60.000
G0 Z5.000
G0 X-16.438 Y-6.764 Z5.000
G0 X-16.438 Y-6.764 Z3.000
G1 X-16.438 Y-6.764 Z-0.600 F30.000
G2 X-15.807 Y-7.002 Z-0.600 I-0.420 J-2.068 K0.000 F60.000
G2 X-16.210 Y-6.013 Z-0.600 I6.911 J3.391 K0.000 F60.000
G3 X-16.438 Y-6.764 Z-0.600 I-0.075 J-0.387 K0.000 F60.000
G0 Z5.000
G0 X-14.079 Y-10.925 Z5.000
G0 X-14.079 Y-10.925 Z3.000
G1 X-14.079 Y-10.925 Z-0.600 F30.000
G3 X-13.560 Y-11.276 Z-0.600 I0.392 J0.021 K0.000 F60.000
G3 X-13.311 Y-11.032 Z-0.600 I-0.143 J0.396 K0.000 F60.000
G2 X-13.967 Y-10.189 Z-0.600 I5.735 J5.142 K0.000 F60.000
G2 X-14.079 Y-10.925 Z-0.600 I-14.958 J1.890 K0.000 F60.000
G0 Z5.000
G0 X-15.203 Y-10.376 Z5.000
G0 X-15.203 Y-10.376 Z3.000
G1 X-15.203 Y-10.376 Z-0.600 F30.000
G3 X-13.171 Y-12.415 Z-0.600 I1.518 J-0.520 K0.000 F60.000
G3 X-12.154 Y-11.411 Z-0.600 I-0.572 J1.596 K0.000 F60.000
G2 X-11.810 Y-10.931 Z-0.600 I1.355 J-0.609 K0.000 F60.000
G2 X-15.373 Y-4.762 Z-0.600 I11.585 J10.804 K0.000 F60.000
G2 X-16.361 Y-4.806 Z-0.600 I-0.611 J2.606 K0.000 F60.000
G3 X-16.540 Y-7.996 Z-0.600 I0.084 J-1.604 K0.000 F60.000
G2 X-15.203 Y-10.376 Z-0.600 I-0.608 J-1.906 K0.000 F60.000
G0 Z5.000
G0 X-14.079 Y-10.925 Z5.000
G0 X-14.079 Y-10.925 Z3.000
G1 X-14.079 Y-10.925 Z-0.900 F30.000
G3 X-13.560 Y-11.276 Z-0.900 I0.392 J0.021 K0.000 F60.000
G3 X-13.311 Y-11.032 Z-0.900 I-0.143 J0.396 K0.000 F60.000
G2 X-13.967 Y-10.189 Z-0.900 I5.735 J5.142 K0.000 F60.000
G2 X-14.079 Y-10.925 Z-0.900 I-14.958 J1.890 K0.000 F60.000
G0 Z5.000
G0 X-16.438 Y-6.764 Z5.000
G0 X-16.438 Y-6.764 Z3.000
G1 X-16.438 Y-6.764 Z-0.900 F30.000
G2 X-15.807 Y-7.002 Z-0.900 I-0.420 J-2.068 K0.000 F60.000
G2 X-16.210 Y-6.013 Z-0.900 I6.911 J3.391 K0.000 F60.000
G3 X-16.438 Y-6.764 Z-0.900 I-0.075 J-0.387 K0.000 F60.000
G0 Z5.000
G0 X-15.203 Y-10.376 Z5.000
G0 X-15.203 Y-10.376 Z3.000
G1 X-15.203 Y-10.376 Z-0.900 F30.000
G3 X-13.171 Y-12.415 Z-0.900 I1.518 J-0.520 K0.000 F60.000
G3 X-12.154 Y-11.411 Z-0.900 I-0.572 J1.596 K0.000 F60.000
G2 X-11.810 Y-10.931 Z-0.900 I1.355 J-0.609 K0.000 F60.000
G2 X-15.373 Y-4.762 Z-0.900 I11.585 J10.804 K0.000 F60.000
G2 X-16.361 Y-4.806 Z-0.900 I-0.611 J2.606 K0.000 F60.000
G3 X-16.540 Y-7.996 Z-0.900 I0.084 J-1.604 K0.000 F60.000
G2 X-15.203 Y-10.376 Z-0.900 I-0.608 J-1.906 K0.000 F60.000
G0 Z5.000
G0 X-16.438 Y-6.764 Z5.000
G0 X-16.438 Y-6.764 Z3.000
G1 X-16.438 Y-6.764 Z-1.200 F30.000
G2 X-15.807 Y-7.002 Z-1.200 I-0.420 J-2.068 K0.000 F60.000
G2 X-16.210 Y-6.013 Z-1.200 I6.911 J3.391 K0.000 F60.000
G3 X-16.438 Y-6.764 Z-1.200 I-0.075 J-0.387 K0.000 F60.000
G0 Z5.000
G0 X-14.079 Y-10.925 Z5.000
G0 X-14.079 Y-10.925 Z3.000
G1 X-14.079 Y-10.925 Z-1.200 F30.000
G3 X-13.560 Y-11.276 Z-1.200 I0.392 J0.021 K0.000 F60.000
G3 X-13.311 Y-11.032 Z-1.200 I-0.143 J0.396 K0.000 F60.000
G2 X-13.967 Y-10.189 Z-1.200 I5.735 J5.142 K0.000 F60.000
G2 X-14.079 Y-10.925 Z-1.200 I-14.958 J1.890 K0.000 F60.000
G0 Z5.000
G0 X-15.203 Y-10.376 Z5.000
G0 X-15.203 Y-10.376 Z3.000
G1 X-15.203 Y-10.376 Z-1.200 F30.000
G3 X-13.171 Y-12.415 Z-1.200 I1.518 J-0.520 K0.000 F60.000
G3 X-12.154 Y-11.411 Z-1.200 I-0.572 J1.596 K0.000 F60.000
G2 X-11.810 Y-10.931 Z-1.200 I1.355 J-0.609 K0.000 F60.000
G2 X-15.373 Y-4.762 Z-1.200 I11.585 J10.804 K0.000 F60.000
G2 X-16.361 Y-4.806 Z-1.200 I-0.611 J2.606 K0.000 F60.000
G3 X-16.540 Y-7.996 Z-1.200 I0.084 J-1.604 K0.000 F60.000
G2 X-15.203 Y-10.376 Z-1.200 I-0.608 J-1.906 K0.000 F60.000
G0 Z5.000
G0 X-14.079 Y-10.925 Z5.000
G0 X-14.079 Y-10.925 Z3.000
G1 X-14.079 Y-10.925 Z-1.400 F30.000
G3 X-13.560 Y-11.276 Z-1.400 I0.392 J0.021 K0.000 F60.000
G3 X-13.311 Y-11.032 Z-1.400 I-0.143 J0.396 K0.000 F60.000
G2 X-13.967 Y-10.189 Z-1.400 I5.735 J5.142 K0.000 F60.000
G2 X-14.079 Y-10.925 Z-1.400 I-14.958 J1.890 K0.000 F60.000
G0 Z5.000
G0 X-16.438 Y-6.764 Z5.000
G0 X-16.438 Y-6.764 Z3.000
G1 X-16.438 Y-6.764 Z-1.400 F30.000
G2 X-15.807 Y-7.002 Z-1.400 I-0.420 J-2.068 K0.000 F60.000
G2 X-16.210 Y-6.013 Z-1.400 I6.911 J3.391 K0.000 F60.000
G3 X-16.438 Y-6.764 Z-1.400 I-0.075 J-0.387 K0.000 F60.000
G0 Z5.000
G0 X-15.203 Y-10.376 Z5.000
G0 X-15.203 Y-10.376 Z3.000
G1 X-15.203 Y-10.376 Z-1.400 F30.000
G3 X-13.171 Y-12.415 Z-1.400 I1.518 J-0.520 K0.000 F60.000
G3 X-12.154 Y-11.411 Z-1.400 I-0.572 J1.596 K0.000 F60.000
G2 X-11.810 Y-10.931 Z-1.400 I1.355 J-0.609 K0.000 F60.000
G2 X-15.373 Y-4.762 Z-1.400 I11.585 J10.804 K0.000 F60.000
G2 X-16.361 Y-4.806 Z-1.400 I-0.611 J2.606 K0.000 F60.000
G3 X-16.540 Y-7.996 Z-1.400 I0.084 J-1.604 K0.000 F60.000
G2 X-15.203 Y-10.376 Z-1.400 I-0.608 J-1.906 K0.000 F60.000
G0 Z5.000
G0 Z5.000
G0 X0.000 Y0.000
G0 X1.840 Y17.190
G0 X1.840 Y17.190 Z3.000
G1 X1.840 Y17.190 Z-0.300 F30.000
G2 X2.897 Y17.045 Z-0.300 I-0.518 J-7.680 K0.000 F60.000
G3 X2.361 Y17.618 Z-0.300 I-0.298 J0.259 K0.000 F60.000
G2 X1.840 Y17.190 Z-0.300 I-1.581 J1.398 K0.000 F60.000
G0 Z5.000
G0 X-2.422 Y17.655 Z5.000
G0 X-2.422 Y17.655 Z3.000
G1 X-2.422 Y17.655 Z-0.300 F30.000
G3 X-2.899 Y17.044 Z-0.300 I-0.177 J-0.353 K0.000 F60.000
G2 X-1.840 Y17.191 Z-0.300 I1.586 J-7.538 K0.000 F60.000
G2 X-2.422 Y17.655 Z-0.300 I9.116 J12.009 K0.000 F60.000
G0 Z5.000
G0 X-3.805 Y16.232 Z5.000
G0 X-3.805 Y16.232 Z3.000
G1 X-3.805 Y16.232 Z-0.300 F30.000
G2 X-3.562 Y15.693 Z-0.300 I-1.205 J-0.869 K0.000 F60.000
G2 X3.562 Y15.694 Z-0.300 I3.565 J-15.435 K0.000 F60.000
G2 X4.018 Y16.572 Z-0.300 I2.563 J-0.774 K0.000 F60.000
G3 X1.345 Y18.322 Z-0.300 I-1.431 J0.730 K0.000 F60.000
G2 X-1.384 Y18.354 Z-0.300 I-1.347 J1.480 K0.000 F60.000
G3 X-3.805 Y16.232 Z-0.300 I-1.211 J-1.062 K0.000 F60.000
G0 Z5.000
G0 X1.840 Y17.190 Z5.000
G0 X1.840 Y17.190 Z3.000
G1 X1.840 Y17.190 Z-0.600 F30.000
G2 X2.897 Y17.045 Z-0.600 I-0.518 J-7.680 K0.000 F60.000
G3 X2.361 Y17.618 Z-0.600 I-0.298 J0.259 K0.000 F60.000
G2 X1.840 Y17.190 Z-0.600 I-1.581 J1.398 K0.000 F60.000
G0 Z5.000
G0 X-2.422 Y17.655 Z5.000
G0 X-2.422 Y17.655 Z3.000
G1 X-2.422 Y17.655 Z-0.600 F30.000
G3 X-2.899 Y17.044 Z-0.600 I-0.177 J-0.353 K0.000 F60.000
G2 X-1.840 Y17.191 Z-0.600 I1.586 J-7.538 K0.000 F60.000
G2 X-2.422 Y17.655 Z-0.600 I9.116 J12.009 K0.000 F60.000
G0 Z5.000
G0 X-3.805 Y16.232 Z5.000
G0 X-3.805 Y16.232 Z3.000
G1 X-3.805 Y16.232 Z-0.600 F30.000
G2 X-3.562 Y15.693 Z-0.600 I-1.205 J-0.869 K0.000 F60.000
G2 X3.562 Y15.694 Z-0.600 I3.565 J-15.435 K0.000 F60.000
G2 X4.018 Y16.572 Z-0.600 I2.563 J-0.774 K0.000 F60.000
G3 X1.345 Y18.322 Z-0.600 I-1.431 J0.730 K0.000 F60.000
G2 X-1.384 Y18.354 Z-0.600 I-1.347 J1.480 K0.000 F60.000
G3 X-3.805 Y16.232 Z-0.600 I-1.211 J-1.062 K0.000 F60.000
G0 Z5.000
G0 X-2.422 Y17.655 Z5.000
G0 X-2.422 Y17.655 Z3.000
G1 X-2.422 Y17.655 Z-0.900 F30.000
G3 X-2.899 Y17.044 Z-0.900 I-0.177 J-0.353 K0.000 F60.000
G2 X-1.840 Y17.191 Z-0.900 I1.586 J-7.538 K0.000 F60.000
G2 X-2.422 Y17.655 Z-0.900 I9.116 J12.009 K0.000 F60.000
G0 Z5.000
G0 X1.840 Y17.190 Z5.000
G0 X1.840 Y17.190 Z3.000
G1 X1.840 Y17.190 Z-0.900 F30.000
G2 X2.897 Y17.045 Z-0.900 I-0.518 J-7.680 K0.000 F60.000
G3 X2.361 Y17.618 Z-0.900 I-0.298 J0.259 K0.000 F60.000
G2 X1.840 Y17.190 Z-0.900 I-1.581 J1.398 K0.000 F60.000
G0 Z5.000
G0 X-3.805 Y16.232 Z5.000
G0 X-3.805 Y16.232 Z3.000
G1 X-3.805 Y16.232 Z-0.900 F30.000
G2 X-3.562 Y15.693 Z-0.900 I-1.205 J-0.869 K0.000 F60.000
G2 X3.562 Y15.694 Z-0.900 I3.565 J-15.435 K0.000 F60.000
G2 X4.018 Y16.572 Z-0.900 I2.563 J-0.774 K0.000 F60.000
G3 X1.345 Y18.322 Z-0.900 I-1.431 J0.730 K0.000 F60.000
G2 X-1.384 Y18.354 Z-0.900 I-1.347 J1.480 K0.000 F60.000
G3 X-3.805 Y16.232 Z-0.900 I-1.211 J-1.062 K0.000 F60.000
G0 Z5.000
G0 X1.840 Y17.190 Z5.000
G0 X1.840 Y17.190 Z3.000
G1 X1.840 Y17.190 Z-1.200 F30.000
G2 X2.897 Y17.045 Z-1.200 I-0.518 J-7.680 K0.000 F60.000
G3 X2.361 Y17.618 Z-1.200 I-0.298 J0.259 K0.000 F60.000
G2 X1.840 Y17.190 Z-1.200 I-1.581 J1.398 K0.000 F60.000
G0 Z5.000
G0 X-2.422 Y17.655 Z5.000
G0 X-2.422 Y17.655 Z3.000
G1 X-2.422 Y17.655 Z-1.200 F30.000
G3 X-2.899 Y17.044 Z-1.200 I-0.177 J-0.353 K0.000 F60.000
G2 X-1.840 Y17.191 Z-1.200 I1.586 J-7.538 K0.000 F60.000
G2 X-2.422 Y17.655 Z-1.200 I9.116 J12.009 K0.000 F60.000
G0 Z5.000
G0 X-3.805 Y16.232 Z5.000
G0 X-3.805 Y16.232 Z3.000
G1 X-3.805 Y16.232 Z-1.200 F30.000
G2 X-3.562 Y15.693 Z-1.200 I-1.205 J-0.869 K0.000 F60.000
G2 X3.562 Y15.694 Z-1.200 I3.565 J-15.435 K0.000 F60.000
G2 X4.018 Y16.572 Z-1.200 I2.563 J-0.774 K0.000 F60.000
G3 X1.345 Y18.322 Z-1.200 I-1.431 J0.730 K0.000 F60.000
G2 X-1.384 Y18.354 Z-1.200 I-1.347 J1.480 K0.000 F60.000
G3 X-3.805 Y16.232 Z-1.200 I-1.211 J-1.062 K0.000 F60.000
G0 Z5.000
G0 X1.840 Y17.190 Z5.000
G0 X1.840 Y17.190 Z3.000
G1 X1.840 Y17.190 Z-1.400 F30.000
G2 X2.897 Y17.045 Z-1.400 I-0.518 J-7.680 K0.000 F60.000
G3 X2.361 Y17.618 Z-1.400 I-0.298 J0.259 K0.000 F60.000
G2 X1.840 Y17.190 Z-1.400 I-1.581 J1.398 K0.000 F60.000
G0 Z5.000
G0 X-2.422 Y17.655 Z5.000
G0 X-2.422 Y17.655 Z3.000
G1 X-2.422 Y17.655 Z-1.400 F30.000
G3 X-2.899 Y17.044 Z-1.400 I-0.177 J-0.353 K0.000 F60.000
G2 X-1.840 Y17.191 Z-1.400 I1.586 J-7.538 K0.000 F60.000
G2 X-2.422 Y17.655 Z-1.400 I9.116 J12.009 K0.000 F60.000
G0 Z5.000
G0 X-3.805 Y16.232 Z5.000
G0 X-3.805 Y16.232 Z3.000
G1 X-3.805 Y16.232 Z-1.400 F30.000
G2 X-3.562 Y15.693 Z-1.400 I-1.205 J-0.869 K0.000 F60.000
G2 X3.562 Y15.694 Z-1.400 I3.565 J-15.435 K0.000 F60.000
G2 X4.018 Y16.572 Z-1.400 I2.563 J-0.774 K0.000 F60.000
G3 X1.345 Y18.322 Z-1.400 I-1.431 J0.730 K0.000 F60.000
G2 X-1.384 Y18.354 Z-1.400 I-1.347 J1.480 K0.000 F60.000
G3 X-3.805 Y16.232 Z-1.400 I-1.211 J-1.062 K0.000 F60.000
G0 Z5.000
G0 Z5.000
G0 X0.000 Y0.000
G0 X16.210 Y-6.012
G0 X16.210 Y-6.012 Z3.000
G1 X16.210 Y-6.012 Z-0.300 F30.000
G2 X15.808 Y-7.002 Z-0.300 I-7.321 J2.396 K0.000 F60.000
G2 X16.501 Y-6.730 Z-0.300 I5.842 J-13.899 K0.000 F60.000
G3 X16.210 Y-6.012 Z-0.300 I-0.217 J0.330 K0.000 F60.000
G0 Z5.000
G0 X13.312 Y-11.032 Z5.000
G0 X13.312 Y-11.032 Z3.000
G1 X13.312 Y-11.032 Z-0.300 F30.000
G3 X13.819 Y-11.274 Z-0.300 I0.375 J0.133 K0.000 F60.000
G3 X14.077 Y-10.854 Z-0.300 I-0.133 J0.370 K0.000 F60.000
G2 X13.967 Y-10.188 Z-0.300 I2.001 J0.670 K0.000 F60.000
G2 X13.312 Y-11.032 Z-0.300 I-6.392 J4.289 K0.000 F60.000
G0 Z5.000
G0 X12.343 Y-11.766 Z5.000
G0 X12.343 Y-11.766 Z3.000
G1 X12.343 Y-11.766 Z-0.300 F30.000
G3 X14.224 Y-12.408 Z-0.300 I1.344 J0.861 K0.000 F60.000
G3 X15.195 Y-10.326 Z-0.300 I-0.560 J1.529 K0.000 F60.000
G2 X16.587 Y-7.979 Z-0.300 I1.955 J0.427 K0.000 F60.000
G3 X15.960 Y-4.820 Z-0.300 I-0.314 J1.579 K0.000 F60.000
G2 X15.371 Y-4.762 Z-0.300 I-0.150 J1.478 K0.000 F60.000
G2 X11.811 Y-10.932 Z-0.300 I-15.149 J4.630 K0.000 F60.000
G2 X12.343 Y-11.766 Z-0.300 I-1.952 J-1.832 K0.000 F60.000
G0 Z5.000
G0 X16.210 Y-6.012 Z5.000
G0 X16.210 Y-6.012 Z3.000
G1 X16.210 Y-6.012 Z-0.600 F30.000
G2 X15.808 Y-7.002 Z-0.600 I-7.321 J2.396 K0.000 F60.000
G2 X16.501 Y-6.730 Z-0.600 I5.842 J-13.899 K0.000 F60.000
G3 X16.210 Y-6.012 Z-0.600 I-0.217 J0.330 K0.000 F60.000
G0 Z5.000
G0 X13.312 Y-11.032 Z5.000
G0 X13.312 Y-11.032 Z3.000
G1 X13.312 Y-11.032 Z-0.600 F30.000
G3 X13.819 Y-11.274 Z-0.600 I0.375 J0.133 K0.000 F60.000
G3 X14.077 Y-10.854 Z-0.600 I-0.133 J0.370 K0.000 F60.000
G2 X13.967 Y-10.188 Z-0.600 I2.001 J0.670 K0.000 F60.000
G2 X13.312 Y-11.032 Z-0.600 I-6.392 J4.289 K0.000 F60.000
G0 Z5.000
G0 X12.343 Y-11.766 Z5.000
G0 X12.343 Y-11.766 Z3.000
G1 X12.343 Y-11.766 Z-0.600 F30.000
G3 X14.224 Y-12.408 Z-0.600 I1.344 J0.861 K0.000 F60.000
G3 X15.195 Y-10.326 Z-0.600 I-0.560 J1.529 K0.000 F60.000
G2 X16.587 Y-7.979 Z-0.600 I1.955 J0.427 K0.000 F60.000
G3 X15.960 Y-4.820 Z-0.600 I-0.314 J1.579 K0.000 F60.000
G2 X15.371 Y-4.762 Z-0.600 I-0.150 J1.478 K0.000 F60.000
G2 X11.811 Y-10.932 Z-0.600 I-15.149 J4.630 K0.000 F60.000
G2 X12.343 Y-11.766 Z-0.600 I-1.952 J-1.832 K0.000 F60.000
G0 Z5.000
G0 X16.210 Y-6.012 Z5.000
G0 X16.210 Y-6.012 Z3.000
G1 X16.210 Y-6.012 Z-0.900 F30.000
G2 X15.808 Y-7.002 Z-0.900 I-7.321 J2.396 K0.000 F60.000
G2 X16.501 Y-6.730 Z-0.900 I5.842 J-13.899 K0.000 F60.000
G3 X16.210 Y-6.012 Z-0.900 I-0.217 J0.330 K0.000 F60.000
G0 Z5.000
G0 X13.312 Y-11.032 Z5.000
G0 X13.312 Y-11.032 Z3.000
G1 X13.312 Y-11.032 Z-0.900 F30.000
G3 X13.819 Y-11.274 Z-0.900 I0.375 J0.133 K0.000 F60.000
G3 X14.077 Y-10.854 Z-0.900 I-0.133 J0.370 K0.000 F60.000
G2 X13.967 Y-10.188 Z-0.900 I2.001 J0.670 K0.000 F60.000
G2 X13.312 Y-11.032 Z-0.900 I-6.392 J4.289 K0.000 F60.000
G0 Z5.000
G0 X12.343 Y-11.766 Z5.000
G0 X12.343 Y-11.766 Z3.000
G1 X12.343 Y-11.766 Z-0.900 F30.000
G3 X14.224 Y-12.408 Z-0.900 I1.344 J0.861 K0.000 F60.000
G3 X15.195 Y-10.326 Z-0.900 I-0.560 J1.529 K0.000 F60.000
G2 X16.587 Y-7.979 Z-0.900 I1.955 J0.427 K0.000 F60.000
G3 X15.960 Y-4.820 Z-0.900 I-0.314 J1.579 K0.000 F60.000
G2 X15.371 Y-4.762 Z-0.900 I-0.150 J1.478 K0.000 F60.000
G2 X11.811 Y-10.932 Z-0.900 I-15.149 J4.630 K0.000 F60.000
G2 X12.343 Y-11.766 Z-0.900 I-1.952 J-1.832 K0.000 F60.000
G0 Z5.000
G0 X13.312 Y-11.032 Z5.000
G0 X13.312 Y-11.032 Z3.000
G1 X13.312 Y-11.032 Z-1.200 F30.000
G3 X13.819 Y-11.274 Z-1.200 I0.375 J0.133 K0.000 F60.000
G3 X14.077 Y-10.854 Z-1.200 I-0.133 J0.370 K0.000 F60.000
G2 X13.967 Y-10.188 Z-1.200 I2.001 J0.670 K0.000 F60.000
G2 X13.312 Y-11.032 Z-1.200 I-6.392 J4.289 K0.000 F60.000
G0 Z5.000
G0 X16.210 Y-6.012 Z5.000
G0 X16.210 Y-6.012 Z3.000
G1 X16.210 Y-6.012 Z-1.200 F30.000
G2 X15.808 Y-7.002 Z-1.200 I-7.321 J2.396 K0.000 F60.000
G2 X16.501 Y-6.730 Z-1.200 I5.842 J-13.899 K0.000 F60.000
G3 X16.210 Y-6.012 Z-1.200 I-0.217 J0.330 K0.000 F60.000
G0 Z5.000
G0 X12.343 Y-11.766 Z5.000
G0 X12.343 Y-11.766 Z3.000
G1 X12.343 Y-11.766 Z-1.200 F30.000
G3 X14.224 Y-12.408 Z-1.200 I1.344 J0.861 K0.000 F60.000
G3 X15.195 Y-10.326 Z-1.200 I-0.560 J1.529 K0.000 F60.000
G2 X16.587 Y-7.979 Z-1.200 I1.955 J0.427 K0.000 F60.000
G3 X15.960 Y-4.820 Z-1.200 I-0.314 J1.579 K0.000 F60.000
G2 X15.371 Y-4.762 Z-1.200 I-0.150 J1.478 K0.000 F60.000
G2 X11.811 Y-10.932 Z-1.200 I-15.149 J4.630 K0.000 F60.000
G2 X12.343 Y-11.766 Z-1.200 I-1.952 J-1.832 K0.000 F60.000
G0 Z5.000
G0 X13.312 Y-11.032 Z5.000
G0 X13.312 Y-11.032 Z3.000
G1 X13.312 Y-11.032 Z-1.400 F30.000
G3 X13.819 Y-11.274 Z-1.400 I0.375 J0.133 K0.000 F60.000
G3 X14.077 Y-10.854 Z-1.400 I-0.133 J0.370 K0.000 F60.000
G2 X13.967 Y-10.188 Z-1.400 I2.001 J0.670 K0.000 F60.000
G2 X13.312 Y-11.032 Z-1.400 I-6.392 J4.289 K0.000 F60.000
G0 Z5.000
G0 X16.210 Y-6.012 Z5.000
G0 X16.210 Y-6.012 Z3.000
G1 X16.210 Y-6.012 Z-1.400 F30.000
G2 X15.808 Y-7.002 Z-1.400 I-7.321 J2.396 K0.000 F60.000
G2 X16.501 Y-6.730 Z-1.400 I5.842 J-13.899 K0.000 F60.000
G3 X16.210 Y-6.012 Z-1.400 I-0.217 J0.330 K0.000 F60.000
G0 Z5.000
G0 X12.343 Y-11.766 Z5.000
G0 X12.343 Y-11.766 Z3.000
G1 X12.343 Y-11.766 Z-1.400 F30.000
G3 X14.224 Y-12.408 Z-1.400 I1.344 J0.861 K0.000 F60.000
G3 X15.195 Y-10.326 Z-1.400 I-0.560 J1.529 K0.000 F60.000
G2 X16.587 Y-7.979 Z-1.400 I1.955 J0.427 K0.000 F60.000
G3 X15.960 Y-4.820 Z-1.400 I-0.314 J1.579 K0.000 F60.000
G2 X15.371 Y-4.762 Z-1.400 I-0.150 J1.478 K0.000 F60.000
G2 X11.811 Y-10.932 Z-1.400 I-15.149 J4.630 K0.000 F60.000
G2 X12.343 Y-11.766 Z-1.400 I-1.952 J-1.832 K0.000 F60.000
G0 Z5.000
G0 Z5.000
(Finish operation: Pocket_Shape001)
(Begin operation: Profile)
(Path: Profile)
(Profile)
(Compensated Tool Path. Diameter: 2.0)
G0 Z5.000
G0 X-17.080 Y0.421
G0 Z3.000
G1 X-17.080 Y0.421 Z-0.300 F30.000
G2 X-17.316 Y-0.565 Z-0.300 I-0.421 J-0.421 K0.000 F60.000
G1 X-17.441 Y-0.592 Z-0.300 F60.000
G2 X-17.676 Y0.568 Z-0.300 I-0.059 J0.592 K0.000 F60.000
G2 X-17.080 Y0.421 Z-0.300 I0.176 J-0.568 K0.000 F60.000
G1 X-17.080 Y0.421 Z-0.600 F30.000
G2 X-17.316 Y-0.565 Z-0.600 I-0.421 J-0.421 K0.000 F60.000
G1 X-17.441 Y-0.592 Z-0.600 F60.000
G2 X-17.676 Y0.568 Z-0.600 I-0.059 J0.592 K0.000 F60.000
G2 X-17.080 Y0.421 Z-0.600 I0.176 J-0.568 K0.000 F60.000
G1 X-17.080 Y0.421 Z-0.800 F30.000
G2 X-17.316 Y-0.565 Z-0.800 I-0.421 J-0.421 K0.000 F60.000
G1 X-17.441 Y-0.592 Z-0.800 F60.000
G2 X-17.676 Y0.568 Z-0.800 I-0.059 J0.592 K0.000 F60.000
G2 X-17.080 Y0.421 Z-0.800 I0.176 J-0.568 K0.000 F60.000
G0 Z5.000
G0 Z5.000
G0 X-17.080 Y0.421
G0 X8.241 Y-14.848
G0 X8.241 Y-14.848 Z3.000
G1 X8.241 Y-14.848 Z-0.300 F30.000
G2 X8.566 Y-14.590 Z-0.300 I0.509 J-0.307 K0.000 F60.000
G2 X9.034 Y-15.678 Z-0.300 I0.184 J-0.566 K0.000 F60.000
G1 X8.926 Y-15.724 Z-0.300 F60.000
G2 X8.241 Y-14.848 Z-0.300 I-0.176 J0.568 K0.000 F60.000
G1 X8.241 Y-14.848 Z-0.600 F30.000
G2 X8.566 Y-14.590 Z-0.600 I0.509 J-0.307 K0.000 F60.000
G2 X9.034 Y-15.678 Z-0.600 I0.184 J-0.566 K0.000 F60.000
G1 X8.926 Y-15.724 Z-0.600 F60.000
G2 X8.241 Y-14.848 Z-0.600 I-0.176 J0.568 K0.000 F60.000
G1 X8.241 Y-14.848 Z-0.800 F30.000
G2 X8.566 Y-14.590 Z-0.800 I0.509 J-0.307 K0.000 F60.000
G2 X9.034 Y-15.678 Z-0.800 I0.184 J-0.566 K0.000 F60.000
G1 X8.926 Y-15.724 Z-0.800 F60.000
G2 X8.241 Y-14.848 Z-0.800 I-0.176 J0.568 K0.000 F60.000
G0 Z5.000
G0 Z5.000
G0 X8.241 Y-14.848
G0 X8.740 Y14.560
G0 X8.740 Y14.560 Z3.000
G1 X8.740 Y14.560 Z-0.300 F30.000
G2 X8.574 Y15.724 Z-0.300 I0.010 J0.595 K0.000 F60.000
G2 X9.318 Y15.332 Z-0.300 I0.176 J-0.568 K0.000 F60.000
G2 X8.926 Y14.587 Z-0.300 I-0.568 J-0.176 K0.000 F60.000
G2 X8.740 Y14.560 Z-0.300 I-0.176 J0.568 K0.000 F60.000
G1 X8.740 Y14.560 Z-0.600 F30.000
G2 X8.574 Y15.724 Z-0.600 I0.010 J0.595 K0.000 F60.000
G2 X9.318 Y15.332 Z-0.600 I0.176 J-0.568 K0.000 F60.000
G2 X8.926 Y14.587 Z-0.600 I-0.568 J-0.176 K0.000 F60.000
G2 X8.740 Y14.560 Z-0.600 I-0.176 J0.568 K0.000 F60.000
G1 X8.740 Y14.560 Z-0.800 F30.000
G2 X8.574 Y15.724 Z-0.800 I0.010 J0.595 K0.000 F60.000
G2 X9.318 Y15.332 Z-0.800 I0.176 J-0.568 K0.000 F60.000
G2 X8.926 Y14.587 Z-0.800 I-0.568 J-0.176 K0.000 F60.000
G2 X8.740 Y14.560 Z-0.800 I-0.176 J0.568 K0.000 F60.000
G0 Z5.000
G0 Z5.000
(Finish operation: Profile)
(Begin operation: Profile001)
(Path: Profile001)
(Profile001)
(Compensated Tool Path. Diameter: 2.0)
G0 Z5.000
G0 X-17.309 Y0.191
G0 Z3.000
G1 X-17.309 Y0.191 Z-1.100 F30.000
G2 X-17.409 Y-0.254 Z-1.100 I-0.191 J-0.191 K0.000 F60.000
G2 X-17.591 Y0.254 Z-1.100 I-0.091 J0.254 K0.000 F60.000
G2 X-17.309 Y0.191 Z-1.100 I0.091 J-0.254 K0.000 F60.000
G1 X-17.309 Y0.191 Z-1.400 F30.000
G2 X-17.409 Y-0.254 Z-1.400 I-0.191 J-0.191 K0.000 F60.000
G2 X-17.591 Y0.254 Z-1.400 I-0.091 J0.254 K0.000 F60.000
G2 X-17.309 Y0.191 Z-1.400 I0.091 J-0.254 K0.000 F60.000
G1 X-17.309 Y0.191 Z-1.700 F30.000
G2 X-17.409 Y-0.254 Z-1.700 I-0.191 J-0.191 K0.000 F60.000
G2 X-17.591 Y0.254 Z-1.700 I-0.091 J0.254 K0.000 F60.000
G2 X-17.309 Y0.191 Z-1.700 I0.091 J-0.254 K0.000 F60.000
G1 X-17.309 Y0.191 Z-1.800 F30.000
G2 X-17.409 Y-0.254 Z-1.800 I-0.191 J-0.191 K0.000 F60.000
G2 X-17.591 Y0.254 Z-1.800 I-0.091 J0.254 K0.000 F60.000
G2 X-17.309 Y0.191 Z-1.800 I0.091 J-0.254 K0.000 F60.000
G0 Z5.000
G0 Z5.000
G0 X-17.309 Y0.191
G0 X8.518 Y-15.019
G0 X8.518 Y-15.019 Z3.000
G1 X8.518 Y-15.019 Z-1.100 F30.000
G2 X8.659 Y-14.902 Z-1.100 I0.232 J-0.137 K0.000 F60.000
G2 X8.841 Y-15.409 Z-1.100 I0.091 J-0.254 K0.000 F60.000
G2 X8.518 Y-15.019 Z-1.100 I-0.091 J0.254 K0.000 F60.000
G1 X8.518 Y-15.019 Z-1.400 F30.000
G2 X8.659 Y-14.902 Z-1.400 I0.232 J-0.137 K0.000 F60.000
G2 X8.841 Y-15.409 Z-1.400 I0.091 J-0.254 K0.000 F60.000
G2 X8.518 Y-15.019 Z-1.400 I-0.091 J0.254 K0.000 F60.000
G1 X8.518 Y-15.019 Z-1.700 F30.000
G2 X8.659 Y-14.902 Z-1.700 I0.232 J-0.137 K0.000 F60.000
G2 X8.841 Y-15.409 Z-1.700 I0.091 J-0.254 K0.000 F60.000
G2 X8.518 Y-15.019 Z-1.700 I-0.091 J0.254 K0.000 F60.000
G1 X8.518 Y-15.019 Z-1.800 F30.000
G2 X8.659 Y-14.902 Z-1.800 I0.232 J-0.137 K0.000 F60.000
G2 X8.841 Y-15.409 Z-1.800 I0.091 J-0.254 K0.000 F60.000
G2 X8.518 Y-15.019 Z-1.800 I-0.091 J0.254 K0.000 F60.000
G0 Z5.000
G0 Z5.000
G0 X8.518 Y-15.019
G0 X8.748 Y14.886
G0 X8.748 Y14.886 Z3.000
G1 X8.748 Y14.886 Z-1.100 F30.000
G2 X8.659 Y15.409 Z-1.100 I0.002 J0.270 K0.000 F60.000
G2 X9.004 Y15.247 Z-1.100 I0.091 J-0.254 K0.000 F60.000
G2 X8.841 Y14.902 Z-1.100 I-0.254 J-0.091 K0.000 F60.000
G2 X8.748 Y14.886 Z-1.100 I-0.091 J0.254 K0.000 F60.000
G1 X8.748 Y14.886 Z-1.400 F30.000
G2 X8.659 Y15.409 Z-1.400 I0.002 J0.270 K0.000 F60.000
G2 X9.004 Y15.247 Z-1.400 I0.091 J-0.254 K0.000 F60.000
G2 X8.841 Y14.902 Z-1.400 I-0.254 J-0.091 K0.000 F60.000
G2 X8.748 Y14.886 Z-1.400 I-0.091 J0.254 K0.000 F60.000
G1 X8.748 Y14.886 Z-1.700 F30.000
G2 X8.659 Y15.409 Z-1.700 I0.002 J0.270 K0.000 F60.000
G2 X9.004 Y15.247 Z-1.700 I0.091 J-0.254 K0.000 F60.000
G2 X8.841 Y14.902 Z-1.700 I-0.254 J-0.091 K0.000 F60.000
G2 X8.748 Y14.886 Z-1.700 I-0.091 J0.254 K0.000 F60.000
G1 X8.748 Y14.886 Z-1.800 F30.000
G2 X8.659 Y15.409 Z-1.800 I0.002 J0.270 K0.000 F60.000
G2 X9.004 Y15.247 Z-1.800 I0.091 J-0.254 K0.000 F60.000
G2 X8.841 Y14.902 Z-1.800 I-0.254 J-0.091 K0.000 F60.000
G2 X8.748 Y14.886 Z-1.800 I-0.091 J0.254 K0.000 F60.000
G0 Z5.000
G0 Z5.000
(Finish operation: Profile001)
(Begin operation: Pocket_Shape002)
(Path: Pocket_Shape002)
(Pocket_Shape002)
G0 Z5.000
G0
G0 X-18.508 Y5.768
G0 X-18.508 Y5.768 Z3.000
G1 X-18.508 Y5.768 Z-0.300 F30.000
G3 X-17.970 Y5.355 Z-0.300 I0.388 J-0.051 K0.000 F60.000
G3 X-17.693 Y5.728 Z-0.300 I-0.219 J0.452 K0.000 F60.000
G2 X-8.921 Y16.338 Z-0.300 I17.791 J-5.778 K0.000 F60.000
G3 X-9.414 Y16.960 Z-0.300 I-0.253 J0.306 K0.000 F60.000
G3 X-18.508 Y5.768 Z-0.300 I9.338 J-16.878 K0.000 F60.000
G0 Z5.000
G0 X-19.636 Y6.225 Z5.000
G0 X-19.636 Y6.225 Z3.000
G1 X-19.636 Y6.225 Z-0.300 F30.000
G3 X-17.509 Y4.242 Z-0.300 I1.516 J-0.506 K0.000 F60.000
G3 X-16.574 Y5.294 Z-0.300 I-0.635 J1.506 K0.000 F60.000
G2 X-8.447 Y15.210 Z-0.300 I16.564 J-5.286 K0.000 F60.000
G3 X-9.682 Y18.153 Z-0.300 I-0.721 J1.428 K0.000 F60.000
G1 X-9.963 Y18.029 Z-0.300 F60.000
G3 X-19.636 Y6.225 Z-0.300 I9.954 J-18.021 K0.000 F60.000
G0 Z5.000
G0 X-18.508 Y5.768 Z5.000
G0 X-18.508 Y5.768 Z3.000
G1 X-18.508 Y5.768 Z-0.600 F30.000
G3 X-17.970 Y5.355 Z-0.600 I0.388 J-0.051 K0.000 F60.000
G3 X-17.693 Y5.728 Z-0.600 I-0.219 J0.452 K0.000 F60.000
G2 X-8.921 Y16.338 Z-0.600 I17.791 J-5.778 K0.000 F60.000
G3 X-9.414 Y16.960 Z-0.600 I-0.253 J0.306 K0.000 F60.000
G3 X-18.508 Y5.768 Z-0.600 I9.338 J-16.878 K0.000 F60.000
G0 Z5.000
G0 X-19.636 Y6.225 Z5.000
G0 X-19.636 Y6.225 Z3.000
G1 X-19.636 Y6.225 Z-0.600 F30.000
G3 X-17.509 Y4.242 Z-0.600 I1.516 J-0.506 K0.000 F60.000
G3 X-16.574 Y5.294 Z-0.600 I-0.635 J1.506 K0.000 F60.000
G2 X-8.447 Y15.210 Z-0.600 I16.564 J-5.286 K0.000 F60.000
G3 X-9.682 Y18.153 Z-0.600 I-0.721 J1.428 K0.000 F60.000
G1 X-9.963 Y18.029 Z-0.600 F60.000
G3 X-19.636 Y6.225 Z-0.600 I9.954 J-18.021 K0.000 F60.000
G0 Z5.000
G0 X-18.508 Y5.768 Z5.000
G0 X-18.508 Y5.768 Z3.000
G1 X-18.508 Y5.768 Z-0.900 F30.000
G3 X-17.970 Y5.355 Z-0.900 I0.388 J-0.051 K0.000 F60.000
G3 X-17.693 Y5.728 Z-0.900 I-0.219 J0.452 K0.000 F60.000
G2 X-8.921 Y16.338 Z-0.900 I17.791 J-5.778 K0.000 F60.000
G3 X-9.414 Y16.960 Z-0.900 I-0.253 J0.306 K0.000 F60.000
G3 X-18.508 Y5.768 Z-0.900 I9.338 J-16.878 K0.000 F60.000
G0 Z5.000
G0 X-19.636 Y6.225 Z5.000
G0 X-19.636 Y6.225 Z3.000
G1 X-19.636 Y6.225 Z-0.900 F30.000
G3 X-17.509 Y4.242 Z-0.900 I1.516 J-0.506 K0.000 F60.000
G3 X-16.574 Y5.294 Z-0.900 I-0.635 J1.506 K0.000 F60.000
G2 X-8.447 Y15.210 Z-0.900 I16.564 J-5.286 K0.000 F60.000
G3 X-9.682 Y18.153 Z-0.900 I-0.721 J1.428 K0.000 F60.000
G1 X-9.963 Y18.029 Z-0.900 F60.000
G3 X-19.636 Y6.225 Z-0.900 I9.954 J-18.021 K0.000 F60.000
G0 Z5.000
G0 X-18.508 Y5.768 Z5.000
G0 X-18.508 Y5.768 Z3.000
G1 X-18.508 Y5.768 Z-1.200 F30.000
G3 X-17.970 Y5.355 Z-1.200 I0.388 J-0.051 K0.000 F60.000
G3 X-17.693 Y5.728 Z-1.200 I-0.219 J0.452 K0.000 F60.000
G2 X-8.921 Y16.338 Z-1.200 I17.791 J-5.778 K0.000 F60.000
G3 X-9.414 Y16.960 Z-1.200 I-0.253 J0.306 K0.000 F60.000
G3 X-18.508 Y5.768 Z-1.200 I9.338 J-16.878 K0.000 F60.000
G0 Z5.000
G0 X-19.636 Y6.225 Z5.000
G0 X-19.636 Y6.225 Z3.000
G1 X-19.636 Y6.225 Z-1.200 F30.000
G3 X-17.509 Y4.242 Z-1.200 I1.516 J-0.506 K0.000 F60.000
G3 X-16.574 Y5.294 Z-1.200 I-0.635 J1.506 K0.000 F60.000
G2 X-8.447 Y15.210 Z-1.200 I16.564 J-5.286 K0.000 F60.000
G3 X-9.682 Y18.153 Z-1.200 I-0.721 J1.428 K0.000 F60.000
G1 X-9.963 Y18.029 Z-1.200 F60.000
G3 X-19.636 Y6.225 Z-1.200 I9.954 J-18.021 K0.000 F60.000
G0 Z5.000
G0 Z5.000
(Finish operation: Pocket_Shape002)
(Begin operation: Profile002)
(Path: Profile002)
(Profile002)
(Compensated Tool Path. Diameter: 2.0)
G0 Z5.000
G0 X9.970 Y9.970
G0 Z3.000
G1 X9.970 Y9.970 Z-0.300 F30.000
G2 X2.007 Y-13.956 Z-0.300 I-9.970 J-9.970 K0.000 F60.000
G2 X-2.007 Y13.956 Z-0.300 I-2.007 J13.956 K0.000 F60.000
G2 X9.970 Y9.970 Z-0.300 I2.007 J-13.956 K0.000 F60.000
G1 X9.970 Y9.970 Z-0.600 F30.000
G2 X2.007 Y-13.956 Z-0.600 I-9.970 J-9.970 K0.000 F60.000
G2 X-2.007 Y13.956 Z-0.600 I-2.007 J13.956 K0.000 F60.000
G2 X9.970 Y9.970 Z-0.600 I2.007 J-13.956 K0.000 F60.000
G1 X9.970 Y9.970 Z-0.900 F30.000
G2 X2.007 Y-13.956 Z-0.900 I-9.970 J-9.970 K0.000 F60.000
G2 X-2.007 Y13.956 Z-0.900 I-2.007 J13.956 K0.000 F60.000
G2 X9.970 Y9.970 Z-0.900 I2.007 J-13.956 K0.000 F60.000
G1 X9.970 Y9.970 Z-1.200 F30.000
G2 X2.007 Y-13.956 Z-1.200 I-9.970 J-9.970 K0.000 F60.000
G2 X-2.007 Y13.956 Z-1.200 I-2.007 J13.956 K0.000 F60.000
G2 X9.970 Y9.970 Z-1.200 I2.007 J-13.956 K0.000 F60.000
G1 X9.970 Y9.970 Z-1.500 F30.000
G2 X2.007 Y-13.956 Z-1.500 I-9.970 J-9.970 K0.000 F60.000
G2 X-2.007 Y13.956 Z-1.500 I-2.007 J13.956 K0.000 F60.000
G2 X9.970 Y9.970 Z-1.500 I2.007 J-13.956 K0.000 F60.000
G1 X9.970 Y9.970 Z-1.800 F30.000
G2 X2.007 Y-13.956 Z-1.800 I-9.970 J-9.970 K0.000 F60.000
G2 X-2.007 Y13.956 Z-1.800 I-2.007 J13.956 K0.000 F60.000
G2 X9.970 Y9.970 Z-1.800 I2.007 J-13.956 K0.000 F60.000
G0 Z5.000
G0 Z5.000
(Finish operation: Profile002)
(Begin operation: Profile003)
(Path: Profile003)
(Profile003)
(Compensated Tool Path. Diameter: 2.0)
G0 Z5.000
G0 X16.900 Y16.900
G0 Z3.000
G1 X16.900 Y16.900 Z-0.300 F30.000
G2 X2.803 Y-23.735 Z-0.300 I-16.900 J-16.900 K0.000 F60.000
G2 X-2.803 Y23.735 Z-0.300 I-2.803 J23.735 K0.000 F60.000
G2 X16.900 Y16.900 Z-0.300 I2.803 J-23.735 K0.000 F60.000
G1 X16.900 Y16.900 Z-0.600 F30.000
G2 X2.803 Y-23.735 Z-0.600 I-16.900 J-16.900 K0.000 F60.000
G2 X-2.803 Y23.735 Z-0.600 I-2.803 J23.735 K0.000 F60.000
G2 X16.900 Y16.900 Z-0.600 I2.803 J-23.735 K0.000 F60.000
G1 X16.900 Y16.900 Z-0.900 F30.000
G2 X2.803 Y-23.735 Z-0.900 I-16.900 J-16.900 K0.000 F60.000
G2 X-2.803 Y23.735 Z-0.900 I-2.803 J23.735 K0.000 F60.000
G2 X16.900 Y16.900 Z-0.900 I2.803 J-23.735 K0.000 F60.000
G1 X16.900 Y16.900 Z-1.200 F30.000
G2 X2.803 Y-23.735 Z-1.200 I-16.900 J-16.900 K0.000 F60.000
G2 X-2.803 Y23.735 Z-1.200 I-2.803 J23.735 K0.000 F60.000
G2 X16.900 Y16.900 Z-1.200 I2.803 J-23.735 K0.000 F60.000
G1 X16.900 Y16.900 Z-1.500 F30.000
G2 X2.803 Y-23.735 Z-1.500 I-16.900 J-16.900 K0.000 F60.000
G2 X-2.803 Y23.735 Z-1.500 I-2.803 J23.735 K0.000 F60.000
G2 X16.900 Y16.900 Z-1.500 I2.803 J-23.735 K0.000 F60.000
G1 X16.900 Y16.900 Z-1.800 F30.000
G2 X2.803 Y-23.735 Z-1.800 I-16.900 J-16.900 K0.000 F60.000
G2 X-2.803 Y23.735 Z-1.800 I-2.803 J23.735 K0.000 F60.000
G2 X16.900 Y16.900 Z-1.800 I2.803 J-23.735 K0.000 F60.000
G0 Z5.000
G0 Z5.000
(Finish operation: Profile003)
(Begin postamble)
M5
G17 G90
M2
