; generated by PrusaSlicer 2.7.4 on 2024-07-22 at 23:29:28 UTC

; 

; external perimeters extrusion width = 0.42mm
; perimeters extrusion width = 0.44mm
; infill extrusion width = 0.44mm
; solid infill extrusion width = 0.44mm
; top infill extrusion width = 0.40mm
; support material extrusion width = 0.36mm
; first layer extrusion width = 0.42mm

M201 X500 Y500 Z100 E5000 ; sets maximum accelerations, mm/sec^2
M203 X500 Y500 Z10 E60 ; sets maximum feedrates, mm / sec
M204 S500 T1000 ; sets acceleration (S) and retract acceleration (R), mm/sec^2
M205 X8.00 Y8.00 Z0.40 E5.00 ; sets the jerk limits, mm/sec
M205 S0 T0 ; sets the minimum extruding and travel feed rate, mm/sec

; printing object Body id:2 copy 0
; stop printing object Body id:2 copy 0

;TYPE:Custom
G90 ; use absolute coordinates
M83 ; extruder relative mode
M104 S150 ; set temporary nozzle temp to prevent oozing during homing
M140 S60 ; set final bed temp
G4 S30 ; allow partial nozzle warmup
G28 ; home all axis
G1 Z50 F240
G1 X2.0 Y10 F3000
M104 S215 ; set final nozzle temp
M190 S60 ; wait for bed temp to stabilize
M109 S215 ; wait for nozzle temp to stabilize
G1 Z0.28 F240
G92 E0
G1 X2.0 Y140 E10 F1500 ; prime the nozzle
G1 X2.3 Y140 F5000
G92 E0
G1 X2.3 Y10 E10 F1200 ; prime the nozzle
G92 E0
G21 ; set units to millimeters
G90 ; use absolute coordinates
M83 ; use relative distances for extrusion
; Filament gcode
M107
;LAYER_CHANGE
;Z:0.2
;HEIGHT:0.2
G1 E-5 F3600
G1 Z.2 F9000
G1 X73.378 Y65.767
G1 Z.2
G1 E5 F2400
M204 S500
;TYPE:Skirt/Brim
;WIDTH:0.42
G1 F1200
G1 X73.425 Y65.713 E.00224
G1 X74.99 Y64.942 E.0547
G1 X84.36 Y62.265 E.30554
G1 X85.702 Y62.077 E.04249
G1 X94.298 Y62.077 E.26952
G1 X96.483 Y62.593 E.07039
G1 X109.868 Y69.286 E.46922
G1 X111.138 Y70.201 E.04908
G1 X113.815 Y72.878 E.1187
G1 X114.73 Y74.147 E.04905
G1 X116.068 Y76.825 E.09386
G1 X116.489 Y78.051 E.04064
G1 X117.828 Y84.744 E.21401
G1 X117.923 Y85.702 E.03018
G1 X117.923 Y94.297 E.26949
G1 X117.257 Y96.759 E.07997
G1 X107.887 Y112.822 E.58307
G1 X106.575 Y114.286 E.06164
G1 X105.01 Y115.057 E.0547
G1 X95.64 Y117.734 E.30554
G1 X94.298 Y117.922 E.04249
G1 X85.702 Y117.922 E.26952
G1 X84.36 Y117.734 E.04249
G1 X74.99 Y115.057 E.30554
G1 X72.878 Y113.814 E.07684
G1 X66.185 Y107.122 E.29676
G1 X65.27 Y105.852 E.04908
G1 X63.932 Y103.175 E.09384
G1 X63.511 Y101.948 E.04067
G1 X62.172 Y95.256 E.21398
G1 X62.077 Y94.297 E.03022
G1 X62.077 Y85.702 E.26949
G1 X62.743 Y83.24 E.07997
G1 X72.113 Y67.178 E.58304
G1 X73.338 Y65.811 E.05755
G1 X73.338 Y65.811 F9000
G1 X73.621 Y66.07
G1 F1200
G1 X73.71 Y65.972 E.00415
G1 X75.094 Y65.305 E.04817
G1 X84.464 Y62.628 E.30554
G1 X85.702 Y62.454 E.0392
G1 X94.298 Y62.454 E.26952
G1 X96.314 Y62.93 E.06495
G1 X109.699 Y69.623 E.46922
G1 X110.871 Y70.467 E.04528
G1 X113.548 Y73.144 E.1187
G1 X114.393 Y74.316 E.0453
G1 X115.731 Y76.993 E.09384
G1 X116.12 Y78.125 E.03753
G1 X117.458 Y84.818 E.21401
G1 X117.546 Y85.702 E.02785
G1 X117.546 Y94.297 E.26949
G1 X116.931 Y96.569 E.0738
G1 X107.562 Y112.632 E.58305
G1 X106.29 Y114.027 E.05919
G1 X104.906 Y114.695 E.04818
G1 X95.536 Y117.372 E.30554
G1 X94.298 Y117.545 E.03919
G1 X85.702 Y117.545 E.26952
G1 X84.464 Y117.372 E.03919
G1 X75.094 Y114.695 E.30554
G1 X73.145 Y113.548 E.07091
G1 X66.452 Y106.855 E.29678
G1 X65.607 Y105.683 E.0453
G1 X64.269 Y103.006 E.09384
G1 X63.881 Y101.874 E.03752
G1 X62.542 Y95.182 E.21398
G1 X62.454 Y94.297 E.02789
G1 X62.454 Y85.702 E.26949
G1 X63.069 Y83.43 E.0738
G1 X72.438 Y67.368 E.58303
G1 X73.581 Y66.114 E.0532
G1 X73.581 Y66.114 F9000
G1 X73.862 Y66.376
G1 F1200
G1 X73.994 Y66.234 E.00608
G1 X75.198 Y65.667 E.04173
G1 X84.567 Y62.99 E.30551
G1 X85.702 Y62.831 E.03593
G1 X94.298 Y62.831 E.26952
G1 X96.145 Y63.267 E.0595
G1 X109.531 Y69.96 E.46925
G1 X110.604 Y70.734 E.04148
G1 X113.281 Y73.411 E.1187
G1 X114.055 Y74.485 E.04151
G1 X115.394 Y77.162 E.09385
G1 X115.75 Y78.199 E.03438
G1 X117.088 Y84.892 E.21401
G1 X117.169 Y85.702 E.02552
G1 X117.169 Y94.297 E.26949
G1 X116.606 Y96.379 E.06762
G1 X107.236 Y112.442 E.58307
G1 X106.006 Y113.765 E.05664
G1 X104.802 Y114.332 E.04173
G1 X95.433 Y117.009 E.30551
G1 X94.298 Y117.168 E.03593
G1 X85.702 Y117.168 E.26952
G1 X84.567 Y117.009 E.03593
G1 X75.198 Y114.332 E.30551
G1 X73.411 Y113.281 E.065
G1 X66.719 Y106.588 E.29676
G1 X65.945 Y105.515 E.04148
G1 X64.606 Y102.838 E.09385
G1 X64.25 Y101.8 E.03441
G1 X62.912 Y95.108 E.21398
G1 X62.832 Y94.297 E.02555
G1 X62.832 Y85.702 E.26949
G1 X63.394 Y83.62 E.06762
G1 X72.764 Y67.558 E.58304
G1 X73.822 Y66.42 E.04872
G1 X73.822 Y66.42 F9000
G1 X74.1 Y66.684
G1 F1200
G1 X74.275 Y66.499 E.00798
G1 X75.301 Y66.03 E.03537
G1 X84.671 Y63.353 E.30554
G1 X85.702 Y63.208 E.03264
G1 X94.298 Y63.208 E.26952
G1 X95.977 Y63.605 E.0541
G1 X109.362 Y70.297 E.46921
G1 X110.338 Y71.001 E.03773
G1 X113.015 Y73.678 E.1187
G1 X113.718 Y74.653 E.03769
G1 X115.057 Y77.33 E.09385
G1 X115.38 Y78.273 E.03125
G1 X116.719 Y84.966 E.21401
G1 X116.791 Y85.702 E.02319
G1 X116.791 Y94.297 E.26949
G1 X116.28 Y96.189 E.06145
G1 X106.91 Y112.252 E.58307
G1 X105.725 Y113.5 E.05396
G1 X104.699 Y113.97 E.03538
G1 X95.329 Y116.647 E.30554
G1 X94.298 Y116.791 E.03264
G1 X85.702 Y116.791 E.26952
G1 X84.671 Y116.647 E.03264
G1 X75.301 Y113.97 E.30554
G1 X73.678 Y113.015 E.05904
G1 X66.985 Y106.322 E.29678
G1 X66.282 Y105.346 E.03771
G1 X64.943 Y102.669 E.09385
G1 X64.62 Y101.726 E.03125
G1 X63.281 Y95.034 E.21398
G1 X63.209 Y94.297 E.02322
G1 X63.209 Y85.702 E.26949
G1 X63.72 Y83.81 E.06145
G1 X73.09 Y67.748 E.58304
G1 X74.059 Y66.727 E.04414
G1 X74.059 Y66.727 F9000
G1 X74.334 Y66.995
G1 F1200
G1 X74.554 Y66.769 E.00989
G1 X75.405 Y66.392 E.02918
G1 X84.775 Y63.715 E.30554
G1 X85.702 Y63.585 E.02935
G1 X94.298 Y63.585 E.26952
G1 X95.808 Y63.942 E.04865
G1 X109.193 Y70.635 E.46922
G1 X110.071 Y71.267 E.03392
G1 X112.748 Y73.944 E.1187
G1 X113.381 Y74.822 E.03394
G1 X114.719 Y77.499 E.09384
G1 X115.01 Y78.347 E.02811
G1 X116.349 Y85.04 E.21401
G1 X116.414 Y85.702 E.02086
G1 X116.414 Y94.297 E.26949
G1 X115.954 Y95.999 E.05528
G1 X106.585 Y112.062 E.58305
G1 X105.446 Y113.23 E.05115
G1 X104.595 Y113.607 E.02918
G1 X95.225 Y116.284 E.30554
G1 X94.298 Y116.414 E.02935
G1 X85.702 Y116.414 E.26952
G1 X84.775 Y116.284 E.02935
G1 X75.405 Y113.607 E.30554
G1 X73.945 Y112.748 E.05311
G1 X67.252 Y106.055 E.29678
G1 X66.619 Y105.178 E.03391
G1 X65.281 Y102.5 E.09386
G1 X64.99 Y101.652 E.02811
G1 X63.651 Y94.96 E.21398
G1 X63.586 Y94.297 E.02089
G1 X63.586 Y85.702 E.26949
G1 X64.046 Y84 E.05528
G1 X73.415 Y67.938 E.58303
G1 X74.292 Y67.038 E.0394
G1 E-3.5 F3600
;WIPE_START
G1 F7200
G1 X74.334 Y66.995 E-.02855
G1 X74.554 Y66.769 E-.14981
G1 X75.405 Y66.392 E-.44212
G1 X77.185 Y65.883 E-.87952
;WIPE_END
; printing object Body id:2 copy 0
G1 X94.298 Y68.301 F9000
G1 E5 F2400
;TYPE:Support material
G1 F1200
G1 X95.636 Y68.301 E.04195
G1 X95.636 Y72.841 E.14235
G1 X93.984 Y72.383 E.05375
G1 X92.245 Y72.078 E.05536
G1 X89.877 Y71.938 E.07438
G1 X89.661 Y72.062 E.00781
G1 X85.912 Y78.571 E.23552
G1 X85.267 Y80.14 E.05319
G1 X84.929 Y81.717 E.05057
G1 X84.861 Y83.111 E.04376
G1 X84.885 Y83.672 E.01761
G1 X85.373 Y83.915 E.01709
G1 X86.469 Y83.227 E.04057
G1 X87.842 Y82.673 E.04642
G1 X88.936 Y82.436 E.0351
G1 X90.282 Y82.369 E.04226
G1 X90.282 Y86.266 E.12219
G1 X88.944 Y86.266 E.04195
G1 X88.944 Y87.605 E.04198
G1 X87.605 Y87.605 E.04198
G1 X87.605 Y88.943 E.04195
G1 X86.266 Y88.943 E.04198
G1 X86.266 Y95.636 E.20985
G1 X84.846 Y95.636 E.04452
G1 X84.3 Y95.085 E.02432
G1 X83.617 Y94.195 E.03518
G1 X82.922 Y92.871 E.04688
G1 X82.577 Y91.803 E.03519
G1 X82.37 Y90.349 E.04605
G1 X82.415 Y89.055 E.0406
G1 X81.709 Y88.835 E.02319
G1 X78.555 Y94.297 E.19776
G1 X78.235 Y94.297 E.01003
G1 X78.235 Y94.852 E.0174
G1 X75.202 Y100.106 E.19021
G1 X75.216 Y100.379 E.00857
G1 X76.22 Y101.676 E.05143
G1 X77.05 Y102.592 E.03876
G1 X78.301 Y103.761 E.05368
G1 X79.446 Y104.663 E.0457
G1 X79.847 Y104.59 E.01278
G1 X80.31 Y103.999 E.02354
G1 X80.926 Y103.701 E.02146
G1 X81.618 Y103.715 E.0217
G1 X82.212 Y104.019 E.02092
G1 X82.544 Y104.42 E.01632
G1 X82.729 Y104.985 E.01864
G1 X82.681 Y105.567 E.01831
G1 X82.438 Y106.084 E.01791
G1 X82.575 Y106.471 E.01287
G1 X84.473 Y107.195 E.06369
G1 X86.729 Y107.763 E.07294
G1 X89.04 Y108.036 E.07296
G1 X90.122 Y108.062 E.03394
G1 X90.338 Y107.938 E.00781
G1 X94.091 Y101.419 E.23585
G1 X94.73 Y99.867 E.05263
G1 X95.032 Y98.553 E.04227
G1 X95.139 Y97.378 E.03699
G1 X95.114 Y96.327 E.03296
G1 X94.626 Y96.084 E.01709
G1 X93.527 Y96.774 E.04069
G1 X92.149 Y97.329 E.04658
G1 X91.052 Y97.565 E.03518
G1 X89.718 Y97.63 E.04188
G1 X89.718 Y93.733 E.12219
G1 X91.056 Y93.733 E.04195
G1 X91.056 Y92.395 E.04195
G1 X92.395 Y92.395 E.04198
G1 X92.395 Y91.056 E.04198
G1 X93.734 Y91.056 E.04198
G1 X93.734 Y84.363 E.20985
G1 X95.154 Y84.363 E.04452
G1 X95.918 Y85.172 E.03489
G1 X96.361 Y85.773 E.02341
G1 X96.91 Y86.748 E.03508
G1 X97.41 Y88.152 E.04673
G1 X97.628 Y89.632 E.04691
G1 X97.583 Y90.941 E.04107
G1 X98.29 Y91.164 E.02324
G1 X101.444 Y85.702 E.19776
G1 X101.765 Y85.702 E.01006
G1 X101.765 Y85.146 E.01743
G1 X104.797 Y79.894 E.19014
G1 X104.783 Y79.621 E.00857
G1 X103.242 Y77.717 E.0768
G1 X101.979 Y76.482 E.05539
G1 X100.426 Y75.254 E.06208
G1 X100.426 Y73.655 E.05014
G1 X107.683 Y73.655 E.22754
G1 X107.683 Y74.994 E.04198
G1 X109.022 Y74.994 E.04198
G1 X109.022 Y76.332 E.04195
G1 X110.36 Y76.332 E.04195
G1 X110.36 Y79.009 E.08394
G1 X111.699 Y79.009 E.04198
G1 X111.699 Y85.702 E.20985
G1 X113.037 Y85.702 E.04195
G1 X113.037 Y94.297 E.26949
G1 X111.699 Y94.297 E.04195
G1 X111.699 Y95.636 E.04198
G1 X107.158 Y95.636 E.14238
G1 X107.66 Y93.786 E.0601
G1 X107.975 Y91.808 E.0628
G1 X107.712 Y91.497 E.01277
G1 X106.97 Y91.392 E.0235
G1 X106.407 Y91.012 E.0213
G1 X106.098 Y90.504 E.01864
G1 X106.021 Y89.823 E.02149
G1 X106.206 Y89.261 E.01855
G1 X106.526 Y88.874 E.01575
G1 X107.041 Y88.585 E.01852
G1 X107.709 Y88.506 E.02109
G1 X107.975 Y88.194 E.01286
G1 X107.688 Y86.348 E.05858
G1 X107.229 Y84.561 E.05785
G1 X106.622 Y84.485 E.01918
G1 X93.535 Y107.152 E.82066
G1 X93.904 Y107.641 E.01921
G1 X95.756 Y107.12 E.06032
G1 X97.424 Y106.47 E.05613
G1 X97.56 Y106.08 E.01295
G1 X97.306 Y105.522 E.01922
G1 X97.278 Y104.932 E.01852
G1 X97.442 Y104.441 E.01623
G1 X97.828 Y103.985 E.01873
G1 X98.447 Y103.697 E.02141
G1 X99.111 Y103.712 E.02082
G1 X99.723 Y104.028 E.0216
G1 X100.14 Y104.586 E.02184
G1 X100.549 Y104.667 E.01307
G1 X102.083 Y103.425 E.06189
G1 X103.668 Y101.805 E.07106
G1 X103.668 Y110.36 E.26824
G1 X98.313 Y110.36 E.1679
G1 X98.313 Y111.698 E.04195
G1 X94.298 Y111.698 E.12589
G1 X94.298 Y113.037 E.04198
G1 X85.702 Y113.037 E.26952
G1 X85.702 Y111.698 E.04198
G1 X84.364 Y111.698 E.04195
G1 X84.364 Y110.36 E.04195
G1 X76.333 Y110.36 E.25181
G1 X76.333 Y109.021 E.04198
G1 X74.994 Y109.021 E.04198
G1 X74.994 Y106.344 E.08394
G1 X72.317 Y106.344 E.08394
G1 X72.317 Y105.006 E.04195
G1 X70.978 Y105.006 E.04198
G1 X70.978 Y103.667 E.04198
G1 X69.64 Y103.667 E.04195
G1 X69.64 Y100.99 E.08394
G1 X68.301 Y100.99 E.04198
G1 X68.301 Y94.297 E.20985
G1 X66.963 Y94.297 E.04195
G1 X66.963 Y85.702 E.26949
G1 X68.301 Y85.702 E.04195
G1 X68.301 Y84.363 E.04198
G1 X72.841 Y84.364 E.14235
G1 X72.339 Y86.213 E.06007
G1 X72.023 Y88.194 E.0629
G1 X72.294 Y88.507 E.01298
G1 X72.98 Y88.59 E.02167
G1 X73.551 Y88.947 E.02111
G1 X73.9 Y89.498 E.02045
G1 X73.979 Y90.167 E.02112
G1 X73.839 Y90.651 E.0158
G1 X73.488 Y91.114 E.01822
G1 X72.98 Y91.41 E.01843
G1 X72.298 Y91.489 E.02153
G1 X72.023 Y91.802 E.01306
G1 X72.311 Y93.652 E.0587
G1 X72.769 Y95.439 E.05784
G1 X73.377 Y95.514 E.01921
G1 X86.464 Y72.847 E.82066
G1 X86.095 Y72.359 E.01918
G1 X84.243 Y72.88 E.06032
G1 X82.577 Y73.529 E.05606
G1 X82.44 Y73.913 E.01278
G1 X82.702 Y74.52 E.02073
G1 X82.716 Y75.105 E.01835
G1 X82.497 Y75.658 E.01865
G1 X82.153 Y76.027 E.01582
G1 X81.521 Y76.309 E.0217
G1 X80.926 Y76.298 E.01866
G1 X80.31 Y76.001 E.02144
G1 X79.851 Y75.41 E.02346
G1 X79.447 Y75.335 E.01288
G1 X77.916 Y76.575 E.06177
G1 X76.333 Y78.193 E.07097
G1 X76.333 Y69.64 E.26817
G1 X81.687 Y69.64 E.16787
G1 X81.687 Y68.301 E.04198
G1 X85.702 Y68.301 E.12589
G1 X85.702 Y66.962 E.04198
G1 X94.298 Y66.962 E.26952
G1 X94.298 Y68.244 E.0402
G1 E-3.5 F3600
;WIPE_START
G1 F7200
G1 X94.298 Y66.962 E-.60895
G1 X92.422 Y66.962 E-.89105
;WIPE_END
G1 X112.625 Y94.128 F9000
G1 E5 F2400
G1 F1200
G1 X112.625 Y86.041 E.25356
G1 X112.206 Y86.041 E.01314
G1 X112.206 Y93.958 E.24823
G1 X111.787 Y93.958 E.01314
G1 X111.787 Y86.041 E.24823
G1 X111.368 Y86.041 E.01314
G1 X111.359 Y95.297 E.29022
G1 X110.949 Y95.297 E.01286
G1 X110.949 Y79.349 E.50004
G1 X110.53 Y79.349 E.01314
G1 X110.53 Y95.297 E.50004
G1 X110.111 Y95.297 E.01314
G1 X110.111 Y79.349 E.50004
G1 X110.021 Y79.349 E.00282
G1 X110.021 Y76.672 E.08394
G1 X109.692 Y76.672 E.01032
G1 X109.692 Y95.297 E.58397
G1 X109.273 Y95.297 E.01314
G1 X109.273 Y76.672 E.58397
G1 X108.854 Y76.672 E.01314
G1 X108.854 Y95.297 E.58397
G1 X108.435 Y95.297 E.01314
G1 X108.435 Y75.333 E.62596
G1 X108.016 Y75.333 E.01314
G1 X108.016 Y86.258 E.34255
G1 X107.597 Y84.613 E.05322
G1 X107.597 Y75.333 E.29097
G1 X107.344 Y75.333 E.00793
G1 X107.344 Y73.995 E.04195
G1 X107.178 Y73.995 E.0052
G1 X107.178 Y84.213 E.32038
G1 X106.759 Y84.161 E.01324
G1 X106.759 Y73.995 E.31875
G1 X106.34 Y73.995 E.01314
G1 X106.34 Y84.294 E.32292
G1 X105.921 Y85.02 E.02628
G1 X105.921 Y73.995 E.34568
G1 X105.502 Y73.995 E.01314
G1 X105.502 Y85.746 E.36844
G1 X105.083 Y86.471 E.02626
G1 X105.083 Y73.995 E.39118
G1 X104.664 Y73.995 E.01314
G1 X104.664 Y78.886 E.15335
G1 X104.245 Y78.355 E.02121
G1 X104.245 Y73.995 E.1367
G1 X103.826 Y73.995 E.01314
G1 X103.826 Y77.86 E.12118
G1 X103.407 Y77.399 E.01953
G1 X103.407 Y73.995 E.10673
G1 X102.988 Y73.995 E.01314
G1 X102.988 Y76.968 E.09322
G1 X102.569 Y76.563 E.01827
G1 X102.569 Y73.995 E.08052
G1 X102.15 Y73.995 E.01314
G1 X102.15 Y76.182 E.06857
G1 X101.731 Y75.824 E.01728
G1 X101.731 Y73.995 E.05735
G1 X101.312 Y73.995 E.01314
G1 X101.312 Y75.487 E.04678
G1 X100.893 Y75.172 E.01644
G1 X100.893 Y73.825 E.04223
G1 E-3.5 F3600
;WIPE_START
G1 F7200
G1 X100.893 Y75.172 E-.63982
G1 X101.312 Y75.487 E-.249
G1 X101.312 Y74.2 E-.61118
;WIPE_END
G1 X108.016 Y95.466 F9000
G1 E5 F2400
G1 F1200
G1 X108.016 Y93.736 E.05424
G1 X108.331 Y91.703 E.0645
G1 X108.016 Y91.331 E.01528
G1 X108.016 Y88.669 E.08347
G1 X107.869 Y88.841 E.00709
G1 X107.597 Y88.849 E.00853
G1 X107.597 Y91.153 E.07224
G1 X107.178 Y91.102 E.01323
G1 X107.178 Y88.897 E.06914
G1 X106.759 Y89.121 E.0149
G1 X106.759 Y91.089 E.06171
G1 E-3.5 F3600
;WIPE_START
G1 F7200
G1 X106.759 Y89.121 E-.9348
G1 X107.178 Y88.897 E-.22568
G1 X107.178 Y89.612 E-.33952
;WIPE_END
G1 X104.664 Y87.536 F9000
G1 E5 F2400
G1 F1200
G1 X104.664 Y80.802 E.21114
G1 X104.245 Y81.528 E.02628
G1 X104.245 Y87.923 E.20051
G1 X103.826 Y88.648 E.02626
G1 X103.826 Y82.254 E.20048
G1 X103.407 Y82.98 E.02628
G1 X103.407 Y89.374 E.20048
G1 X102.988 Y90.1 E.02628
G1 X102.988 Y83.705 E.20051
G1 X102.569 Y84.431 E.02628
G1 X102.569 Y90.825 E.20048
G1 X102.15 Y91.551 E.02628
G1 X102.15 Y85.157 E.20048
G1 X102.104 Y86.041 E.02775
G1 X101.731 Y86.041 E.0117
G1 X101.731 Y92.277 E.19553
G1 X101.312 Y93.003 E.02628
G1 X101.312 Y86.608 E.20051
G1 X100.893 Y87.334 E.02628
G1 X100.893 Y93.728 E.20048
G1 X100.474 Y94.454 E.02628
G1 X100.474 Y88.059 E.20051
G1 X100.055 Y88.785 E.02628
G1 X100.055 Y95.18 E.20051
G1 X99.636 Y95.905 E.02626
G1 X99.636 Y89.511 E.20048
G1 X99.217 Y90.236 E.02626
G1 X99.217 Y96.631 E.20051
G1 X98.799 Y97.357 E.02627
G1 X98.799 Y90.962 E.20051
G1 X98.448 Y91.569 E.02198
G1 X98.38 Y91.548 E.00223
G1 X98.38 Y98.082 E.20487
G1 X97.961 Y98.808 E.02628
G1 X97.961 Y91.415 E.2318
G1 X97.542 Y91.283 E.01377
G1 X97.542 Y99.534 E.2587
G1 X97.123 Y100.259 E.02626
G1 X97.123 Y88.42 E.3712
G1 X96.704 Y87.12 E.04283
G1 X96.704 Y100.985 E.43473
G1 X96.285 Y101.711 E.02628
G1 X96.285 Y86.292 E.48345
G1 X95.866 Y85.658 E.02383
G1 X95.866 Y102.436 E.52606
G1 X95.447 Y103.162 E.02628
G1 X95.447 Y85.144 E.56494
G1 X95.028 Y84.713 E.01885
