; generated by PrusaSlicer 2.7.4 on 2024-07-22 at 15:41:53 UTC

; 

; external perimeters extrusion width = 0.42mm
; perimeters extrusion width = 0.44mm
; infill extrusion width = 0.44mm
; solid infill extrusion width = 0.44mm
; top infill extrusion width = 0.40mm
; support material extrusion width = 0.36mm
; first layer extrusion width = 0.42mm

M201 X500 Y500 Z100 E5000 ; sets maximum accelerations, mm/sec^2
M203 X500 Y500 Z10 E60 ; sets maximum feedrates, mm / sec
M204 S500 T1000 ; sets acceleration (S) and retract acceleration (R), mm/sec^2
M205 X8.00 Y8.00 Z0.40 E5.00 ; sets the jerk limits, mm/sec
M205 S0 T0 ; sets the minimum extruding and travel feed rate, mm/sec

; printing object rotorbase-Part id:2 copy 0
; stop printing object rotorbase-Part id:2 copy 0

;TYPE:Custom
G90 ; use absolute coordinates
M83 ; extruder relative mode
M104 S150 ; set temporary nozzle temp to prevent oozing during homing
M140 S60 ; set final bed temp
G4 S30 ; allow partial nozzle warmup
G28 ; home all axis
G1 Z50 F240
G1 X2.0 Y10 F3000
M104 S215 ; set final nozzle temp
M190 S60 ; wait for bed temp to stabilize
M109 S215 ; wait for nozzle temp to stabilize
G1 Z0.28 F240
G92 E0
G1 X2.0 Y140 E10 F1500 ; prime the nozzle
G1 X2.3 Y140 F5000
G92 E0
G1 X2.3 Y10 E10 F1200 ; prime the nozzle
G92 E0
G21 ; set units to millimeters
G90 ; use absolute coordinates
M83 ; use relative distances for extrusion
; Filament gcode
M107
;LAYER_CHANGE
;Z:0.2
;HEIGHT:0.2
G1 E-5 F3600
G1 Z.2 F9000
G1 X71.242 Y70.739
G1 Z.2
G1 E5 F2400
M204 S500
;TYPE:Skirt/Brim
;WIDTH:0.42
G1 F1200
G1 X73.09 Y69.099 E.07747
G1 X75.57 Y67.315 E.09579
G1 X77.789 Y66.048 E.08012
G1 X79.997 Y65.045 E.07604
G1 X82.328 Y64.233 E.07739
G1 X85.3 Y63.529 E.09576
G1 X87.838 Y63.202 E.08023
G1 X90.261 Y63.116 E.07602
G1 X92.723 Y63.253 E.07731
G1 X95.739 Y63.735 E.09576
G1 X98.213 Y64.4 E.08032
G1 X100.486 Y65.244 E.07602
G1 X102.707 Y66.308 E.07722
G1 X105.312 Y67.902 E.09576
G1 X107.348 Y69.462 E.08042
G1 X109.153 Y71.134 E.07714
G1 X111.17 Y73.428 E.09578
G1 X112.654 Y75.522 E.08047
G1 X113.881 Y77.652 E.07707
G1 X115.128 Y80.441 E.09579
G1 X115.925 Y82.883 E.08054
G1 X116.461 Y85.247 E.076
G1 X116.784 Y87.681 E.07699
G1 X116.874 Y90.734 E.09577
G1 X116.682 Y93.294 E.08049
G1 X116.277 Y95.681 E.07591
G1 X115.648 Y98.058 E.07709
G1 X114.569 Y100.915 E.09575
G1 X113.421 Y103.2 E.08018
G1 X112.121 Y105.278 E.07685
G1 X110.236 Y107.7 E.09623
G1 X108.56 Y109.45 E.07598
G1 X106.636 Y111.12 E.07988
G1 X104.622 Y112.56 E.07763
G1 X101.969 Y114.073 E.09576
G1 X99.644 Y115.096 E.07964
G1 X97.347 Y115.862 E.07592
G1 X94.927 Y116.429 E.07793
G1 X91.898 Y116.818 E.09575
G1 X89.446 Y116.879 E.0769
G1 X86.943 Y116.711 E.07866
G1 X84.487 Y116.313 E.07801
G1 X81.537 Y115.518 E.0958
G1 X79.168 Y114.607 E.07958
G1 X76.941 Y113.5 E.07798
G1 X74.36 Y111.868 E.09575
G1 X72.365 Y110.294 E.07968
G1 X70.608 Y108.623 E.07603
G1 X68.973 Y106.753 E.07788
G1 X67.208 Y104.26 E.09577
G1 X65.962 Y102.043 E.07974
G1 X64.975 Y99.828 E.07603
G1 X64.176 Y97.48 E.07777
G1 X63.494 Y94.502 E.09579
G1 X63.187 Y91.974 E.07985
G1 X63.118 Y89.55 E.07603
G1 X63.274 Y87.078 E.07766
G1 X63.778 Y84.065 E.09578
G1 X64.458 Y81.608 E.07993
G1 X65.318 Y79.341 E.07602
G1 X66.403 Y77.117 E.07759
G1 X68.016 Y74.523 E.09577
G1 X69.583 Y72.508 E.08003
G1 X71.201 Y70.783 E.07416
G1 X71.201 Y70.783 F9000
G1 X71.475 Y71.041
G1 F1200
G1 X71.502 Y71.012 E.00124
G1 X73.324 Y69.395 E.07638
G1 X75.776 Y67.631 E.09471
G1 X77.957 Y66.385 E.07876
G1 X80.134 Y65.396 E.07497
G1 X82.431 Y64.596 E.07626
G1 X85.371 Y63.899 E.09474
G1 X87.864 Y63.578 E.07881
G1 X90.254 Y63.493 E.07498
G1 X92.68 Y63.628 E.07618
G1 X95.663 Y64.104 E.09471
G1 X98.094 Y64.758 E.07893
G1 X100.335 Y65.59 E.07495
G1 X102.525 Y66.638 E.07612
G1 X105.101 Y68.215 E.0947
G1 X107.102 Y69.747 E.07902
G1 X108.881 Y71.396 E.07606
G1 X110.876 Y73.664 E.09471
G1 X112.333 Y75.722 E.07906
G1 X113.544 Y77.822 E.07601
G1 X114.777 Y80.579 E.09469
G1 X115.56 Y82.978 E.07912
G1 X116.089 Y85.309 E.07495
G1 X116.408 Y87.71 E.07594
G1 X116.497 Y90.729 E.0947
G1 X116.308 Y93.243 E.07905
G1 X115.91 Y95.597 E.07486
G1 X115.29 Y97.941 E.07602
G1 X114.222 Y100.766 E.09469
G1 X113.094 Y103.011 E.07878
G1 X111.813 Y105.061 E.07579
G1 X109.949 Y107.455 E.09513
G1 X108.296 Y109.181 E.07493
G1 X106.405 Y110.821 E.07848
G1 X104.42 Y112.242 E.07654
G1 X101.797 Y113.738 E.09468
G1 X99.511 Y114.743 E.0783
G1 X97.247 Y115.498 E.07483
G1 X94.862 Y116.058 E.07681
G1 X91.866 Y116.442 E.09471
G1 X89.45 Y116.502 E.07578
G1 X86.988 Y116.336 E.07737
G1 X84.568 Y115.945 E.07686
G1 X81.652 Y115.159 E.09469
G1 X79.322 Y114.263 E.07827
G1 X77.128 Y113.173 E.07681
G1 X74.575 Y111.558 E.09472
G1 X72.615 Y110.011 E.07829
G1 X70.882 Y108.363 E.07498
G1 X69.271 Y106.522 E.0767
G1 X67.526 Y104.057 E.09469
G1 X66.301 Y101.877 E.0784
G1 X65.327 Y99.693 E.07498
G1 X64.54 Y97.379 E.07664
G1 X63.865 Y94.435 E.0947
G1 X63.563 Y91.95 E.07849
G1 X63.495 Y89.56 E.07497
G1 X63.648 Y87.123 E.07656
G1 X64.146 Y84.144 E.0947
G1 X64.815 Y81.729 E.07857
G1 X65.662 Y79.493 E.07497
G1 X66.731 Y77.301 E.07647
G1 X68.327 Y74.736 E.09472
G1 X69.867 Y72.756 E.07865
G1 X71.434 Y71.084 E.07185
G1 X71.434 Y71.084 F9000
G1 X71.709 Y71.342
G1 F1200
G1 X71.763 Y71.285 E.00246
G1 X73.558 Y69.69 E.07529
G1 X75.982 Y67.947 E.09361
G1 X78.125 Y66.723 E.07738
G1 X80.27 Y65.748 E.07388
G1 X82.535 Y64.958 E.07521
G1 X85.441 Y64.27 E.09363
G1 X87.891 Y63.954 E.07745
G1 X90.246 Y63.87 E.07389
G1 X92.638 Y64.003 E.07512
G1 X95.587 Y64.473 E.09363
G1 X97.975 Y65.116 E.07754
G1 X100.184 Y65.935 E.07387
G1 X102.343 Y66.969 E.07506
G1 X104.891 Y68.527 E.09364
G1 X106.855 Y70.032 E.07758
G1 X108.61 Y71.657 E.07499
G1 X110.581 Y73.9 E.09362
G1 X112.013 Y75.921 E.07766
G1 X113.207 Y77.991 E.07493
G1 X114.426 Y80.718 E.09366
G1 X115.196 Y83.074 E.07772
G1 X115.717 Y85.372 E.07388
G1 X116.032 Y87.738 E.07484
G1 X116.12 Y90.723 E.09363
G1 X115.935 Y93.193 E.07766
G1 X115.534 Y95.547 E.07487
G1 X114.735 Y98.424 E.09362
G1 X113.829 Y100.722 E.07745
G1 X112.747 Y102.858 E.07508
G1 X111.132 Y105.37 E.09364
G1 X109.591 Y107.292 E.07724
G1 X107.955 Y108.985 E.07382
G1 X106.135 Y110.553 E.07532
G1 X103.685 Y112.26 E.09362
G1 X101.535 Y113.447 E.077
G1 X99.379 Y114.39 E.07378
G1 X97.146 Y115.135 E.07381
G1 X94.797 Y115.686 E.07565
G1 X91.835 Y116.066 E.09363
G1 X89.454 Y116.125 E.07468
G1 X87.034 Y115.962 E.07605
G1 X84.65 Y115.577 E.07572
G1 X81.766 Y114.8 E.09365
G1 X79.477 Y113.919 E.0769
G1 X77.315 Y112.845 E.07569
G1 X74.791 Y111.249 E.09363
G1 X72.864 Y109.728 E.07697
G1 X71.156 Y108.104 E.0739
G1 X69.568 Y106.29 E.07559
G1 X67.843 Y103.853 E.09362
G1 X66.639 Y101.71 E.07707
G1 X65.679 Y99.558 E.07388
G1 X64.903 Y97.278 E.07551
G1 X64.236 Y94.367 E.09364
G1 X63.939 Y91.925 E.07713
G1 X63.872 Y89.569 E.0739
G1 X64.023 Y87.168 E.07543
G1 X64.515 Y84.223 E.09362
G1 X65.172 Y81.85 E.0772
G1 X66.007 Y79.646 E.0739
G1 X67.06 Y77.486 E.07534
G1 X68.638 Y74.95 E.09365
G1 X70.151 Y73.004 E.07729
G1 X71.668 Y71.386 E.06954
G1 X71.668 Y71.386 F9000
G1 X71.943 Y71.643
G1 F1200
G1 X72.023 Y71.557 E.00368
G1 X73.792 Y69.986 E.07418
G1 X76.189 Y68.262 E.09258
G1 X78.293 Y67.06 E.07598
G1 X80.407 Y66.099 E.07281
G1 X82.638 Y65.321 E.07408
G1 X85.512 Y64.64 E.09261
G1 X87.917 Y64.33 E.07603
G1 X90.238 Y64.247 E.07282
G1 X92.595 Y64.378 E.07402
G1 X95.511 Y64.843 E.09258
G1 X97.856 Y65.474 E.07614
G1 X100.033 Y66.281 E.0728
G1 X102.161 Y67.299 E.07396
G1 X104.68 Y68.84 E.09259
G1 X106.609 Y70.317 E.07618
G1 X108.338 Y71.919 E.0739
G1 X110.287 Y74.136 E.09255
G1 X111.693 Y76.12 E.07624
G1 X112.869 Y78.158 E.07378
G1 X114.075 Y80.856 E.09266
G1 X114.831 Y83.169 E.0763
G1 X115.345 Y85.434 E.07282
G1 X115.656 Y87.766 E.07377
G1 X115.743 Y90.717 E.09257
G1 X115.561 Y93.142 E.07625
G1 X115.167 Y95.463 E.07381
G1 X114.377 Y98.307 E.09255
G1 X113.487 Y100.564 E.07607
G1 X112.421 Y102.669 E.07398
G1 X110.824 Y105.152 E.09257
G1 X109.31 Y107.04 E.07588
G1 X107.699 Y108.708 E.07271
G1 X105.906 Y110.254 E.07423
G1 X103.484 Y111.941 E.09255
G1 X101.371 Y113.107 E.07567
G1 X99.246 Y114.037 E.07273
G1 X97.046 Y114.771 E.07272
G1 X94.732 Y115.315 E.07453
G1 X91.804 Y115.69 E.09256
G1 X89.459 Y115.748 E.07355
G1 X87.079 Y115.588 E.07479
G1 X84.731 Y115.209 E.07457
G1 X81.88 Y114.44 E.09259
G1 X79.631 Y113.575 E.07555
G1 X77.502 Y112.518 E.07453
G1 X75.007 Y110.94 E.09256
G1 X73.113 Y109.445 E.07566
G1 X71.43 Y107.845 E.07281
G1 X69.866 Y106.059 E.07444
G1 X68.16 Y103.649 E.09258
G1 X66.978 Y101.544 E.07569
G1 X66.031 Y99.423 E.07283
G1 X65.266 Y97.177 E.07439
G1 X64.607 Y94.299 E.09257
G1 X64.316 Y91.901 E.07574
G1 X64.249 Y89.579 E.07283
G1 X64.397 Y87.214 E.0743
G1 X64.884 Y84.302 E.09257
G1 X65.529 Y81.97 E.07586
G1 X66.352 Y79.799 E.0728
G1 X67.389 Y77.67 E.07425
G1 X68.949 Y75.163 E.09258
G1 X70.435 Y73.252 E.0759
G1 X71.902 Y71.687 E.06726
G1 X71.902 Y71.687 F9000
G1 X72.176 Y71.945
G1 F1200
G1 X72.284 Y71.83 E.00495
G1 X74.025 Y70.282 E.07305
G1 X76.395 Y68.578 E.09152
G1 X78.461 Y67.398 E.0746
G1 X80.544 Y66.45 E.07176
G1 X82.742 Y65.683 E.07299
G1 X85.582 Y65.011 E.09151
G1 X87.944 Y64.706 E.07467
G1 X90.231 Y64.624 E.07175
G1 X92.553 Y64.752 E.07292
G1 X95.435 Y65.212 E.09151
G1 X97.737 Y65.831 E.07474
G1 X99.882 Y66.627 E.07174
G1 X101.979 Y67.629 E.07287
G1 X104.469 Y69.152 E.09152
G1 X106.362 Y70.603 E.07478
G1 X108.067 Y72.18 E.07282
G1 X109.993 Y74.372 E.09149
G1 X111.373 Y76.32 E.07485
G1 X112.533 Y78.33 E.07276
G1 X113.725 Y80.994 E.09151
G1 X114.466 Y83.264 E.07487
G1 X114.973 Y85.496 E.07177
G1 X115.28 Y87.794 E.07269
G1 X115.366 Y90.712 E.09153
G1 X115.187 Y93.092 E.07483
G1 X114.799 Y95.379 E.07273
G1 X114.018 Y98.19 E.09148
G1 X113.145 Y100.405 E.07465
G1 X112.095 Y102.48 E.07292
G1 X110.517 Y104.934 E.09148
G1 X109.03 Y106.787 E.07449
G1 X107.442 Y108.432 E.07169
G1 X105.676 Y109.955 E.07312
G1 X103.282 Y111.623 E.09149
G1 X101.208 Y112.767 E.07427
G1 X99.113 Y113.684 E.0717
G1 X96.945 Y114.408 E.07167
G1 X94.667 Y114.943 E.07337
G1 X91.773 Y115.315 E.09149
G1 X89.463 Y115.371 E.07245
G1 X87.125 Y115.213 E.07347
G1 X84.813 Y114.841 E.07342
G1 X81.995 Y114.081 E.09151
G1 X79.786 Y113.231 E.07421
G1 X77.689 Y112.19 E.07341
G1 X75.222 Y110.63 E.09152
G1 X73.363 Y109.163 E.07425
G1 X71.704 Y107.586 E.07177
G1 X70.163 Y105.827 E.07332
G1 X68.477 Y103.445 E.0915
G1 X67.316 Y101.378 E.07433
G1 X66.383 Y99.288 E.07176
G1 X65.63 Y97.077 E.07323
G1 X64.978 Y94.232 E.09152
G1 X64.692 Y91.876 E.07441
G1 X64.626 Y89.588 E.07177
G1 X64.771 Y87.259 E.07317
G1 X65.253 Y84.38 E.09153
G1 X65.886 Y82.091 E.07446
G1 X66.697 Y79.951 E.07175
G1 X67.718 Y77.855 E.0731
G1 X69.26 Y75.376 E.09154
G1 X70.719 Y73.5 E.07452
G1 X72.135 Y71.988 E.06495
G1 E-3.5 F3600
;WIPE_START
G1 F7200
G1 X72.176 Y71.945 E-.02822
G1 X72.284 Y71.83 E-.07494
G1 X74.025 Y70.282 E-1.1066
G1 X74.521 Y69.925 E-.29024
;WIPE_END
; printing object rotorbase-Part id:2 copy 0
G1 X90.14 Y75.363 F9000
G1 E5 F2400
;TYPE:Support material
G1 F1200
G1 X91.723 Y75.464 E.04973
G1 X93.294 Y75.737 E.05
G1 X94.32 Y76.014 E.03332
G1 X95.815 Y76.567 E.04998
G1 X97.242 Y77.279 E.05
G1 X98.582 Y78.142 E.04997
G1 X99.42 Y78.796 E.03333
G1 X100.582 Y79.887 E.04998
G1 X101.619 Y81.098 E.04999
G1 X102.235 Y81.964 E.03332
G1 X103.036 Y83.343 E.05
G1 X103.485 Y84.306 E.03331
G1 X103.862 Y85.3 E.03333
G1 X104.291 Y86.835 E.04997
G1 X104.551 Y88.408 E.04999
G1 X104.637 Y90 E.04999
G1 X104.599 Y91.062 E.03332
G1 X104.397 Y92.643 E.04997
G1 X104.167 Y93.681 E.03334
G1 X103.682 Y95.2 E.05
G1 X103.036 Y96.657 E.04997
G1 X102.514 Y97.593 E.0336
G1 X101.619 Y98.902 E.04972
G1 X100.582 Y100.113 E.04999
G1 X99.82 Y100.854 E.03333
G1 X98.582 Y101.858 E.04998
G1 X97.242 Y102.721 E.04997
G1 X95.815 Y103.433 E.05
G1 X94.825 Y103.819 E.03332
G1 X93.294 Y104.262 E.04997
G1 X91.723 Y104.536 E.05
G1 X90.132 Y104.637 E.04999
G1 X88.54 Y104.565 E.04997
G1 X87.487 Y104.42 E.03333
G1 X86.447 Y104.2 E.03333
G1 X84.924 Y103.73 E.04997
G1 X83.933 Y103.321 E.03361
G1 X82.528 Y102.587 E.0497
G1 X81.203 Y101.7 E.04999
G1 X79.983 Y100.674 E.04998
G1 X78.882 Y99.522 E.04996
G1 X78.215 Y98.683 E.03361
G1 X77.345 Y97.357 E.04973
G1 X76.62 Y95.937 E.04999
G1 X76.054 Y94.447 E.04998
G1 X75.766 Y93.415 E.03359
G1 X75.48 Y91.856 E.0497
G1 X75.364 Y90.266 E.04999
G1 X75.384 Y89.195 E.03359
G1 X75.557 Y87.618 E.04974
G1 X75.901 Y86.062 E.04997
G1 X76.413 Y84.552 E.04999
G1 X77.086 Y83.107 E.04998
G1 X77.625 Y82.181 E.03359
G1 X78.543 Y80.888 E.04972
G1 X79.602 Y79.696 E.04999
G1 X80.383 Y78.964 E.03356
G1 X81.634 Y77.988 E.04975
G1 X82.99 Y77.15 E.04998
G1 X84.428 Y76.464 E.04996
G1 X85.433 Y76.092 E.0336
G1 X86.965 Y75.68 E.04974
G1 X88.54 Y75.435 E.04998
G1 X90.084 Y75.363 E.04846
G1 X89.691 Y80.643 F9000
G1 F1200
G1 X90.987 Y80.69 E.04066
G1 X91.861 Y80.825 E.02773
G1 X93.552 Y81.338 E.05541
G1 X95.115 Y82.159 E.05536
G1 X96.497 Y83.26 E.0554
G1 X97.648 Y84.6 E.05539
G1 X98.526 Y86.133 E.05539
G1 X99.1 Y87.804 E.0554
G1 X99.351 Y89.563 E.05571
G1 X99.351 Y90.447 E.02772
G1 X99.196 Y91.753 E.04124
G1 X98.703 Y93.449 E.05538
G1 X97.9 Y95.023 E.0554
G1 X96.816 Y96.417 E.05537
G1 X95.489 Y97.584 E.05541
G1 X93.966 Y98.48 E.0554
G1 X92.292 Y99.077 E.05573
G1 X90.546 Y99.346 E.05539
G1 X88.781 Y99.282 E.05538
G1 X87.059 Y98.888 E.05539
G1 X86.217 Y98.563 E.0283
G1 X85.07 Y97.959 E.04064
G1 X83.663 Y96.891 E.05539
G1 X82.481 Y95.578 E.05539
G1 X81.562 Y94.057 E.05572
G1 X80.95 Y92.4 E.05538
G1 X80.661 Y90.657 E.0554
G1 X80.703 Y88.891 E.05539
G1 X81.083 Y87.148 E.05593
G1 X81.562 Y85.943 E.04066
G1 X81.983 Y85.165 E.02774
G1 X83.034 Y83.745 E.05539
G1 X84.333 Y82.548 E.05538
G1 X85.843 Y81.611 E.05572
G1 X87.493 Y80.98 E.05539
G1 X88.355 Y80.783 E.02772
G1 X89.635 Y80.646 E.04036
G1 E-3.5 F3600
;WIPE_START
G1 F7200
G1 X88.355 Y80.783 E-.61147
G1 X87.493 Y80.98 E-.42001
G1 X86.572 Y81.332 E-.46852
;WIPE_END
G1 X104.245 Y92.519 F9000
G1 E5 F2400
G1 F1200
G1 X104.245 Y88.797 E.1167
G1 X104.063 Y87.418 E.04361
G1 X103.826 Y86.36 E.03399
G1 X103.826 Y93.639 E.22823
G1 X103.407 Y94.962 E.04351
G1 X103.407 Y85.037 E.31119
G1 X102.988 Y84.024 E.03437
G1 X102.988 Y95.975 E.37472
G1 X102.569 Y96.811 E.02932
G1 X102.569 Y83.189 E.42711
G1 X102.15 Y82.467 E.02617
G1 X102.15 Y97.533 E.47238
G1 X101.731 Y98.17 E.02391
G1 X101.731 Y81.829 E.51236
G1 X101.312 Y81.257 E.02223
G1 X101.312 Y98.743 E.54826
G1 X100.893 Y99.257 E.02079
G1 X100.893 Y80.742 E.58052
G1 X100.474 Y80.271 E.01977
G1 X100.474 Y99.729 E.61009
G1 X100.055 Y100.162 E.01889
G1 X100.055 Y79.837 E.63728
G1 X99.636 Y79.438 E.01814
G1 X99.636 Y100.561 E.6623
G1 X99.217 Y100.93 E.01751
G1 X99.217 Y93.017 E.24811
G1 X98.799 Y94.082 E.03587
G1 X98.799 Y101.27 E.22537
G1 X98.38 Y101.585 E.01644
G1 X98.38 Y94.885 E.21007
G1 X97.961 Y95.542 E.02443
G1 X97.957 Y101.88 E.19872
G1 X97.542 Y102.147 E.01547
G1 X97.542 Y96.098 E.18966
G1 X97.123 Y96.584 E.02012
G1 X97.123 Y102.397 E.18226
G1 X96.704 Y102.628 E.015
G1 X96.704 Y97.011 E.17612
G1 X96.285 Y97.387 E.01765
G1 X96.285 Y102.841 E.17101
G1 X96.153 Y102.906 E.00461
G1 X95.866 Y103.037 E.00989
G1 X95.866 Y97.724 E.16659
G1 X95.447 Y98.025 E.01618
G1 X95.447 Y103.218 E.16282
G1 X95.028 Y103.383 E.01412
G1 X95.028 Y98.294 E.15956
G1 X94.609 Y98.534 E.01514
G1 X94.609 Y103.533 E.15674
G1 X94.19 Y103.67 E.01382
G1 X94.19 Y98.748 E.15433
G1 X93.771 Y98.937 E.01441
G1 X93.771 Y103.791 E.15219
G1 X93.352 Y103.898 E.01356
G1 X93.352 Y99.102 E.15038
G1 X92.933 Y99.245 E.01388
G1 X92.933 Y103.992 E.14884
G1 X92.514 Y104.073 E.01338
G1 X92.514 Y99.368 E.14752
G1 X92.095 Y99.47 E.01352
G1 X92.095 Y104.142 E.14649
G1 X91.676 Y104.2 E.01326
G1 X91.676 Y99.553 E.1457
G1 X91.257 Y99.617 E.01329
G1 X91.257 Y104.242 E.14501
G1 X90.838 Y104.272 E.01317
G1 X90.838 Y99.663 E.14451
G1 X90.419 Y99.69 E.01316
G1 X90.419 Y104.29 E.14423
G1 X90 Y104.297 E.01314
G1 X90 Y99.699 E.14417
G1 X89.581 Y99.691 E.01314
G1 X89.581 Y104.292 E.14426
G1 X89.162 Y104.273 E.01315
G1 X89.162 Y99.664 E.14451
G1 X88.743 Y99.62 E.01321
G1 X88.743 Y104.241 E.14489
G1 X88.324 Y104.197 E.01321
G1 X88.324 Y99.555 E.14555
