; generated by PrusaSlicer 2.7.4 on 2024-07-23 at 11:28:45 UTC

; 

; external perimeters extrusion width = 0.42mm
; perimeters extrusion width = 0.44mm
; infill extrusion width = 0.44mm
; solid infill extrusion width = 0.44mm
; top infill extrusion width = 0.40mm
; first layer extrusion width = 0.42mm

M201 X500 Y500 Z100 E5000 ; sets maximum accelerations, mm/sec^2
M203 X500 Y500 Z10 E60 ; sets maximum feedrates, mm / sec
M204 S500 T1000 ; sets acceleration (S) and retract acceleration (R), mm/sec^2
M205 X8.00 Y8.00 Z0.40 E5.00 ; sets the jerk limits, mm/sec
M205 S0 T0 ; sets the minimum extruding and travel feed rate, mm/sec

; printing object rotorcap-Part id:2 copy 0
; stop printing object rotorcap-Part id:2 copy 0

;TYPE:Custom
G90 ; use absolute coordinates
M83 ; extruder relative mode
M104 S150 ; set temporary nozzle temp to prevent oozing during homing
M140 S60 ; set final bed temp
G4 S30 ; allow partial nozzle warmup
G28 ; home all axis
G1 Z50 F240
G1 X2.0 Y10 F3000
M104 S215 ; set final nozzle temp
M190 S60 ; wait for bed temp to stabilize
M109 S215 ; wait for nozzle temp to stabilize
G1 Z0.28 F240
G92 E0
G1 X2.0 Y140 E10 F1500 ; prime the nozzle
G1 X2.3 Y140 F5000
G92 E0
G1 X2.3 Y10 E10 F1200 ; prime the nozzle
G92 E0
G21 ; set units to millimeters
G90 ; use absolute coordinates
M83 ; use relative distances for extrusion
; Filament gcode
M107
;LAYER_CHANGE
;Z:0.2
;HEIGHT:0.2
G1 E-5 F3600
G1 Z.2 F9000
G1 X73.546 Y74.456
G1 Z.2
G1 E5 F2400
M204 S500
;TYPE:Skirt/Brim
;WIDTH:0.42
G1 F1200
G1 X75.104 Y72.957 E.06779
G1 X76.957 Y71.531 E.07331
G1 X80.526 Y69.471 E.12921
G1 X82.301 Y68.714 E.0605
G1 X84.255 Y68.106 E.06416
G1 X86.367 Y67.658 E.06769
G1 X88.309 Y67.433 E.0613
G1 X90.551 Y67.371 E.07032
G1 X92.74 Y67.532 E.06882
G1 X94.994 Y67.923 E.07173
G1 X97.29 Y68.572 E.07481
G1 X99.403 Y69.411 E.07128
G1 X101.276 Y70.374 E.06603
G1 X103.385 Y71.747 E.0789
G1 X105.329 Y73.349 E.07898
G1 X107.047 Y75.11 E.07714
G1 X108.347 Y76.748 E.06557
G1 X109.731 Y78.916 E.08065
G1 X110.736 Y80.925 E.07043
G1 X111.523 Y82.996 E.06947
G1 X112.132 Y85.256 E.07339
G1 X112.48 Y87.358 E.0668
G1 X112.515 Y92.06 E.14743
G1 X112.274 Y94.021 E.06195
G1 X111.78 Y96.152 E.06859
G1 X111.121 Y98.133 E.06546
G1 X110.248 Y100.117 E.06796
G1 X109.189 Y102.003 E.06782
G1 X108 Y103.722 E.06553
G1 X106.453 Y105.544 E.07494
G1 X105.163 Y106.804 E.05654
G1 X104.133 Y107.679 E.04238
G1 X103.041 Y108.469 E.04226
G1 X99.471 Y110.53 E.12925
G1 X97.698 Y111.285 E.06042
G1 X95.744 Y111.894 E.06417
G1 X93.632 Y112.342 E.06769
G1 X91.68 Y112.568 E.06161
G1 X89.46 Y112.629 E.06963
G1 X87.206 Y112.462 E.07087
G1 X85.153 Y112.11 E.06531
G1 X83.166 Y111.578 E.0645
G1 X81.076 Y110.802 E.0699
G1 X76.419 Y108.108 E.16869
G1 X74.829 Y106.799 E.06457
G1 X73.115 Y105.074 E.07625
G1 X71.754 Y103.395 E.06777
G1 X70.401 Y101.315 E.0778
G1 X69.327 Y99.219 E.07384
G1 X68.49 Y97.05 E.0729
G1 X67.867 Y94.743 E.07493
G1 X67.519 Y92.642 E.06677
G1 X67.484 Y87.939 E.14746
G1 X67.725 Y85.979 E.06192
G1 X68.219 Y83.848 E.06859
G1 X68.877 Y81.867 E.06545
G1 X69.751 Y79.883 E.06798
G1 X70.81 Y77.996 E.06785
G1 X71.999 Y76.278 E.06551
G1 X73.507 Y74.502 E.07305
G1 X73.507 Y74.502 F9000
G1 X73.794 Y74.746
G1 F1200
G1 X73.823 Y74.711 E.00143
G1 X75.355 Y73.238 E.06664
G1 X77.146 Y71.858 E.07089
G1 X80.715 Y69.797 E.12922
G1 X82.434 Y69.067 E.05856
G1 X84.348 Y68.471 E.06285
G1 X86.43 Y68.03 E.06673
G1 X88.334 Y67.809 E.0601
G1 X90.545 Y67.748 E.06935
G1 X92.699 Y67.907 E.06772
G1 X94.907 Y68.29 E.07026
G1 X97.172 Y68.93 E.0738
G1 X99.242 Y69.752 E.06983
G1 X101.085 Y70.699 E.06497
G1 X103.159 Y72.049 E.07759
G1 X105.074 Y73.627 E.0778
G1 X106.766 Y75.361 E.07596
G1 X108.036 Y76.961 E.06405
G1 X109.403 Y79.103 E.07967
G1 X110.391 Y81.078 E.06924
G1 X111.164 Y83.111 E.0682
G1 X111.764 Y85.339 E.07235
G1 X112.106 Y87.403 E.0656
G1 X112.138 Y92.06 E.14602
G1 X111.902 Y93.957 E.05994
G1 X111.417 Y96.049 E.06733
G1 X110.77 Y97.996 E.06433
G1 X109.912 Y99.945 E.06677
G1 X108.872 Y101.799 E.06665
G1 X107.701 Y103.492 E.06454
G1 X106.175 Y105.289 E.07392
G1 X104.644 Y106.761 E.06659
G1 X102.853 Y108.142 E.07091
G1 X99.282 Y110.203 E.12928
G1 X97.565 Y110.932 E.05849
G1 X95.651 Y111.529 E.06286
G1 X93.569 Y111.97 E.06673
G1 X91.656 Y112.191 E.06038
G1 X89.466 Y112.252 E.06869
G1 X87.256 Y112.088 E.06948
G1 X85.239 Y111.743 E.06416
G1 X83.284 Y111.22 E.06345
G1 X81.222 Y110.454 E.06897
G1 X76.649 Y107.809 E.16564
G1 X75.085 Y106.521 E.06353
G1 X73.398 Y104.825 E.075
G1 X72.057 Y103.171 E.06676
G1 X70.728 Y101.128 E.07642
G1 X69.672 Y99.066 E.07264
G1 X68.848 Y96.931 E.07175
G1 X68.235 Y94.661 E.07372
G1 X67.893 Y92.597 E.0656
G1 X67.861 Y87.939 E.14605
G1 X68.097 Y86.043 E.05991
G1 X68.581 Y83.95 E.06736
G1 X69.229 Y82.004 E.06431
G1 X70.087 Y80.055 E.06677
G1 X71.127 Y78.201 E.06665
G1 X72.298 Y76.508 E.06454
G1 X73.755 Y74.791 E.07061
G1 X73.755 Y74.791 F9000
G1 X74.042 Y75.035
G1 F1200
G1 X74.101 Y74.966 E.00285
G1 X75.606 Y73.52 E.06544
G1 X77.334 Y72.184 E.06849
G1 X80.903 Y70.124 E.12921
G1 X82.567 Y69.42 E.05665
G1 X84.442 Y68.836 E.06157
G1 X86.493 Y68.402 E.06573
G1 X88.359 Y68.185 E.0589
G1 X90.538 Y68.125 E.06835
G1 X92.659 Y68.281 E.06668
G1 X94.82 Y68.657 E.06877
G1 X97.054 Y69.288 E.07279
G1 X99.081 Y70.093 E.06838
G1 X100.894 Y71.025 E.06392
G1 X102.933 Y72.351 E.07626
G1 X104.818 Y73.905 E.0766
G1 X106.484 Y75.612 E.07479
G1 X107.725 Y77.174 E.06255
G1 X109.076 Y79.29 E.07872
G1 X110.046 Y81.23 E.06801
G1 X110.805 Y83.226 E.06696
G1 X111.396 Y85.421 E.07127
G1 X111.731 Y87.448 E.06442
G1 X111.761 Y92.06 E.14461
G1 X111.516 Y93.974 E.0605
G1 X110.973 Y96.235 E.07291
G1 X110.288 Y98.193 E.06504
G1 X109.576 Y99.773 E.05434
G1 X108.555 Y101.594 E.06546
G1 X107.403 Y103.261 E.06353
G1 X105.898 Y105.033 E.07289
G1 X104.393 Y106.48 E.06546
G1 X102.664 Y107.815 E.06849
G1 X99.094 Y109.877 E.12926
G1 X97.432 Y110.579 E.05657
G1 X95.557 Y111.163 E.06157
G1 X93.506 Y111.598 E.06574
G1 X91.632 Y111.815 E.05915
G1 X89.473 Y111.875 E.06772
G1 X87.306 Y111.714 E.06813
G1 X85.324 Y111.375 E.06305
G1 X83.402 Y110.862 E.06237
G1 X81.368 Y110.107 E.06803
G1 X76.879 Y107.511 E.16259
G1 X75.34 Y106.243 E.06252
G1 X73.681 Y104.576 E.07374
G1 X72.361 Y102.947 E.06574
G1 X71.055 Y100.94 E.07508
G1 X70.016 Y98.913 E.07142
G1 X69.206 Y96.813 E.07057
G1 X68.603 Y94.579 E.07255
G1 X68.268 Y92.552 E.06442
G1 X68.238 Y87.939 E.14464
G1 X68.483 Y86.026 E.06047
G1 X69.026 Y83.765 E.07291
G1 X69.71 Y81.807 E.06503
G1 X70.423 Y80.227 E.05435
G1 X71.443 Y78.405 E.06547
G1 X72.596 Y76.739 E.06353
G1 X74.004 Y75.081 E.0682
G1 X74.004 Y75.081 F9000
G1 X74.288 Y75.326
G1 F1200
G1 X74.379 Y75.221 E.00436
G1 X75.857 Y73.801 E.06426
G1 X77.523 Y72.511 E.06607
G1 X81.092 Y70.45 E.12922
G1 X82.7 Y69.773 E.0547
G1 X84.536 Y69.202 E.06029
G1 X86.556 Y68.773 E.06475
G1 X88.384 Y68.561 E.0577
G1 X90.531 Y68.502 E.06734
G1 X92.619 Y68.656 E.06565
G1 X94.733 Y69.024 E.06728
G1 X96.936 Y69.646 E.07177
G1 X98.919 Y70.433 E.06689
G1 X100.703 Y71.35 E.06289
G1 X102.707 Y72.653 E.07495
G1 X104.563 Y74.183 E.07542
G1 X106.203 Y75.863 E.07361
G1 X107.413 Y77.387 E.06101
G1 X108.771 Y79.518 E.07923
G1 X109.72 Y81.425 E.06679
G1 X110.5 Y83.509 E.06977
G1 X111.028 Y85.504 E.06471
G1 X111.357 Y87.493 E.06321
G1 X111.384 Y92.06 E.1432
G1 X111.146 Y93.902 E.05823
G1 X110.61 Y96.132 E.07191
G1 X109.937 Y98.056 E.06391
G1 X109.077 Y99.921 E.06439
G1 X108.239 Y101.39 E.05303
G1 X106.921 Y103.267 E.07191
G1 X105.62 Y104.778 E.06252
G1 X104.142 Y106.198 E.06426
G1 X102.476 Y107.489 E.06608
G1 X98.905 Y109.55 E.12928
G1 X97.299 Y110.227 E.05465
G1 X95.463 Y110.798 E.06029
G1 X93.443 Y111.226 E.06474
G1 X91.608 Y111.439 E.05792
G1 X89.479 Y111.498 E.06678
G1 X87.356 Y111.34 E.06675
G1 X85.409 Y111.008 E.06193
G1 X83.52 Y110.504 E.0613
G1 X81.514 Y109.759 E.06709
G1 X77.109 Y107.212 E.15954
G1 X75.595 Y105.965 E.0615
G1 X73.964 Y104.327 E.07248
G1 X72.664 Y102.723 E.06474
G1 X71.382 Y100.753 E.0737
G1 X70.361 Y98.761 E.07018
G1 X69.564 Y96.694 E.06946
G1 X68.971 Y94.496 E.07138
G1 X68.642 Y92.507 E.06321
G1 X68.615 Y87.939 E.14323
G1 X68.853 Y86.098 E.0582
G1 X69.389 Y83.868 E.07191
G1 X70.062 Y81.944 E.06391
G1 X70.922 Y80.079 E.06439
G1 X71.76 Y78.61 E.05303
G1 X73.077 Y76.732 E.07192
G1 X74.249 Y75.372 E.05629
G1 X74.249 Y75.372 F9000
G1 X74.535 Y75.618
G1 F1200
G1 X74.657 Y75.476 E.00587
G1 X76.108 Y74.083 E.06307
G1 X77.711 Y72.838 E.06364
G1 X81.281 Y70.777 E.12925
G1 X82.833 Y70.126 E.05277
G1 X84.629 Y69.567 E.05898
G1 X86.619 Y69.145 E.06378
G1 X88.408 Y68.938 E.05647
G1 X90.525 Y68.879 E.0664
G1 X92.578 Y69.031 E.06455
G1 X94.645 Y69.391 E.06578
G1 X96.818 Y70.004 E.07079
G1 X98.758 Y70.774 E.06544
G1 X100.513 Y71.675 E.06185
G1 X102.481 Y72.955 E.07361
G1 X104.308 Y74.46 E.07422
G1 X105.921 Y76.113 E.07242
G1 X107.102 Y77.6 E.05954
G1 X108.442 Y79.701 E.07813
G1 X109.373 Y81.573 E.06555
G1 X110.14 Y83.624 E.06866
G1 X110.66 Y85.586 E.06364
G1 X110.982 Y87.538 E.06203
G1 X111.006 Y92.06 E.14179
G1 X110.775 Y93.831 E.056
G1 X110.247 Y96.029 E.07088
G1 X109.586 Y97.919 E.06278
G1 X108.741 Y99.749 E.0632
G1 X107.922 Y101.186 E.05186
G1 X106.623 Y103.037 E.0709
G1 X105.342 Y104.523 E.06151
G1 X103.891 Y105.917 E.06309
G1 X102.287 Y107.162 E.06366
G1 X98.717 Y109.224 E.12926
G1 X97.166 Y109.874 E.05273
G1 X95.37 Y110.433 E.05898
G1 X93.379 Y110.855 E.06381
G1 X91.584 Y111.062 E.05665
G1 X89.486 Y111.121 E.06581
G1 X87.406 Y110.967 E.0654
G1 X85.495 Y110.641 E.06078
G1 X83.638 Y110.146 E.06026
G1 X81.66 Y109.411 E.06616
G1 X77.339 Y106.913 E.15649
G1 X75.85 Y105.688 E.06046
G1 X74.247 Y104.078 E.07124
G1 X72.967 Y102.499 E.06373
G1 X71.709 Y100.565 E.07234
G1 X70.706 Y98.608 E.06895
G1 X69.922 Y96.576 E.06829
G1 X69.339 Y94.414 E.07021
G1 X69.016 Y92.462 E.06204
G1 X68.992 Y87.939 E.14182
G1 X69.223 Y86.169 E.05597
G1 X69.752 Y83.97 E.07092
G1 X70.413 Y82.081 E.06275
G1 X71.257 Y80.251 E.06319
G1 X72.077 Y78.814 E.05188
G1 X73.376 Y76.963 E.0709
G1 X74.496 Y75.663 E.0538
G1 E-3.5 F3600
;WIPE_START
G1 F7200
G1 X74.535 Y75.618 E-.02829
G1 X74.657 Y75.476 E-.08893
G1 X76.108 Y74.083 E-.95543
G1 X76.819 Y73.531 E-.42735
;WIPE_END
; printing object rotorcap-Part id:2 copy 0
G1 X98.246 Y102.044 F9000
G1 E5 F2400
;TYPE:Perimeter
;WIDTH:0.419999
G1 F1200
G1 X104.552 Y91.121 E.39546
G1 X104.797 Y91.617 E.01735
G1 X105.332 Y92.288 E.02691
G1 X105.732 Y92.609 E.01608
G1 X106.271 Y92.899 E.01919
G1 X106.231 Y93.152 E.00803
G1 X105.989 Y94.211 E.03406
G1 X105.835 Y94.755 E.01773
G1 X105.498 Y95.761 E.03327
G1 X105.291 Y96.289 E.01778
G1 X104.856 Y97.254 E.03319
G1 X104.547 Y97.858 E.02127
G1 X104.264 Y98.36 E.01807
G1 X103.699 Y99.258 E.03327
G1 X103.376 Y99.719 E.01765
G1 X102.728 Y100.554 E.03314
G1 X101.969 Y101.406 E.03578
G1 X101.223 Y102.142 E.03286
G1 X100.653 Y102.641 E.02375
G1 X100.577 Y102.581 E.00304
G1 X100.04 Y102.294 E.01909
G1 X99.648 Y102.135 E.01326
G1 X98.827 Y102.001 E.02608
G1 X98.306 Y102.04 E.01638
G1 X97.402 Y102.739 F9000
G1 F1200
G1 X104.723 Y90.071 E.45875
G1 X104.754 Y90.426 E.01117
G1 X104.868 Y90.887 E.01489
G1 X105.1 Y91.393 E.01745
G1 X105.467 Y91.889 E.01935
G1 X105.824 Y92.199 E.01482
G1 X106.217 Y92.452 E.01465
G1 X106.693 Y92.651 E.01618
G1 X106.601 Y93.223 E.01817
G1 X106.364 Y94.269 E.03363
G1 X106.207 Y94.831 E.0183
G1 X105.867 Y95.853 E.03377
G1 X105.656 Y96.397 E.01829
G1 X105.216 Y97.38 E.03377
G1 X104.896 Y98.007 E.02207
G1 X104.609 Y98.518 E.01838
G1 X104.038 Y99.432 E.03379
G1 X103.704 Y99.91 E.01828
G1 X103.046 Y100.762 E.03375
G1 X102.664 Y101.209 E.01844
G1 X102.267 Y101.642 E.01842
G1 X101.529 Y102.372 E.03255
G1 X100.647 Y103.129 E.03644
G1 X100.277 Y102.837 E.01478
G1 X99.577 Y102.506 E.02428
G1 X98.842 Y102.378 E.02339
G1 X98.234 Y102.432 E.01914
G1 X97.598 Y102.627 E.02086
G1 X97.454 Y102.71 E.00521
G1 E-3.5 F3600
;WIPE_START
G1 F7200
G1 X97.402 Y102.739 E-.02828
G1 X98.952 Y100.056 E-1.47172
;WIPE_END
G1 X106.106 Y87.636 F9000
G1 E5 F2400
;WIDTH:0.384682
G1 F1200
G1 X106.623 Y86.711 E.03011
G1 X106.695 Y87.207 E.01424
G1 X106.718 Y87.362 E.00445
G1 X106.581 Y87.394 E.004
G1 X106.159 Y87.609 E.01346
G1 E-3.5 F3600
;WIPE_START
G1 F7200
G1 X106.106 Y87.636 E-.02825
G1 X106.623 Y86.711 E-.50335
G1 X106.695 Y87.207 E-.23807
G1 X106.718 Y87.362 E-.07443
G1 X106.581 Y87.394 E-.06683
G1 X106.159 Y87.609 E-.22497
;WIPE_END
G1 E-.3641 F3600
G1 X96.001 Y105.126 F9000
G1 E5 F2400
;WIDTH:0.385163
G1 F1200
G1 X95.999 Y105.38 E.00723
G1 X96.068 Y105.801 E.01214
G1 X95.431 Y106.055 E.01952
G1 X95.648 Y105.745 E.01077
G1 X95.971 Y105.179 E.01855
G1 E-3.5 F3600
;WIPE_START
G1 F7200
G1 X96.001 Y105.126 E-.02893
G1 X95.999 Y105.38 E-.12065
G1 X96.068 Y105.801 E-.20264
G1 X95.431 Y106.055 E-.32574
G1 X95.648 Y105.745 E-.17974
G1 X95.971 Y105.179 E-.30955
;WIPE_END
G1 E-.33275 F3600
G1 X94.539 Y106.785 F9000
G1 E5 F2400
;TYPE:External perimeter
;WIDTH:0.419999
G1 F1200
G1 X94.765 Y106.369 E.01484
G1 X95.335 Y105.567 E.03085
G1 X95.862 Y104.643 E.03335
;WIDTH:0.423569
G1 X96.219 Y104.02 E.02273
;WIDTH:0.425192
G1 X96.812 Y103.001 E.03748
;WIDTH:0.419999
G1 X104.683 Y89.375 E.49339
;WIDTH:0.422703
G1 X104.962 Y88.883 E.01786
;WIDTH:0.424238
G1 X105.65 Y87.701 E.04336
;WIDTH:0.419999
G1 X105.911 Y87.259 E.01609
G1 X106.295 Y86.54 E.02556
G1 X106.548 Y85.97 E.01955
G1 X106.792 Y85.561 E.01493
G1 X106.924 Y86.008 E.01461
G1 X106.967 Y86.512 E.01586
G1 X107.051 Y87.155 E.02033
G1 X107.124 Y87.645 E.01553
G1 X106.667 Y87.747 E.01468
G1 X106.12 Y88.035 E.01938
;WIDTH:0.443316
G1 X105.792 Y88.3 E.01404
G1 X105.544 Y88.626 E.01364
;WIDTH:0.422702
G1 X105.292 Y89.07 E.01612
G1 X105.139 Y89.569 E.01648
;WIDTH:0.419999
G1 X105.097 Y89.983 E.01305
G1 X105.13 Y90.393 E.0129
G1 X105.233 Y90.789 E.01283
G1 X105.403 Y91.169 E.01305
G1 X105.804 Y91.7 E.02086
G1 X106.204 Y92.021 E.01608
G1 X106.672 Y92.255 E.01641
G1 X107.122 Y92.355 E.01445
G1 X106.972 Y93.294 E.02981
G1 X106.73 Y94.362 E.03434
G1 X106.568 Y94.942 E.01888
G1 X106.222 Y95.981 E.03434
G1 X106.004 Y96.542 E.01887
G1 X105.556 Y97.542 E.03436
G1 X105.229 Y98.184 E.02259
G1 X104.934 Y98.71 E.01891
G1 X104.353 Y99.64 E.03438
G1 X104.008 Y100.133 E.01887
G1 X103.338 Y101 E.03436
G1 X102.947 Y101.459 E.01891
G1 X102.539 Y101.904 E.01893
G1 X101.759 Y102.674 E.03437
G1 X101.221 Y103.152 E.02256
G1 X100.605 Y103.647 E.02478
G1 X100.456 Y103.465 E.00737
G1 X100.106 Y103.173 E.01429
G1 X99.505 Y102.876 E.02102
G1 X98.899 Y102.758 E.01936
G1 X98.479 Y102.769 E.01317
G1 X98.11 Y102.842 E.01179
G1 X97.69 Y103.001 E.01408
G1 X97.177 Y103.344 E.01935
;WIDTH:0.425192
G1 X96.859 Y103.681 E.01473
;WIDTH:0.425952
G1 X96.528 Y104.257 E.02116
G1 X96.368 Y104.852 E.01962
;WIDTH:0.419999
G1 X96.359 Y105.382 E.01662
G1 X96.395 Y105.596 E.0068
G1 X96.514 Y106.011 E.01354
G1 X95.863 Y106.27 E.02197
G1 X95 Y106.648 E.02954
G1 X94.597 Y106.768 E.01318
G1 E-3.5 F3600
;WIPE_START
G1 F7200
G1 X94.539 Y106.785 E-.02871
G1 X94.765 Y106.369 E-.22488
G1 X95.335 Y105.567 E-.46736
G1 X95.862 Y104.643 E-.50527
G1 X96.149 Y104.143 E-.27378
;WIPE_END
G1 X104.532 Y91.737 F9000
G1 E5 F2400
;TYPE:Solid infill
G1 F1200
G1 X98.764 Y101.728 E.36172
G1 X99.109 Y101.735 E.01082
G1 X99.961 Y101.934 E.02743
G1 X100.631 Y102.279 E.02363
G1 X101.045 Y101.911 E.01737
G1 X101.785 Y101.18 E.03261
G1 X102.528 Y100.341 E.03514
G1 X103.166 Y99.515 E.03272
G1 X103.481 Y99.064 E.01725
G1 X104.035 Y98.178 E.03276
G1 X104.614 Y97.091 E.03862
G1 X105.04 Y96.14 E.03267
G1 X105.239 Y95.627 E.01725
G1 X105.569 Y94.636 E.03275
G1 X105.717 Y94.106 E.01725
G1 X105.948 Y93.056 E.03371
G1 X105.446 Y92.744 E.01853
G1 X104.954 Y92.311 E.02055
G1 X104.563 Y91.789 E.02045
G1 X104.563 Y91.789 F9000
G1 X104.568 Y92.43
G1 F1200
G1 X99.382 Y101.412 E.32519
G1 X100.047 Y101.567 E.02141
G1 X100.575 Y101.824 E.01841
G1 X101.511 Y100.92 E.0408
G1 X102.237 Y100.1 E.03434
G1 X102.862 Y99.291 E.03205
G1 X103.166 Y98.856 E.01664
G1 X103.708 Y97.99 E.03203
G1 X104.275 Y96.925 E.03783
G1 X104.692 Y95.994 E.03199
G1 X104.884 Y95.499 E.01665
G1 X105.208 Y94.525 E.03218
G1 X105.351 Y94.015 E.01661
G1 X105.519 Y93.251 E.02453
