; generated by PrusaSlicer 2.7.4 on 2024-07-23 at 14:24:50 UTC

; 

; external perimeters extrusion width = 0.42mm
; perimeters extrusion width = 0.44mm
; infill extrusion width = 0.44mm
; solid infill extrusion width = 0.44mm
; top infill extrusion width = 0.40mm
; first layer extrusion width = 0.42mm

M201 X500 Y500 Z100 E5000 ; sets maximum accelerations, mm/sec^2
M203 X500 Y500 Z10 E60 ; sets maximum feedrates, mm / sec
M204 S500 T1000 ; sets acceleration (S) and retract acceleration (R), mm/sec^2
M205 X8.00 Y8.00 Z0.40 E5.00 ; sets the jerk limits, mm/sec
M205 S0 T0 ; sets the minimum extruding and travel feed rate, mm/sec

; printing object rotorcap-Part id:2 copy 0
; stop printing object rotorcap-Part id:2 copy 0

;TYPE:Custom
G90 ; use absolute coordinates
M83 ; extruder relative mode
M104 S150 ; set temporary nozzle temp to prevent oozing during homing
M140 S60 ; set final bed temp
G4 S30 ; allow partial nozzle warmup
G28 ; home all axis
G1 Z50 F240
G1 X2.0 Y10 F3000
M104 S215 ; set final nozzle temp
M190 S60 ; wait for bed temp to stabilize
M109 S215 ; wait for nozzle temp to stabilize
G1 Z0.28 F240
G92 E0
G1 X2.0 Y140 E10 F1500 ; prime the nozzle
G1 X2.3 Y140 F5000
G92 E0
G1 X2.3 Y10 E10 F1200 ; prime the nozzle
G92 E0
G21 ; set units to millimeters
G90 ; use absolute coordinates
M83 ; use relative distances for extrusion
; Filament gcode
M107
;LAYER_CHANGE
;Z:0.2
;HEIGHT:0.2
G1 E-5 F3600
G1 Z.2 F9000
G1 X73.655 Y74.341
G1 Z.2
G1 E5 F2400
M204 S500
;TYPE:Skirt/Brim
;WIDTH:0.42
G1 F1200
G1 X75.206 Y72.868 E.06707
G1 X76.957 Y71.531 E.06908
G1 X80.526 Y69.471 E.12921
G1 X81.596 Y68.983 E.03687
G1 X83.066 Y68.454 E.04898
G1 X85.268 Y67.896 E.07122
G1 X89.713 Y67.397 E.14025
G1 X130.267 Y66.72 E1.27172
G1 X132.957 Y66.904 E.08454
G1 X135.469 Y67.366 E.08008
G1 X137.252 Y68.196 E.06167
G1 X138.572 Y69.677 E.0622
G1 X151.886 Y92.737 E.83489
G1 X152.506 Y94.604 E.06168
G1 X152.335 Y96.581 E.06222
G1 X151.602 Y98.691 E.07004
G1 X150.468 Y101.1 E.08348
G1 X149.113 Y103.293 E.08083
G1 X148.199 Y104.516 E.04787
G1 X146.618 Y105.821 E.06428
G1 X133.381 Y112.694 E.46765
G1 X131.414 Y113.235 E.06396
G1 X129.543 Y113.278 E.05868
G1 X89.36 Y112.626 E1.26008
G1 X87.206 Y112.462 E.06773
G1 X84.798 Y112.027 E.07672
G1 X82.536 Y111.369 E.07386
G1 X80.526 Y110.529 E.0683
G1 X76.957 Y108.468 E.12922
G1 X75.761 Y107.595 E.04643
G1 X73.652 Y105.655 E.08985
G1 X71.754 Y103.395 E.09254
G1 X71.305 Y102.659 E.02703
G1 X68.589 Y97.163 E.19222
G1 X68.017 Y95.394 E.05829
G1 X67.649 Y93.577 E.05813
G1 X67.484 Y92.06 E.04784
G1 X67.484 Y87.939 E.12921
G1 X67.664 Y86.333 E.05067
G1 X68.117 Y84.213 E.06797
G1 X68.751 Y82.2 E.06617
G1 X69.692 Y80.003 E.07494
G1 X70.81 Y77.996 E.07203
G1 X72.182 Y76.04 E.07491
G1 X73.616 Y74.386 E.06864
G1 X73.616 Y74.386 F9000
G1 X73.9 Y74.633
G1 F1200
G1 X73.924 Y74.605 E.00116
G1 X75.449 Y73.157 E.06594
G1 X77.146 Y71.858 E.06701
G1 X80.715 Y69.797 E.12922
G1 X81.74 Y69.331 E.0353
G1 X83.184 Y68.812 E.04811
G1 X85.31 Y68.271 E.06878
G1 X89.755 Y67.772 E.14025
G1 X130.264 Y67.097 E1.27031
G1 X132.908 Y67.278 E.08309
G1 X135.382 Y67.733 E.07887
G1 X137.087 Y68.545 E.05921
G1 X138.245 Y69.866 E.05508
G1 X151.559 Y92.926 E.83489
G1 X152.14 Y94.723 E.05922
G1 X151.974 Y96.473 E.05512
G1 X151.23 Y98.605 E.0708
G1 X150.135 Y100.922 E.08035
G1 X148.827 Y103.044 E.07816
G1 X147.903 Y104.282 E.04844
G1 X146.445 Y105.487 E.05931
G1 X133.207 Y112.359 E.46766
G1 X131.392 Y112.859 E.05903
G1 X129.549 Y112.901 E.0578
G1 X89.374 Y112.249 E1.25982
G1 X87.256 Y112.088 E.0666
G1 X84.885 Y111.66 E.07554
G1 X82.655 Y111.011 E.07282
G1 X80.715 Y110.202 E.0659
G1 X77.146 Y108.142 E.12921
G1 X76.001 Y107.305 E.04447
G1 X73.927 Y105.398 E.08834
G1 X72.057 Y103.171 E.09118
G1 X71.643 Y102.492 E.02493
G1 X68.927 Y96.996 E.19222
G1 X68.384 Y95.307 E.05563
G1 X68.021 Y93.515 E.05733
G1 X67.861 Y92.06 E.0459
G1 X67.861 Y87.939 E.12921
G1 X68.035 Y86.397 E.04866
G1 X68.48 Y84.314 E.06678
G1 X69.104 Y82.333 E.06512
G1 X70.032 Y80.166 E.07391
G1 X71.127 Y78.201 E.07053
G1 X72.481 Y76.271 E.07392
G1 X73.861 Y74.678 E.06608
G1 X73.861 Y74.678 F9000
G1 X74.12 Y74.949
G1 F1200
G1 X75.692 Y73.445 E.06821
G1 X77.334 Y72.184 E.06491
G1 X80.903 Y70.124 E.12921
G1 X81.883 Y69.68 E.03373
G1 X83.302 Y69.17 E.04728
G1 X85.352 Y68.646 E.06634
G1 X89.797 Y68.147 E.14025
G1 X130.261 Y67.474 E1.2689
G1 X132.858 Y67.651 E.08162
G1 X135.295 Y68.1 E.0777
G1 X136.919 Y68.892 E.05665
G1 X137.919 Y70.054 E.04807
G1 X151.233 Y93.114 E.83489
G1 X151.772 Y94.839 E.05666
G1 X151.612 Y96.365 E.04811
G1 X150.838 Y98.566 E.07315
G1 X149.803 Y100.744 E.07561
G1 X148.517 Y102.829 E.07681
G1 X147.607 Y104.048 E.0477
G1 X146.271 Y105.152 E.05434
G1 X133.034 Y112.025 E.46765
G1 X131.37 Y112.482 E.05411
G1 X129.555 Y112.524 E.05692
G1 X89.19 Y111.865 E1.26578
G1 X86.906 Y111.66 E.0719
G1 X84.681 Y111.224 E.07109
G1 X82.652 Y110.61 E.06647
G1 X80.903 Y109.876 E.05947
G1 X77.334 Y107.815 E.12922
G1 X75.725 Y106.583 E.06354
G1 X73.681 Y104.576 E.08982
G1 X72.533 Y103.179 E.05669
G1 X71.981 Y102.325 E.03188
G1 X69.265 Y96.829 E.19222
G1 X68.995 Y96.13 E.02349
G1 X68.603 Y94.579 E.05016
G1 X68.238 Y92.06 E.07981
G1 X68.238 Y87.939 E.12921
G1 X68.468 Y86.107 E.05789
G1 X68.94 Y84.07 E.06556
G1 X69.58 Y82.141 E.06372
G1 X70.423 Y80.227 E.06558
G1 X71.443 Y78.405 E.06547
G1 X72.596 Y76.739 E.06353
G1 X74.079 Y74.993 E.07183
G1 X74.079 Y74.993 F9000
G1 X74.366 Y75.237
G1 F1200
G1 X74.379 Y75.221 E.00065
G1 X75.935 Y73.733 E.0675
G1 X77.523 Y72.511 E.06283
G1 X81.092 Y70.45 E.12922
G1 X83.42 Y69.528 E.07851
G1 X85.394 Y69.02 E.06391
G1 X89.839 Y68.522 E.14024
G1 X130.259 Y67.851 E1.26752
G1 X132.809 Y68.025 E.08014
G1 X135.208 Y68.467 E.07648
G1 X136.747 Y69.238 E.05397
G1 X137.592 Y70.243 E.04117
G1 X150.906 Y93.303 E.83489
G1 X151.402 Y94.951 E.05396
G1 X151.251 Y96.257 E.04122
G1 X150.399 Y98.64 E.07935
G1 X149.442 Y100.618 E.0689
G1 X148.207 Y102.615 E.07362
G1 X147.312 Y103.815 E.04694
G1 X146.097 Y104.817 E.04938
G1 X132.86 Y111.69 E.46765
G1 X131.348 Y112.106 E.04917
G1 X129.561 Y112.147 E.05604
G1 X89.402 Y111.495 E1.25932
G1 X87.356 Y111.34 E.06433
G1 X85.079 Y110.931 E.07254
G1 X82.895 Y110.296 E.07131
G1 X81.092 Y109.549 E.06119
G1 X77.523 Y107.489 E.12921
G1 X76.197 Y106.487 E.05211
G1 X75.095 Y105.501 E.04636
G1 X73.964 Y104.327 E.05111
G1 X72.831 Y102.949 E.05594
G1 X72.319 Y102.157 E.02957
G1 X69.603 Y96.662 E.19219
G1 X69.358 Y96.027 E.02134
G1 X68.971 Y94.496 E.04951
G1 X68.615 Y92.06 E.07719
G1 X68.615 Y87.939 E.12921
G1 X68.84 Y86.171 E.05588
G1 X69.303 Y84.171 E.06437
G1 X69.931 Y82.278 E.06253
G1 X70.758 Y80.399 E.06437
G1 X71.76 Y78.61 E.06429
G1 X72.894 Y76.969 E.06254
G1 X74.327 Y75.282 E.0694
G1 X74.327 Y75.282 F9000
G1 X74.614 Y75.526
G1 F1200
G1 X74.657 Y75.476 E.00207
G1 X76.178 Y74.021 E.066
G1 X77.711 Y72.838 E.06071
G1 X81.281 Y70.777 E.12925
G1 X83.538 Y69.886 E.07608
G1 X85.436 Y69.395 E.06147
G1 X89.881 Y68.896 E.14025
G1 X130.256 Y68.228 E1.2661
G1 X132.759 Y68.399 E.07866
G1 X135.121 Y68.834 E.0753
G1 X136.57 Y69.583 E.05114
G1 X137.266 Y70.431 E.0344
G1 X150.579 Y93.491 E.83487
G1 X151.03 Y95.059 E.05116
G1 X150.89 Y96.149 E.03446
G1 X150.037 Y98.528 E.07924
G1 X149.113 Y100.434 E.06641
G1 X147.962 Y102.306 E.0689
G1 X147.016 Y103.581 E.04978
G1 X145.923 Y104.483 E.04443
G1 X132.686 Y111.355 E.46763
G1 X131.326 Y111.73 E.04423
G1 X129.568 Y111.77 E.05514
G1 X89.416 Y111.119 E1.2591
G1 X87.406 Y110.967 E.0632
G1 X85.164 Y110.564 E.07142
G1 X83.015 Y109.939 E.07017
G1 X81.28 Y109.223 E.05885
G1 X77.711 Y107.162 E.12922
G1 X76.44 Y106.199 E.05
G1 X75.354 Y105.226 E.04572
G1 X74.296 Y104.133 E.0477
G1 X73.13 Y102.718 E.05749
G1 X72.657 Y101.99 E.02722
G1 X69.941 Y96.495 E.19219
G1 X69.72 Y95.923 E.01923
G1 X69.339 Y94.414 E.0488
G1 X68.992 Y92.06 E.07461
G1 X68.992 Y87.939 E.12921
G1 X69.211 Y86.236 E.05384
G1 X69.666 Y84.272 E.06321
G1 X70.282 Y82.416 E.06132
G1 X71.094 Y80.571 E.0632
G1 X72.077 Y78.814 E.06313
G1 X73.193 Y77.2 E.06153
G1 X74.575 Y75.572 E.06696
G1 E-3.5 F3600
;WIPE_START
G1 F7200
G1 X74.614 Y75.526 E-.02865
G1 X74.657 Y75.476 E-.03132
G1 X76.178 Y74.021 E-.99981
G1 X76.912 Y73.455 E-.44022
;WIPE_END
; printing object rotorcap-Part id:2 copy 0
G1 X81.248 Y92.685 F9000
G1 E5 F2400
;TYPE:Perimeter
;WIDTH:0.419999
G1 F1200
G1 X81.365 Y93.066 E.0125
G1 X81.717 Y93.917 E.02887
G1 X82.305 Y94.973 E.0379
G1 X82.905 Y95.799 E.03201
G1 X83.518 Y96.475 E.02861
G1 X84.537 Y97.355 E.04221
G1 X85.674 Y98.077 E.04223
G1 X86.775 Y98.576 E.0379
G1 X87.915 Y98.917 E.03731
G1 X88.622 Y99.059 E.02261
G1 X89.523 Y99.151 E.0284
G1 X90.436 Y99.151 E.02863
G1 X91.75 Y98.994 E.04149
G1 X92.534 Y98.805 E.02529
G1 X93.053 Y98.61 E.01738
G1 X93.02 Y98.967 E.01124
G1 X92.916 Y99.614 E.02055
G1 X92.727 Y100.358 E.02407
G1 X92.492 Y101.011 E.02176
G1 X92.019 Y101.973 E.03361
G1 X89.394 Y106.52 E.16462
G1 X88.039 Y106.418 E.04261
G1 X87.126 Y106.282 E.02894
G1 X86.566 Y106.174 E.01788
G1 X85.536 Y105.914 E.03331
G1 X84.886 Y105.723 E.02124
G1 X84.379 Y105.547 E.01683
G1 X84.399 Y104.974 E.01798
G1 X84.311 Y104.397 E.0183
G1 X84.137 Y103.884 E.01698
G1 X83.875 Y103.406 E.01709
G1 X83.502 Y102.954 E.01837
G1 X82.882 Y102.456 E.02493
G1 X82.401 Y102.22 E.0168
G1 X82.029 Y102.114 E.01213
G1 X81.332 Y102.003 E.02213
G1 X80.643 Y102.062 E.02168
G1 X80.148 Y102.203 E.01614
G1 X79.796 Y102.367 E.01218
G1 X79.345 Y102.642 E.01656
G1 X78.901 Y102.257 E.01843
G1 X78.104 Y101.485 E.03479
G1 X77.374 Y100.676 E.03417
G1 X76.944 Y100.141 E.02152
G1 X81.218 Y92.737 E.26805
G1 X81.218 Y92.737 F9000
G1 X81.384 Y91.653
G1 F1200
G1 X81.523 Y92.283 E.02023
G1 X81.714 Y92.925 E.021
G1 X82.047 Y93.734 E.02743
G1 X82.672 Y94.848 E.04005
G1 X83.186 Y95.548 E.02723
G1 X83.767 Y96.192 E.0272
G1 X84.742 Y97.039 E.04049
G1 X85.83 Y97.733 E.04046
G1 X86.528 Y98.05 E.02404
G1 X87.283 Y98.347 E.02544
G1 X87.992 Y98.548 E.02311
G1 X88.662 Y98.684 E.02144
G1 X89.526 Y98.773 E.02723
G1 X90.393 Y98.777 E.02718
G1 X91.662 Y98.628 E.04006
G1 X92.52 Y98.415 E.02772
G1 X93.294 Y98.109 E.0261
G1 X93.496 Y97.99 E.00735
G1 X93.395 Y99.014 E.03226
G1 X93.285 Y99.691 E.02151
G1 X93.088 Y100.469 E.02516
G1 X92.84 Y101.158 E.02296
G1 X92.352 Y102.151 E.03469
G1 X89.609 Y106.903 E.17204
G1 X89.118 Y106.889 E.0154
G1 X87.995 Y106.793 E.03534
G1 X86.986 Y106.642 E.03199
G1 X85.949 Y106.419 E.03326
G1 X85.433 Y106.276 E.01679
G1 X84.767 Y106.081 E.02176
G1 X83.951 Y105.786 E.02721
G1 X84.006 Y105.5 E.00913
G1 X84.023 Y105.029 E.01478
G1 X83.97 Y104.598 E.01362
G1 X83.819 Y104.095 E.01647
G1 X83.575 Y103.634 E.01635
G1 X83.259 Y103.242 E.01579
G1 X82.698 Y102.785 E.02269
G1 X82.236 Y102.559 E.01613
G1 X81.954 Y102.483 E.00916
G1 X81.352 Y102.38 E.01915
G1 X80.746 Y102.425 E.01905
G1 X80.25 Y102.565 E.01616
G1 X79.71 Y102.843 E.01904
G1 X79.35 Y103.13 E.01444
G1 X78.645 Y102.534 E.02895
G1 X77.832 Y101.747 E.03548
G1 X77.055 Y100.883 E.03643
G1 X76.492 Y100.169 E.02851
G1 X81.085 Y92.212 E.28807
G1 X81.355 Y91.705 E.01801
G1 X81.355 Y91.705 F9000
G1 X81.705 Y90.186
;TYPE:External perimeter
G1 F1200
G1 X81.754 Y91.582 E.0438
G1 X81.885 Y92.177 E.0191
G1 X82.063 Y92.783 E.0198
G1 X82.376 Y93.55 E.02597
G1 X82.964 Y94.606 E.0379
G1 X83.468 Y95.297 E.02682
G1 X84.015 Y95.908 E.02571
G1 X84.946 Y96.722 E.03877
G1 X85.986 Y97.39 E.03876
G1 X86.684 Y97.706 E.02402
G1 X87.395 Y97.987 E.02397
G1 X88.069 Y98.178 E.02196
G1 X88.702 Y98.309 E.02027
G1 X89.529 Y98.396 E.02607
G1 X90.35 Y98.402 E.02574
G1 X91.574 Y98.261 E.03863
G1 X92.382 Y98.064 E.02608
G1 X93.156 Y97.758 E.0261
G1 X93.486 Y97.542 E.01237
G1 X93.991 Y97.266 E.01804
G1 X93.93 Y97.372 E.00383
G1 X93.918 Y97.772 E.01255
G1 X93.859 Y98.092 E.0102
G1 X93.769 Y99.062 E.03054
G1 X93.655 Y99.767 E.02239
G1 X93.449 Y100.579 E.02627
G1 X93.188 Y101.306 E.02422
G1 X92.685 Y102.328 E.03571
G1 X89.823 Y107.285 E.17947
G1 X89.097 Y107.266 E.02277
G1 X87.951 Y107.168 E.03606
G1 X86.922 Y107.013 E.03263
G1 X86.355 Y106.901 E.01812
G1 X85.793 Y106.77 E.01809
G1 X84.79 Y106.486 E.03268
G1 X84.244 Y106.304 E.01805
G1 X83.485 Y106.009 E.02553
G1 X83.636 Y105.429 E.01879
G1 X83.646 Y105.022 E.01277
G1 X83.597 Y104.65 E.01176
G1 X83.481 Y104.267 E.01255
G1 X83.292 Y103.89 E.01322
G1 X83.017 Y103.531 E.01418
G1 X82.526 Y103.121 E.02006
G1 X82.071 Y102.898 E.01589
G1 X81.879 Y102.853 E.00618
G1 X81.372 Y102.756 E.01618
G1 X80.848 Y102.788 E.01646
G1 X80.353 Y102.928 E.01613
G1 X79.89 Y103.175 E.01645
G1 X79.568 Y103.439 E.01306
G1 X79.394 Y103.648 E.00853
G1 X78.821 Y103.189 E.02302
G1 X78.39 Y102.812 E.01795
G1 X77.561 Y102.009 E.03619
G1 X76.788 Y101.152 E.03619
G1 X76.041 Y100.197 E.03802
G1 X80.753 Y92.035 E.2955
G1 X81.09 Y91.401 E.02251
G1 X81.392 Y90.728 E.02313
G1 X81.675 Y90.238 E.01774
G1 E-3.5 F3600
;WIPE_START
G1 F7200
G1 X81.705 Y90.186 E-.02852
G1 X81.754 Y91.582 E-.66351
G1 X81.885 Y92.177 E-.28939
G1 X82.063 Y92.783 E-.30001
G1 X82.237 Y93.209 E-.21857
;WIPE_END
G1 X92.71 Y99.05 F9000
G1 E5 F2400
;TYPE:Solid infill
G1 F1200
G1 X91.686 Y99.3 E.03305
G1 X90.474 Y99.439 E.03825
G1 X89.526 Y99.441 E.02972
G1 X88.596 Y99.348 E.0293
G1 X88.096 Y99.248 E.01599
G1 X87.26 Y99.031 E.02708
G1 X86.671 Y98.846 E.01936
G1 X85.665 Y98.388 E.03466
G1 X84.364 Y97.587 E.0479
G1 X83.318 Y96.686 E.04329
G1 X82.692 Y95.996 E.02921
G1 X82.123 Y95.226 E.03002
G1 X81.406 Y93.938 E.04622
G1 X81.18 Y93.384 E.01876
G1 X77.293 Y100.117 E.24376
G1 X77.591 Y100.483 E.0148
G1 X78.313 Y101.283 E.03379
G1 X79.097 Y102.043 E.03424
G1 X79.371 Y102.283 E.01142
G1 X80.037 Y101.936 E.02355
G1 X80.805 Y101.743 E.02483
G1 X81.395 Y101.734 E.0185
G1 X81.632 Y101.737 E.00743
G1 X82.341 Y101.887 E.02272
G1 X83.12 Y102.265 E.02715
G1 X83.818 Y102.86 E.02876
G1 X84.182 Y103.345 E.01901
G1 X84.467 Y103.927 E.02032
G1 X84.627 Y104.486 E.01823
G1 X84.69 Y104.973 E.0154
G1 X84.685 Y105.35 E.01182
G1 X85.174 Y105.509 E.01612
G1 X86.054 Y105.758 E.02868
G1 X87.101 Y105.984 E.03358
G1 X88.073 Y106.13 E.03082
G1 X89.231 Y106.222 E.03642
G1 X91.763 Y101.836 E.15879
G1 X92.224 Y100.898 E.03277
G1 X92.449 Y100.273 E.02083
G1 X92.631 Y99.555 E.02322
G1 X92.701 Y99.109 E.01416
G1 X92.701 Y99.109 F9000
G1 X92.241 Y99.558
G1 F1200
G1 X91.707 Y99.678 E.01716
G1 X90.516 Y99.814 E.03759
G1 X89.526 Y99.818 E.03104
G1 X88.558 Y99.723 E.0305
G1 X88.022 Y99.618 E.01713
G1 X87.146 Y99.391 E.02837
G1 X86.558 Y99.206 E.01933
G1 X85.508 Y98.731 E.03613
G1 X85.187 Y98.565 E.01133
G1 X84.182 Y97.92 E.03744
G1 X83.072 Y96.972 E.04577
G1 X82.412 Y96.249 E.03069
G1 X81.833 Y95.471 E.03041
G1 X81.132 Y94.221 E.04494
G1 X77.749 Y100.081 E.21216
G1 X78.584 Y101.021 E.03942
G1 X79.426 Y101.829 E.03659
G1 X79.99 Y101.554 E.01967
G1 X80.716 Y101.377 E.02343
G1 X81.393 Y101.357 E.02124
G1 X81.71 Y101.368 E.00995
G1 X82.419 Y101.518 E.02272
G1 X83.287 Y101.927 E.03009
G1 X84.064 Y102.575 E.03172
G1 X84.485 Y103.121 E.02162
G1 X84.806 Y103.763 E.02251
G1 X84.99 Y104.384 E.02031
G1 X85.062 Y104.898 E.01627
G1 X85.065 Y105.079 E.00568
G1 X86.196 Y105.403 E.03689
G1 X87.169 Y105.613 E.03121
G1 X88.116 Y105.755 E.03002
G1 X89.024 Y105.827 E.02856
G1 X91.43 Y101.659 E.1509
G1 X91.877 Y100.75 E.03176
G1 X92.088 Y100.163 E.01956
G1 X92.227 Y99.616 E.0177
G1 X92.227 Y99.616 F9000
G1 X91.726 Y100.055
G1 F1200
G1 X90.559 Y100.189 E.03683
G1 X89.526 Y100.195 E.03239
G1 X88.52 Y100.098 E.03169
G1 X87.488 Y99.893 E.03299
G1 X86.494 Y99.581 E.03267
G1 X85.352 Y99.074 E.03918
G1 X84.984 Y98.883 E.013
G1 X83.978 Y98.238 E.03747
G1 X82.826 Y97.258 E.04742
G1 X82.133 Y96.502 E.03216
G1 X81.53 Y95.695 E.03159
G1 X81.126 Y94.986 E.02559
G1 X78.208 Y100.041 E.18301
G1 X78.856 Y100.759 E.03033
G1 X79.488 Y101.372 E.02761
G1 X79.901 Y101.188 E.01418
G1 X80.627 Y101.01 E.02344
G1 X81.391 Y100.98 E.02397
G1 X81.788 Y100.999 E.01246
G1 X82.497 Y101.149 E.02272
G1 X83.454 Y101.589 E.03303
G1 X83.653 Y101.721 E.00749
G1 X84.311 Y102.29 E.02728
G1 X84.788 Y102.897 E.02421
G1 X85.146 Y103.599 E.02471
G1 X85.309 Y104.125 E.01727
G1 X85.429 Y104.798 E.02143
G1 X86.236 Y105.026 E.02629
G1 X87.237 Y105.242 E.03211
G1 X88.159 Y105.38 E.02923
