; generated by PrusaSlicer 2.7.4 on 2024-04-27 at 22:09:58 UTC

; 

; external perimeters extrusion width = 0.42mm
; perimeters extrusion width = 0.44mm
; infill extrusion width = 0.44mm
; solid infill extrusion width = 0.44mm
; top infill extrusion width = 0.40mm
; first layer extrusion width = 0.42mm

M201 X500 Y500 Z100 E5000 ; sets maximum accelerations, mm/sec^2
M203 X500 Y500 Z10 E60 ; sets maximum feedrates, mm / sec
M204 S500 T1000 ; sets acceleration (S) and retract acceleration (R), mm/sec^2
M205 X8.00 Y8.00 Z0.40 E5.00 ; sets the jerk limits, mm/sec
M205 S0 T0 ; sets the minimum extruding and travel feed rate, mm/sec

; printing object SpacerFirstAttempt-Body.stl id:0 copy 0
; stop printing object SpacerFirstAttempt-Body.stl id:0 copy 0

;TYPE:Custom
G90 ; use absolute coordinates
M83 ; extruder relative mode
M104 S150 ; set temporary nozzle temp to prevent oozing during homing
M140 S70 ; set final bed temp
G4 S30 ; allow partial nozzle warmup
G28 ; home all axis
G1 Z50 F240
G1 X2.0 Y10 F3000
M104 S240 ; set final nozzle temp
M190 S70 ; wait for bed temp to stabilize
M109 S240 ; wait for nozzle temp to stabilize
G1 Z0.28 F240
G92 E0
G1 X2.0 Y140 E10 F1500 ; prime the nozzle
G1 X2.3 Y140 F5000
G92 E0
G1 X2.3 Y10 E10 F1200 ; prime the nozzle
G92 E0
G21 ; set units to millimeters
G90 ; use absolute coordinates
M83 ; use relative distances for extrusion
; Filament gcode
M107
;LAYER_CHANGE
;Z:0.2
;HEIGHT:0.2
G1 E-5 F3600
G1 Z.2 F9000
G1 X96.823 Y96.165
G1 Z.2
G1 E5 F2400
M204 S500
;TYPE:Skirt/Brim
;WIDTH:0.42
G1 F1200
G1 X98.72 Y94.496 E.07922
G1 X100.896 Y92.929 E.08408
G1 X103.217 Y91.586 E.08408
G1 X105.66 Y90.482 E.08406
G1 X108.201 Y89.626 E.08407
G1 X110.815 Y89.028 E.08408
G1 X113.475 Y88.693 E.08406
G1 X116.117 Y88.624 E.08287
G1 X118.829 Y88.823 E.08526
G1 X121.47 Y89.288 E.08408
G1 X124.052 Y90.013 E.08409
G1 X126.548 Y90.991 E.08405
G1 X128.934 Y92.214 E.08407
G1 X131.187 Y93.668 E.08407
G1 X133.284 Y95.339 E.08407
G1 X135.204 Y97.21 E.08406
G1 X136.928 Y99.264 E.08408
G1 X138.439 Y101.479 E.08407
G1 X139.721 Y103.834 E.08407
G1 X140.712 Y106.169 E.07953
G1 X141.532 Y108.786 E.08599
G1 X142.069 Y111.398 E.08361
G1 X142.345 Y114.051 E.08363
G1 X142.357 Y116.72 E.08369
G1 X142.102 Y119.388 E.08403
G1 X141.583 Y122.017 E.08402
G1 X140.805 Y124.581 E.08401
G1 X139.775 Y127.055 E.08402
G1 X138.504 Y129.414 E.08402
G1 X137.005 Y131.635 E.08401
G1 X135.292 Y133.696 E.08403
G1 X134.16 Y134.855 E.0508
G1 X132.186 Y136.581 E.08222
G1 X130.007 Y138.137 E.08395
G1 X127.683 Y139.467 E.08396
G1 X125.239 Y140.56 E.08394
G1 X122.698 Y141.405 E.08396
G1 X120.086 Y141.992 E.08394
G1 X117.428 Y142.317 E.08396
G1 X114.751 Y142.376 E.08396
G1 X112.082 Y142.168 E.08394
G1 X109.446 Y141.696 E.08396
G1 X106.871 Y140.964 E.08394
G1 X104.381 Y139.979 E.08396
G1 X102.001 Y138.752 E.08396
G1 X99.755 Y137.294 E.08396
G1 X97.666 Y135.62 E.08393
G1 X95.753 Y133.746 E.08397
G1 X94.036 Y131.691 E.08396
G1 X92.532 Y129.476 E.08395
G1 X91.256 Y127.122 E.08395
G1 X90.22 Y124.653 E.08395
G1 X89.436 Y122.093 E.08395
G1 X88.909 Y119.468 E.08395
G1 X88.646 Y116.803 E.08397
G1 X88.643 Y114.294 E.07867
G1 X88.92 Y111.462 E.08922
G1 X89.454 Y108.838 E.08396
G1 X90.2 Y106.41 E.07964
G1 X91.213 Y103.975 E.08269
G1 X91.953 Y102.529 E.05093
G1 X93.361 Y100.249 E.08402
G1 X94.889 Y98.239 E.07917
G1 X96.782 Y96.209 E.08703
G1 X96.782 Y96.209 F9000
G1 X97.057 Y96.465
G1 F1200
G1 X97.079 Y96.441 E.00102
G1 X98.957 Y94.789 E.07842
G1 X101.102 Y93.244 E.08288
G1 X103.391 Y91.921 E.0829
G1 X105.8 Y90.832 E.08289
G1 X108.305 Y89.989 E.08287
G1 X110.883 Y89.399 E.08292
G1 X113.505 Y89.069 E.08286
G1 X116.11 Y89.001 E.08171
G1 X118.784 Y89.198 E.08407
G1 X121.388 Y89.656 E.0829
G1 X123.933 Y90.371 E.08289
G1 X126.394 Y91.336 E.08288
G1 X128.747 Y92.541 E.08289
G1 X130.968 Y93.975 E.08289
G1 X133.035 Y95.622 E.08287
G1 X134.928 Y97.468 E.0829
G1 X136.628 Y99.493 E.0829
G1 X138.118 Y101.677 E.0829
G1 X139.382 Y103.999 E.08289
G1 X140.361 Y106.306 E.07858
G1 X141.169 Y108.885 E.08474
G1 X141.698 Y111.462 E.08248
G1 X141.969 Y114.078 E.08246
G1 X141.98 Y116.711 E.08256
G1 X141.728 Y119.341 E.08284
G1 X141.215 Y121.933 E.08285
G1 X140.447 Y124.461 E.08284
G1 X139.431 Y126.9 E.08284
G1 X138.178 Y129.226 E.08284
G1 X136.699 Y131.415 E.08283
G1 X135.009 Y133.447 E.08287
G1 X133.903 Y134.578 E.0496
G1 X131.957 Y136.282 E.0811
G1 X129.808 Y137.816 E.08279
G1 X127.518 Y139.128 E.08275
G1 X125.108 Y140.207 E.08279
G1 X122.603 Y141.04 E.08277
G1 X120.027 Y141.62 E.08279
G1 X117.406 Y141.941 E.08279
G1 X114.767 Y141.999 E.08276
G1 X112.135 Y141.795 E.08277
G1 X109.536 Y141.33 E.08278
G1 X106.996 Y140.608 E.08279
G1 X104.541 Y139.638 E.08277
G1 X102.194 Y138.428 E.08279
G1 X99.98 Y136.991 E.08276
G1 X97.919 Y135.341 E.08278
G1 X96.033 Y133.493 E.08279
G1 X94.34 Y131.468 E.08276
G1 X92.856 Y129.284 E.08279
G1 X91.598 Y126.963 E.08278
G1 X90.576 Y124.528 E.0828
G1 X89.802 Y122.004 E.08278
G1 X89.282 Y119.415 E.0828
G1 X89.023 Y116.788 E.08277
G1 X89.02 Y114.304 E.07788
G1 X89.292 Y111.521 E.08767
G1 X89.818 Y108.934 E.08277
G1 X90.557 Y106.53 E.07886
G1 X91.556 Y104.13 E.08151
G1 X92.279 Y102.718 E.04974
G1 X93.668 Y100.469 E.08288
G1 X95.18 Y98.479 E.07836
G1 X97.016 Y96.509 E.08443
G1 X97.291 Y96.765 F9000
G1 F1200
G1 X97.336 Y96.718 E.00204
G1 X99.194 Y95.082 E.07762
G1 X101.309 Y93.56 E.0817
G1 X103.565 Y92.255 E.08172
G1 X105.94 Y91.182 E.08171
G1 X108.41 Y90.351 E.08171
G1 X110.95 Y89.77 E.0817
G1 X113.535 Y89.445 E.08169
G1 X116.102 Y89.378 E.08051
G1 X118.739 Y89.572 E.0829
G1 X121.306 Y90.024 E.08172
G1 X123.815 Y90.729 E.08171
G1 X126.241 Y91.68 E.0817
G1 X128.56 Y92.868 E.0817
G1 X130.75 Y94.282 E.08173
G1 X132.787 Y95.906 E.08168
G1 X134.653 Y97.725 E.08171
G1 X136.328 Y99.722 E.08172
G1 X137.796 Y101.875 E.0817
G1 X139.043 Y104.163 E.0817
G1 X140.01 Y106.444 E.07768
G1 X140.805 Y108.985 E.08348
G1 X141.326 Y111.525 E.0813
G1 X141.593 Y114.105 E.08133
G1 X141.603 Y116.701 E.0814
G1 X141.354 Y119.294 E.08168
G1 X140.848 Y121.849 E.08167
G1 X140.09 Y124.341 E.08167
G1 X139.088 Y126.745 E.08166
G1 X137.851 Y129.037 E.08166
G1 X136.393 Y131.195 E.08166
G1 X134.726 Y133.197 E.08168
G1 X133.647 Y134.302 E.04842
G1 X131.728 Y135.982 E.07997
G1 X129.61 Y137.495 E.08161
G1 X127.352 Y138.79 E.08162
G1 X124.977 Y139.853 E.08159
G1 X122.507 Y140.675 E.08162
G1 X119.968 Y141.247 E.0816
G1 X117.385 Y141.564 E.0816
G1 X114.783 Y141.623 E.0816
G1 X112.188 Y141.422 E.08161
G1 X109.626 Y140.964 E.0816
G1 X107.122 Y140.253 E.08161
G1 X104.701 Y139.297 E.08161
G1 X102.388 Y138.104 E.0816
G1 X100.204 Y136.688 E.08161
G1 X98.173 Y135.061 E.08159
G1 X96.313 Y133.24 E.08162
G1 X94.643 Y131.244 E.0816
G1 X93.181 Y129.091 E.0816
G1 X91.939 Y126.803 E.08163
G1 X90.932 Y124.403 E.08161
G1 X90.168 Y121.915 E.0816
G1 X89.659 Y119.385 E.08092
G1 X89.401 Y116.796 E.08158
G1 X89.397 Y114.313 E.07785
G1 X89.661 Y111.603 E.08537
G1 X90.177 Y109.052 E.0816
G1 X90.915 Y106.651 E.07876
G1 X91.9 Y104.285 E.08036
G1 X92.606 Y102.906 E.04857
G1 X93.974 Y100.689 E.08168
G1 X95.47 Y98.72 E.07753
G1 X97.25 Y96.809 E.08188
G1 X97.25 Y96.809 F9000
G1 X97.525 Y97.066
G1 F1200
G1 X97.592 Y96.994 E.00308
G1 X99.431 Y95.375 E.07682
G1 X101.516 Y93.875 E.08053
G1 X103.739 Y92.59 E.08051
G1 X106.08 Y91.532 E.08055
G1 X108.514 Y90.713 E.08052
G1 X111.018 Y90.141 E.08053
G1 X113.566 Y89.82 E.08052
G1 X116.095 Y89.755 E.07932
G1 X118.694 Y89.947 E.08171
G1 X121.224 Y90.392 E.08054
G1 X123.696 Y91.087 E.08051
G1 X126.087 Y92.024 E.08052
G1 X128.373 Y93.196 E.08055
G1 X130.531 Y94.589 E.08053
G1 X132.539 Y96.19 E.08052
G1 X134.377 Y97.983 E.08051
G1 X136.029 Y99.95 E.08054
G1 X137.475 Y102.072 E.08051
G1 X138.704 Y104.328 E.08055
G1 X139.659 Y106.582 E.07675
G1 X140.441 Y109.084 E.08219
G1 X140.952 Y111.571 E.07961
G1 X141.216 Y114.117 E.08026
G1 X141.226 Y116.692 E.08074
G1 X140.979 Y119.247 E.08048
G1 X140.48 Y121.765 E.08049
G1 X139.732 Y124.221 E.0805
G1 X138.744 Y126.59 E.08048
G1 X137.525 Y128.849 E.08048
G1 X136.086 Y130.975 E.08049
G1 X134.444 Y132.948 E.08048
G1 X133.39 Y134.026 E.04727
G1 X131.499 Y135.683 E.07883
G1 X129.412 Y137.174 E.08042
G1 X127.187 Y138.451 E.08044
G1 X124.846 Y139.5 E.08043
G1 X122.412 Y140.31 E.08043
G1 X119.91 Y140.875 E.08042
G1 X117.363 Y141.188 E.08046
G1 X114.799 Y141.246 E.08041
G1 X112.241 Y141.048 E.08044
G1 X109.716 Y140.597 E.08042
G1 X107.248 Y139.897 E.08043
G1 X104.877 Y138.962 E.07991
G1 X102.596 Y137.789 E.08042
G1 X100.443 Y136.396 E.0804
G1 X98.439 Y134.794 E.08044
G1 X96.605 Y133.002 E.0804
G1 X94.958 Y131.035 E.08044
G1 X93.515 Y128.915 E.08041
G1 X92.289 Y126.661 E.08045
G1 X91.294 Y124.297 E.08042
G1 X90.539 Y121.845 E.08044
G1 X90.032 Y119.33 E.08044
G1 X89.778 Y116.778 E.08041
G1 X89.774 Y114.323 E.07697
G1 X90.034 Y111.661 E.08386
G1 X90.542 Y109.147 E.08042
G1 X91.272 Y106.771 E.07793
G1 X92.244 Y104.44 E.07919
G1 X92.932 Y103.095 E.04737
G1 X94.28 Y100.909 E.08052
G1 X95.761 Y98.96 E.07675
G1 X97.484 Y97.11 E.07927
G1 X97.484 Y97.11 F9000
G1 X97.756 Y97.362
G1 F1200
G1 X97.784 Y97.332 E.00129
G1 X99.682 Y95.658 E.07935
G1 X101.737 Y94.181 E.07935
G1 X103.929 Y92.916 E.07935
G1 X106.216 Y91.884 E.07867
G1 X108.618 Y91.076 E.07946
G1 X111.085 Y90.512 E.07935
G1 X113.596 Y90.196 E.07935
G1 X116.087 Y90.132 E.07813
G1 X118.649 Y90.321 E.08055
G1 X121.142 Y90.76 E.07937
G1 X123.578 Y91.445 E.07934
G1 X125.934 Y92.369 E.07935
G1 X128.186 Y93.523 E.07934
G1 X130.312 Y94.896 E.07935
G1 X132.29 Y96.473 E.07932
G1 X134.027 Y98.161 E.07594
G1 X135.729 Y100.179 E.08277
G1 X137.135 Y102.238 E.07817
G1 X138.365 Y104.493 E.08054
G1 X139.308 Y106.72 E.07583
G1 X140.084 Y109.209 E.08175
G1 X140.575 Y111.605 E.07669
G1 X140.838 Y114.117 E.07919
G1 X140.875 Y115.622 E.0472
G1 X140.742 Y118.11 E.07812
G1 X140.357 Y120.608 E.07925
G1 X139.726 Y123.056 E.07926
G1 X138.854 Y125.429 E.07927
G1 X137.751 Y127.703 E.07924
G1 X136.426 Y129.856 E.07927
G1 X134.894 Y131.867 E.07927
G1 X133.17 Y133.715 E.07924
G1 X131.27 Y135.383 E.07927
G1 X129.214 Y136.853 E.07925
G1 X127.031 Y138.107 E.07894
G1 X124.725 Y139.142 E.07925
G1 X122.328 Y139.943 E.07924
G1 X119.863 Y140.501 E.07924
G1 X117.354 Y140.811 E.07927
G1 X114.828 Y140.87 E.07922
G1 X112.308 Y140.677 E.07924
G1 X109.82 Y140.235 E.07923
G1 X107.387 Y139.547 E.07928
G1 X105.035 Y138.62 E.07927
G1 X102.788 Y137.465 E.07922
G1 X100.666 Y136.092 E.07925
G1 X98.691 Y134.514 E.07926
G1 X96.961 Y132.83 E.0757
G1 X95.26 Y130.81 E.0828
G1 X93.838 Y128.72 E.07926
G1 X92.63 Y126.5 E.07924
G1 X91.687 Y124.269 E.07594
G1 X90.905 Y121.754 E.08258
G1 X90.422 Y119.378 E.07602
G1 X90.16 Y116.862 E.07931
G1 X90.124 Y115.392 E.0461
G1 X90.249 Y112.973 E.07595
G1 X90.626 Y110.473 E.07927
G1 X91.25 Y108.024 E.07924
G1 X92.116 Y105.643 E.07944
G1 X93.215 Y103.363 E.07936
G1 X94.534 Y101.204 E.07933
G1 X96.063 Y99.187 E.07936
G1 X97.715 Y97.406 E.07617
G1 E-3.5 F3600
;WIPE_START
G1 F7200
G1 X97.756 Y97.362 E-.02857
G1 X97.784 Y97.332 E-.01949
G1 X99.682 Y95.658 E-1.2021
G1 X100.109 Y95.351 E-.24984
;WIPE_END
; printing object SpacerFirstAttempt-Body.stl id:0 copy 0
G1 X100.889 Y100.508 F9000
G1 E5 F2400
;TYPE:Perimeter
;WIDTH:0.419999
G1 F1200
G1 X101.64 Y99.812 E.0321
G1 X102.454 Y99.128 E.03334
G1 X103.286 Y98.498 E.03272
G1 X104.149 Y97.911 E.03272
G1 X105.04 Y97.367 E.03273
G1 X105.957 Y96.868 E.03273
G1 X106.898 Y96.415 E.03275
G1 X107.86 Y96.01 E.03273
G1 X108.841 Y95.654 E.03272
G1 X109.839 Y95.346 E.03275
G1 X110.85 Y95.089 E.03271
G1 X111.874 Y94.883 E.03275
G1 X112.906 Y94.728 E.03272
G1 X113.945 Y94.624 E.03274
G1 X114.987 Y94.573 E.03271
G1 X116.032 Y94.573 E.03277
G1 X117.055 Y94.624 E.03212
G1 X118.094 Y94.728 E.03274
G1 X119.126 Y94.883 E.03272
G1 X120.33 Y95.135 E.03857
G1 X121.177 Y95.351 E.02741
G1 X122.172 Y95.658 E.03265
G1 X123.151 Y96.015 E.03267
G1 X124.112 Y96.42 E.0327
;WIDTH:0.464646
G1 X124.221 Y96.497 E.00468
;WIDTH:0.509293
G1 X124.33 Y96.574 E.00518
;WIDTH:0.55394
G1 X124.439 Y96.652 E.0057
;WIDTH:0.598587
G1 X124.548 Y96.729 E.00617
G1 X124.965 Y96.925 E.02129
;WIDTH:0.569057
G1 X125.382 Y97.12 E.02014
;WIDTH:0.544909
G1 X126.282 Y97.637 E.04332
;WIDTH:0.573272
G1 X127.065 Y98.149 E.04126
G1 X127.227 Y98.236 E.00811
;WIDTH:0.534954
G1 X127.389 Y98.324 E.00754
;WIDTH:0.496636
G1 X127.552 Y98.411 E.00697
;WIDTH:0.458318
G1 X127.714 Y98.498 E.00635
;WIDTH:0.419999
G1 X128.546 Y99.128 E.03272
G1 X129.346 Y99.799 E.03274
G1 X130.112 Y100.509 E.03275
G1 X130.841 Y101.256 E.03273
G1 X131.532 Y102.038 E.03272
G1 X132.183 Y102.854 E.03273
G1 X132.793 Y103.701 E.03273
G1 X133.36 Y104.578 E.03274
G1 X133.882 Y105.482 E.03273
G1 X134.359 Y106.411 E.03274
G1 X134.788 Y107.362 E.03271
G1 X135.17 Y108.332 E.03269
G1 X135.506 Y109.333 E.03311
G1 X135.789 Y110.338 E.03274
G1 X136.021 Y111.355 E.03271
G1 X136.208 Y112.43 E.03421
G1 X136.335 Y113.463 E.03263
G1 X136.411 Y114.5 E.0326
G1 X136.436 Y115.502 E.03143
G1 X136.409 Y116.545 E.03271
G1 X136.331 Y117.586 E.03273
G1 X136.202 Y118.622 E.03273
G1 X136.02 Y119.65 E.03273
G1 X135.788 Y120.667 E.03271
G1 X135.506 Y121.672 E.03273
G1 X135.173 Y122.662 E.03275
G1 X134.792 Y123.633 E.0327
G1 X134.363 Y124.585 E.03274
G1 X133.886 Y125.514 E.03274
G1 X133.364 Y126.418 E.03273
G1 X132.798 Y127.294 E.0327
G1 X132.189 Y128.142 E.03273
G1 X131.538 Y128.958 E.03273
G1 X130.848 Y129.741 E.03272
G1 X130.11 Y130.496 E.0331
G1 X129.354 Y131.198 E.03235
G1 X128.554 Y131.869 E.03274
G1 X127.722 Y132.499 E.03272
G1 X126.86 Y133.087 E.03272
G1 X125.969 Y133.632 E.03275
G1 X125.052 Y134.131 E.03273
G1 X124.112 Y134.584 E.03272
G1 X123.15 Y134.989 E.03273
G1 X122.169 Y135.346 E.03273
G1 X121.172 Y135.654 E.03272
G1 X120.16 Y135.912 E.03275
G1 X119.137 Y136.119 E.03273
G1 X118.105 Y136.274 E.03272
G1 X117.066 Y136.379 E.03274
G1 X116.024 Y136.431 E.03271
G1 X114.98 Y136.431 E.03273
G1 X113.937 Y136.379 E.03274
G1 X112.899 Y136.275 E.03271
G1 X111.866 Y136.119 E.03276
G1 X110.861 Y135.916 E.03215
G1 X109.816 Y135.65 E.03381
G1 X108.821 Y135.343 E.03265
G1 X107.842 Y134.986 E.03267
G1 X106.882 Y134.581 E.03267
;WIDTH:0.464658
G1 X106.775 Y134.504 E.00462
;WIDTH:0.509316
G1 X106.667 Y134.428 E.00512
;WIDTH:0.553975
G1 X106.559 Y134.351 E.00564
;WIDTH:0.598633
G1 X106.452 Y134.275 E.00606
G1 X106.025 Y134.073 E.02183
;WIDTH:0.569275
G1 X105.598 Y133.872 E.02066
;WIDTH:0.551134
G1 X105.062 Y133.573 E.02594
;WIDTH:0.55757
G1 X104.433 Y133.185 E.03163
;WIDTH:0.598788
G1 X103.975 Y132.866 E.0258
G1 X103.88 Y132.828 E.00473
;WIDTH:0.554091
G1 X103.785 Y132.791 E.00433
;WIDTH:0.509394
G1 X103.69 Y132.753 E.00397
;WIDTH:0.464697
G1 X103.595 Y132.715 E.00359
;WIDTH:0.419999
G1 X103.281 Y132.501 E.01191
G1 X102.449 Y131.871 E.03272
G1 X101.649 Y131.2 E.03274
G1 X100.884 Y130.491 E.0327
G1 X100.155 Y129.743 E.03275
G1 X99.464 Y128.961 E.03272
G1 X98.813 Y128.145 E.03273
G1 X98.204 Y127.297 E.03273
G1 X97.637 Y126.421 E.03272
G1 X97.115 Y125.517 E.03273
G1 X96.639 Y124.588 E.03273
G1 X96.21 Y123.636 E.03274
G1 X95.828 Y122.665 E.03272
G1 X95.496 Y121.675 E.03274
G1 X95.213 Y120.671 E.03271
G1 X94.98 Y119.653 E.03274
G1 X94.799 Y118.625 E.03273
G1 X94.669 Y117.589 E.03274
G1 X94.591 Y116.549 E.0327
G1 X94.565 Y115.505 E.03274
G1 X94.59 Y114.462 E.03271
G1 X94.668 Y113.421 E.03273
G1 X94.798 Y112.385 E.03274
G1 X94.979 Y111.357 E.03273
G1 X95.211 Y110.339 E.03274
G1 X95.493 Y109.335 E.0327
G1 X95.83 Y108.332 E.03318
G1 X96.212 Y107.362 E.03269
G1 X96.641 Y106.411 E.03271
G1 X97.118 Y105.482 E.03274
G1 X97.64 Y104.578 E.03273
G1 X98.207 Y103.701 E.03274
G1 X98.817 Y102.854 E.03273
G1 X99.468 Y102.038 E.03273
G1 X100.159 Y101.256 E.03272
G1 X100.847 Y100.551 E.03089
G1 X100.847 Y100.551 F9000
G1 X100.625 Y100.238
G1 F1200
G1 X101.39 Y99.529 E.0327
G1 X102.219 Y98.833 E.03394
G1 X103.066 Y98.192 E.0333
G1 X103.945 Y97.594 E.03333
G1 X104.852 Y97.04 E.03332
G1 X105.785 Y96.532 E.03331
G1 X106.743 Y96.071 E.03333
G1 X107.722 Y95.659 E.0333
G1 X108.721 Y95.296 E.03333
G1 X109.737 Y94.983 E.03333
G1 X110.767 Y94.721 E.03332
G1 X111.808 Y94.511 E.0333
G1 X112.859 Y94.353 E.03332
G1 X113.917 Y94.248 E.03334
