(G-CODE GENERATED BY FLATCAM v8.994 - www.flatcam.org - Version Date: 2020/11/7)

(Name: ReceiverSampleBoard-PTH.drl_cnc)
(Type: G-code from Geometry)
(Units: MM)

(Created on Sunday, 10 March 2024 at 22:29)

(This preprocessor is used with a motion controller loaded with GRBL firmware.)
(It is configured to be compatible with almost any version of GRBL firmware.)


(TOOLS DIAMETER: )
(Tool: 1 -> Dia: 1.0007599999999999)

(FEEDRATE Z: )
(Tool: 1 -> Feedrate: 50.0)

(FEEDRATE RAPIDS: )
(Tool: 1 -> Feedrate Rapids: 1500)

(Z_CUT: )
(Tool: 1 -> Z_Cut: -2.0)

(Tools Offset: )
(Tool: 1 -> Offset Z: 0.0)

(Z_MOVE: )
(Tool: 1 -> Z_Move: 2.0)

(Z Toolchange: 15 mm)
(X,Y Toolchange: 0.0000, 0.0000 mm)
(Z Start: None mm)
(Z End: 0.5 mm)
(X,Y End: None mm)
(Steps per circle: 64)
(Steps per circle: 64)
(Preprocessor Excellon: GRBL_11_no_M6)

(X range:   23.2294 ...   26.7702  mm)
(Y range:    6.4988 ...    7.4996  mm)

(Spindle Speed: 1000 RPM)
G21
G90
G17
G94


G01 F50.00

M5             
G00 Z15.0000
G00 X0.0000 Y0.0000                
T1
(MSG, Change to Tool Dia = 1.0008 ||| Total drills for tool T1 = 2)
M0
G00 Z15.0000
        
G01 F50.00
M03 S1000
G00 X23.7298 Y6.9992
G01 Z-2.0000
G01 Z0
G00 Z2.0000
G00 X26.2698 Y6.9992
G01 Z-2.0000
G01 Z0
G00 Z2.0000
M05
G00 Z0.50


