(G-CODE GENERATED BY FLATCAM v8.994 - www.flatcam.org - Version Date: 2020/11/7)

(Name: ReceiverSampleBoard-F_Cu.gbr_iso_combined_cnc)
(Type: G-code from Geometry)
(Units: MM)

(Created on Sunday, 10 March 2024 at 22:26)

(This preprocessor is used with a motion controller loaded with GRBL firmware.)
(It is configured to be compatible with almost any version of GRBL firmware.)

(TOOL DIAMETER: 0.1 mm)
(Feedrate_XY: 50.0 mm/min)
(Feedrate_Z: 50.0 mm/min)
(Feedrate rapids 1500.0 mm/min)

(Z_Cut: -0.15 mm)
(Z_Move: 2.0 mm)
(Z Start: None mm)
(Z End: 15.0 mm)
(X,Y End: None mm)
(Steps per circle: 64)
(Steps per circle: 64)
(Preprocessor Geometry: GRBL_11_no_M6)

(X range:    5.2351 ...   44.7649  mm)
(Y range:    5.2349 ...   44.3900  mm)

(Spindle Speed: 1000.0 RPM)
G21
G90
G17
G94


G01 F50.00

M5             
G00 Z15.0000
G00 X0.0000 Y0.0000                
T1
(MSG, Change to Tool Dia = 0.1000)
M0
G00 Z15.0000
        
M03 S1000.0
G01 F50.00
G00 X18.2343 Y10.4909
G01 F50.00
G01 Z-0.1500
G01 F50.00
G01 X20.7055 Y9.0642 F50.00
G01 X20.7147 Y9.0596 F50.00
G01 X20.7243 Y9.0557 F50.00
G01 X20.7341 Y9.0525 F50.00
G01 X20.7441 Y9.0500 F50.00
G01 X20.7508 Y9.0488 F50.00
G01 X20.7611 Y9.0476 F50.00
G01 X20.7714 Y9.0471 F50.00
G01 X20.7817 Y9.0474 F50.00
G01 X20.7919 Y9.0485 F50.00
G01 X20.8021 Y9.0503 F50.00
G01 X20.8120 Y9.0528 F50.00
G01 X20.8186 Y9.0549 F50.00
G01 X20.8282 Y9.0587 F50.00
G01 X20.8375 Y9.0631 F50.00
G01 X20.8464 Y9.0682 F50.00
G01 X20.8550 Y9.0740 F50.00
G01 X20.8657 Y9.0826 F50.00
G01 X20.8755 Y9.0923 F50.00
G01 X20.8843 Y9.1028 F50.00
G01 X20.8902 Y9.1113 F50.00
G01 X20.8937 Y9.1171 F50.00
G01 X24.1372 Y14.7349 F50.00
G01 X25.8520 Y14.7349 F50.00
G01 X29.0941 Y9.1195 F50.00
G01 X29.0996 Y9.1107 F50.00
G01 X29.1057 Y9.1024 F50.00
G01 X29.1124 Y9.0946 F50.00
G01 X29.1196 Y9.0873 F50.00
G01 X29.1248 Y9.0827 F50.00
G01 X29.1329 Y9.0763 F50.00
G01 X29.1414 Y9.0706 F50.00
G01 X29.1504 Y9.0655 F50.00
G01 X29.1597 Y9.0610 F50.00
G01 X29.1660 Y9.0584 F50.00
G01 X29.1725 Y9.0562 F50.00
G01 X29.1824 Y9.0534 F50.00
G01 X29.1925 Y9.0513 F50.00
G01 X29.1993 Y9.0504 F50.00
G01 X29.2062 Y9.0498 F50.00
G01 X29.2165 Y9.0495 F50.00
G01 X29.2268 Y9.0499 F50.00
G01 X29.2336 Y9.0507 F50.00
G01 X29.2438 Y9.0524 F50.00
G01 X29.2505 Y9.0539 F50.00
G01 X29.2571 Y9.0558 F50.00
G01 X29.2668 Y9.0593 F50.00
G01 X29.2762 Y9.0634 F50.00
G01 X29.2823 Y9.0665 F50.00
G01 X31.7535 Y10.4932 F50.00
G01 X31.7594 Y10.4968 F50.00
G01 X31.7678 Y10.5027 F50.00
G01 X31.7732 Y10.5070 F50.00
G01 X31.7809 Y10.5139 F50.00
G01 X31.7880 Y10.5213 F50.00
G01 X31.7925 Y10.5265 F50.00
G01 X31.7986 Y10.5348 F50.00
G01 X31.8042 Y10.5435 F50.00
G01 X31.8091 Y10.5525 F50.00
G01 X31.8133 Y10.5619 F50.00
G01 X31.8157 Y10.5684 F50.00
G01 X31.8187 Y10.5782 F50.00
G01 X31.8210 Y10.5883 F50.00
G01 X31.8226 Y10.5985 F50.00
G01 X31.8232 Y10.6053 F50.00
G01 X31.8235 Y10.6156 F50.00
G01 X31.8230 Y10.6259 F50.00
G01 X31.8218 Y10.6361 F50.00
G01 X31.8199 Y10.6462 F50.00
G01 X31.8181 Y10.6529 F50.00
G01 X31.8161 Y10.6595 F50.00
G01 X31.8124 Y10.6691 F50.00
G01 X31.8096 Y10.6753 F50.00
G01 X31.8048 Y10.6845 F50.00
G01 X28.5048 Y16.4002 F50.00
G01 X28.4993 Y16.4090 F50.00
G01 X28.4932 Y16.4173 F50.00
G01 X28.4865 Y16.4251 F50.00
G01 X28.4817 Y16.4300 F50.00
G01 X28.4741 Y16.4370 F50.00
G01 X28.4687 Y16.4413 F50.00
G01 X28.4632 Y16.4453 F50.00
G01 X28.4545 Y16.4509 F50.00
G01 X28.4485 Y16.4542 F50.00
G01 X28.4392 Y16.4587 F50.00
G01 X28.4296 Y16.4624 F50.00
G01 X28.4231 Y16.4645 F50.00
G01 X28.4131 Y16.4671 F50.00
G01 X28.4063 Y16.4684 F50.00
G01 X28.3961 Y16.4697 F50.00
G01 X28.3858 Y16.4702 F50.00
G01 X28.3755 Y16.4700 F50.00
G01 X28.3652 Y16.4690 F50.00
G01 X28.3551 Y16.4673 F50.00
G01 X28.3484 Y16.4657 F50.00
G01 X28.3385 Y16.4628 F50.00
G01 X28.3321 Y16.4604 F50.00
G01 X28.3226 Y16.4563 F50.00
G01 X28.3165 Y16.4532 F50.00
G01 X26.2586 Y15.2651 F50.00
G01 X23.7252 Y15.2651 F50.00
G01 X21.6743 Y16.4491 F50.00
G01 X21.6652 Y16.4539 F50.00
G01 X21.6558 Y16.4581 F50.00
G01 X21.6461 Y16.4615 F50.00
G01 X21.6395 Y16.4634 F50.00
G01 X21.6294 Y16.4656 F50.00
G01 X21.6226 Y16.4667 F50.00
G01 X21.6123 Y16.4677 F50.00
G01 X21.6020 Y16.4679 F50.00
G01 X21.5917 Y16.4673 F50.00
G01 X21.5849 Y16.4665 F50.00
G01 X21.5748 Y16.4647 F50.00
G01 X21.5648 Y16.4622 F50.00
G01 X21.5582 Y16.4601 F50.00
G01 X21.5486 Y16.4563 F50.00
G01 X21.5393 Y16.4519 F50.00
G01 X21.5333 Y16.4486 F50.00
G01 X21.5247 Y16.4430 F50.00
G01 X21.5164 Y16.4368 F50.00
G01 X21.5112 Y16.4324 F50.00
G01 X21.5037 Y16.4252 F50.00
G01 X21.4991 Y16.4202 F50.00
G01 X21.4926 Y16.4122 F50.00
G01 X21.4867 Y16.4037 F50.00
G01 X21.4831 Y16.3979 F50.00
G01 X18.1831 Y10.6821 F50.00
G01 X18.1768 Y10.6699 F50.00
G01 X18.1718 Y10.6571 F50.00
G01 X18.1680 Y10.6439 F50.00
G01 X18.1655 Y10.6304 F50.00
G01 X18.1644 Y10.6167 F50.00
G01 X18.1646 Y10.6030 F50.00
G01 X18.1662 Y10.5893 F50.00
G01 X18.1691 Y10.5759 F50.00
G01 X18.1733 Y10.5628 F50.00
G01 X18.1788 Y10.5502 F50.00
G01 X18.1854 Y10.5382 F50.00
G01 X18.1933 Y10.5269 F50.00
G01 X18.2021 Y10.5164 F50.00
G01 X18.2120 Y10.5069 F50.00
G01 X18.2228 Y10.4983 F50.00
G01 X18.2343 Y10.4909 F50.00
G00 Z2.0000
G00 X18.2793 Y10.5688
G01 F50.00
G01 Z-0.1500
G01 F50.00
G01 X20.7475 Y9.1438 F50.00
G01 X20.7530 Y9.1411 F50.00
G01 X20.7600 Y9.1387 F50.00
G01 X20.7672 Y9.1374 F50.00
G01 X20.7745 Y9.1372 F50.00
G01 X20.7819 Y9.1380 F50.00
G01 X20.7890 Y9.1399 F50.00
G01 X20.7957 Y9.1428 F50.00
G01 X20.8020 Y9.1467 F50.00
G01 X20.8093 Y9.1532 F50.00
G01 X20.8124 Y9.1570 F50.00
G01 X20.8158 Y9.1621 F50.00
G01 X24.0852 Y14.8249 F50.00
G01 X25.9040 Y14.8249 F50.00
G01 X29.1720 Y9.1645 F50.00
G01 X29.1762 Y9.1584 F50.00
G01 X29.1803 Y9.1538 F50.00
G01 X29.1849 Y9.1498 F50.00
G01 X29.1910 Y9.1458 F50.00
G01 X29.1977 Y9.1427 F50.00
G01 X29.2036 Y9.1409 F50.00
G01 X29.2096 Y9.1398 F50.00
G01 X29.2157 Y9.1395 F50.00
G01 X29.2219 Y9.1399 F50.00
G01 X29.2279 Y9.1411 F50.00
G01 X29.2348 Y9.1434 F50.00
G01 X29.2403 Y9.1462 F50.00
G01 X31.7085 Y10.5712 F50.00
G01 X31.7136 Y10.5745 F50.00
G01 X31.7183 Y10.5785 F50.00
G01 X31.7232 Y10.5840 F50.00
G01 X31.7266 Y10.5891 F50.00
G01 X31.7299 Y10.5957 F50.00
G01 X31.7318 Y10.6015 F50.00
G01 X31.7332 Y10.6087 F50.00
G01 X31.7335 Y10.6149 F50.00
G01 X31.7331 Y10.6210 F50.00
G01 X31.7319 Y10.6270 F50.00
G01 X31.7300 Y10.6328 F50.00
G01 X31.7268 Y10.6395 F50.00
G01 X28.4268 Y16.3552 F50.00
G01 X28.4234 Y16.3603 F50.00
G01 X28.4186 Y16.3659 F50.00
G01 X28.4139 Y16.3699 F50.00
G01 X28.4078 Y16.3739 F50.00
G01 X28.4023 Y16.3766 F50.00
G01 X28.3964 Y16.3785 F50.00
G01 X28.3904 Y16.3797 F50.00
G01 X28.3831 Y16.3802 F50.00
G01 X28.3770 Y16.3798 F50.00
G01 X28.3710 Y16.3786 F50.00
G01 X28.3651 Y16.3767 F50.00
G01 X28.3585 Y16.3735 F50.00
G01 X26.2827 Y15.1751 F50.00
G01 X23.7011 Y15.1751 F50.00
G01 X21.6293 Y16.3712 F50.00
G01 X21.6238 Y16.3739 F50.00
G01 X21.6169 Y16.3763 F50.00
G01 X21.6109 Y16.3775 F50.00
G01 X21.6047 Y16.3779 F50.00
G01 X21.5974 Y16.3774 F50.00
G01 X21.5914 Y16.3762 F50.00
G01 X21.5856 Y16.3742 F50.00
G01 X21.5800 Y16.3716 F50.00
G01 X21.5739 Y16.3676 F50.00
G01 X21.5693 Y16.3635 F50.00
G01 X21.5652 Y16.3590 F50.00
G01 X21.5610 Y16.3529 F50.00
G01 X18.2610 Y10.6371 F50.00
G01 X18.2570 Y10.6282 F50.00
G01 X18.2548 Y10.6186 F50.00
G01 X18.2544 Y10.6088 F50.00
G01 X18.2560 Y10.5992 F50.00
G01 X18.2595 Y10.5900 F50.00
G01 X18.2647 Y10.5817 F50.00
G01 X18.2714 Y10.5745 F50.00
G01 X18.2793 Y10.5688 F50.00
G00 Z2.0000
G00 X24.7349 Y11.8339
G01 F50.00
G01 Z-0.1500
G01 F50.00
G01 X24.7349 Y8.2500 F50.00
G01 X24.7362 Y8.2240 F50.00
G01 X24.7400 Y8.1983 F50.00
G01 X24.7445 Y8.1797 F50.00
G01 X24.7474 Y8.1698 F50.00
G01 X24.7551 Y8.1486 F50.00
G01 X24.7662 Y8.1251 F50.00
G01 X24.7759 Y8.1085 F50.00
G01 X24.7836 Y8.0971 F50.00
G01 X24.7973 Y8.0792 F50.00
G01 X24.8126 Y8.0626 F50.00
G01 X25.2800 Y7.5951 F50.00
G01 X25.2800 Y6.1500 F50.00
G01 X25.2807 Y6.1363 F50.00
G01 X25.2827 Y6.1227 F50.00
G01 X25.2860 Y6.1094 F50.00
G01 X25.2907 Y6.0964 F50.00
G01 X25.2949 Y6.0871 F50.00
G01 X25.2999 Y6.0780 F50.00
G01 X25.3055 Y6.0694 F50.00
G01 X25.3096 Y6.0639 F50.00
G01 X25.3163 Y6.0560 F50.00
G01 X25.3235 Y6.0486 F50.00
G01 X25.3312 Y6.0418 F50.00
G01 X25.3394 Y6.0355 F50.00
G01 X25.3480 Y6.0299 F50.00
G01 X25.3571 Y6.0249 F50.00
G01 X25.3664 Y6.0207 F50.00
G01 X25.3761 Y6.0171 F50.00
G01 X25.3860 Y6.0142 F50.00
G01 X25.3961 Y6.0121 F50.00
G01 X25.4029 Y6.0111 F50.00
G01 X25.4131 Y6.0102 F50.00
G01 X27.1200 Y6.0100 F50.00
G01 X27.1337 Y6.0107 F50.00
G01 X27.1473 Y6.0127 F50.00
G01 X27.1606 Y6.0160 F50.00
G01 X27.1736 Y6.0207 F50.00
G01 X27.1829 Y6.0249 F50.00
G01 X27.1920 Y6.0299 F50.00
G01 X27.2006 Y6.0355 F50.00
G01 X27.2088 Y6.0418 F50.00
G01 X27.2165 Y6.0486 F50.00
G01 X27.2237 Y6.0560 F50.00
G01 X27.2304 Y6.0639 F50.00
G01 X27.2364 Y6.0722 F50.00
G01 X27.2418 Y6.0810 F50.00
G01 X27.2466 Y6.0901 F50.00
G01 X27.2493 Y6.0964 F50.00
G01 X27.2529 Y6.1061 F50.00
G01 X27.2558 Y6.1160 F50.00
G01 X27.2579 Y6.1261 F50.00
G01 X27.2593 Y6.1363 F50.00
G01 X27.2600 Y6.1466 F50.00
G01 X27.2600 Y7.8534 F50.00
G01 X27.2593 Y7.8637 F50.00
G01 X27.2573 Y7.8773 F50.00
G01 X27.2540 Y7.8906 F50.00
G01 X27.2506 Y7.9004 F50.00
G01 X27.2466 Y7.9099 F50.00
G01 X27.2401 Y7.9220 F50.00
G01 X27.2345 Y7.9306 F50.00
G01 X27.2282 Y7.9388 F50.00
G01 X27.2214 Y7.9465 F50.00
G01 X27.2165 Y7.9514 F50.00
G01 X27.2061 Y7.9604 F50.00
G01 X27.1978 Y7.9664 F50.00
G01 X27.1920 Y7.9701 F50.00
G01 X27.1799 Y7.9766 F50.00
G01 X27.1672 Y7.9818 F50.00
G01 X27.1540 Y7.9858 F50.00
G01 X27.1405 Y7.9885 F50.00
G01 X27.1303 Y7.9896 F50.00
G01 X27.1234 Y7.9900 F50.00
G01 X25.6349 Y7.9900 F50.00
G01 X25.2651 Y8.3598 F50.00
G01 X25.2651 Y11.8339 F50.00
G01 X25.2867 Y11.8442 F50.00
G01 X25.3053 Y11.8552 F50.00
G01 X25.3139 Y11.8608 F50.00
G01 X25.3340 Y11.8758 F50.00
G01 X25.3526 Y11.8925 F50.00
G01 X25.3598 Y11.8999 F50.00
G01 X25.3742 Y11.9160 F50.00
G01 X25.3872 Y11.9333 F50.00
G01 X25.3930 Y11.9418 F50.00
G01 X25.4058 Y11.9633 F50.00
G01 X25.4151 Y11.9827 F50.00
G01 X25.4192 Y11.9922 F50.00
G01 X25.4265 Y12.0125 F50.00
G01 X25.4293 Y12.0224 F50.00
G01 X25.4344 Y12.0434 F50.00
G01 X25.4382 Y12.0682 F50.00
G01 X25.4391 Y12.0784 F50.00
G01 X25.4400 Y12.1000 F50.00
G01 X25.4400 Y13.2750 F50.00
G01 X25.4386 Y13.3034 F50.00
G01 X25.4351 Y13.3282 F50.00
G01 X25.4293 Y13.3526 F50.00
G01 X25.4254 Y13.3657 F50.00
G01 X25.4179 Y13.3860 F50.00
G01 X25.4058 Y13.4117 F50.00
G01 X25.3911 Y13.4361 F50.00
G01 X25.3784 Y13.4536 F50.00
G01 X25.3697 Y13.4642 F50.00
G01 X25.3526 Y13.4825 F50.00
G01 X25.3340 Y13.4992 F50.00
G01 X25.3111 Y13.5161 F50.00
G01 X25.2867 Y13.5308 F50.00
G01 X25.2673 Y13.5401 F50.00
G01 X25.2546 Y13.5454 F50.00
G01 X25.2309 Y13.5535 F50.00
G01 X25.2066 Y13.5594 F50.00
G01 X25.1852 Y13.5628 F50.00
G01 X25.1750 Y13.5639 F50.00
G01 X25.1534 Y13.5650 F50.00
G01 X24.8500 Y13.5650 F50.00
G01 X24.8250 Y13.5639 F50.00
G01 X24.8148 Y13.5628 F50.00
G01 X24.7934 Y13.5594 F50.00
G01 X24.7658 Y13.5525 F50.00
G01 X24.7454 Y13.5454 F50.00
G01 X24.7359 Y13.5416 F50.00
G01 X24.7163 Y13.5323 F50.00
G01 X24.7073 Y13.5274 F50.00
G01 X24.6889 Y13.5161 F50.00
G01 X24.6714 Y13.5034 F50.00
G01 X24.6634 Y13.4970 F50.00
G01 X24.6449 Y13.4801 F50.00
G01 X24.6280 Y13.4616 F50.00
G01 X24.6216 Y13.4536 F50.00
G01 X24.6089 Y13.4361 F50.00
G01 X24.5976 Y13.4177 F50.00
G01 X24.5927 Y13.4087 F50.00
G01 X24.5821 Y13.3860 F50.00
G01 X24.5746 Y13.3657 F50.00
G01 X24.5715 Y13.3559 F50.00
G01 X24.5656 Y13.3316 F50.00
G01 X24.5622 Y13.3102 F50.00
G01 X24.5611 Y13.3000 F50.00
G01 X24.5600 Y13.2750 F50.00
G01 X24.5600 Y12.1000 F50.00
G01 X24.5614 Y12.0716 F50.00
G01 X24.5649 Y12.0468 F50.00
G01 X24.5671 Y12.0367 F50.00
G01 X24.5725 Y12.0158 F50.00
G01 X24.5808 Y11.9922 F50.00
G01 X24.5849 Y11.9827 F50.00
G01 X24.5942 Y11.9633 F50.00
G01 X24.6070 Y11.9418 F50.00
G01 X24.6128 Y11.9333 F50.00
G01 X24.6258 Y11.9160 F50.00
G01 X24.6402 Y11.8999 F50.00
G01 X24.6474 Y11.8925 F50.00
G01 X24.6660 Y11.8758 F50.00
G01 X24.6861 Y11.8608 F50.00
G01 X24.6947 Y11.8552 F50.00
G01 X24.7133 Y11.8442 F50.00
G01 X24.7349 Y11.8339 F50.00
G00 Z2.0000
G00 X24.8249 Y11.9017
G01 F50.00
G01 Z-0.1500
G01 F50.00
G01 X24.8249 Y8.2500 F50.00
G01 X24.8258 Y8.2328 F50.00
G01 X24.8283 Y8.2158 F50.00
G01 X24.8318 Y8.2015 F50.00
G01 X24.8393 Y8.1808 F50.00
G01 X24.8456 Y8.1675 F50.00
G01 X24.8544 Y8.1527 F50.00
G01 X24.8647 Y8.1389 F50.00
G01 X24.8745 Y8.1280 F50.00
G01 X25.3700 Y7.6324 F50.00
G01 X25.3700 Y6.1500 F50.00
G01 X25.3707 Y6.1415 F50.00
G01 X25.3734 Y6.1320 F50.00
G01 X25.3765 Y6.1254 F50.00
G01 X25.3806 Y6.1192 F50.00
G01 X25.3855 Y6.1138 F50.00
G01 X25.3912 Y6.1091 F50.00
G01 X25.3975 Y6.1053 F50.00
G01 X25.4043 Y6.1025 F50.00
G01 X25.4115 Y6.1007 F50.00
G01 X25.4188 Y6.1000 F50.00
G01 X27.1200 Y6.1000 F50.00
G01 X27.1298 Y6.1010 F50.00
G01 X27.1380 Y6.1034 F50.00
G01 X27.1446 Y6.1065 F50.00
G01 X27.1508 Y6.1106 F50.00
G01 X27.1562 Y6.1155 F50.00
G01 X27.1616 Y6.1222 F50.00
G01 X27.1652 Y6.1286 F50.00
G01 X27.1678 Y6.1355 F50.00
G01 X27.1695 Y6.1427 F50.00
G01 X27.1700 Y6.1500 F50.00
G01 X27.1700 Y7.8500 F50.00
G01 X27.1690 Y7.8598 F50.00
G01 X27.1666 Y7.8680 F50.00
G01 X27.1629 Y7.8757 F50.00
G01 X27.1570 Y7.8836 F50.00
G01 X27.1536 Y7.8870 F50.00
G01 X27.1488 Y7.8909 F50.00
G01 X27.1403 Y7.8957 F50.00
G01 X27.1310 Y7.8988 F50.00
G01 X27.1261 Y7.8996 F50.00
G01 X27.1200 Y7.9000 F50.00
G01 X25.5976 Y7.9000 F50.00
G01 X25.1751 Y8.3225 F50.00
G01 X25.1751 Y11.9017 F50.00
G01 X25.1890 Y11.9038 F50.00
G01 X25.2081 Y11.9086 F50.00
G01 X25.2265 Y11.9152 F50.00
G01 X25.2443 Y11.9236 F50.00
G01 X25.2611 Y11.9337 F50.00
G01 X25.2769 Y11.9454 F50.00
G01 X25.2914 Y11.9586 F50.00
G01 X25.3038 Y11.9722 F50.00
G01 X25.3163 Y11.9889 F50.00
G01 X25.3252 Y12.0036 F50.00
G01 X25.3357 Y12.0258 F50.00
G01 X25.3414 Y12.0419 F50.00
G01 X25.3462 Y12.0610 F50.00
G01 X25.3490 Y12.0804 F50.00
G01 X25.3500 Y12.1000 F50.00
G01 X25.3500 Y13.2750 F50.00
G01 X25.3489 Y13.2958 F50.00
G01 X25.3462 Y13.3140 F50.00
G01 X25.3420 Y13.3307 F50.00
G01 X25.3338 Y13.3538 F50.00
G01 X25.3264 Y13.3693 F50.00
G01 X25.3163 Y13.3861 F50.00
G01 X25.3046 Y13.4019 F50.00
G01 X25.2931 Y13.4146 F50.00
G01 X25.2749 Y13.4311 F50.00
G01 X25.2611 Y13.4413 F50.00
G01 X25.2443 Y13.4514 F50.00
G01 X25.2242 Y13.4607 F50.00
G01 X25.2081 Y13.4664 F50.00
G01 X25.1902 Y13.4709 F50.00
G01 X25.1696 Y13.4740 F50.00
G01 X25.1500 Y13.4750 F50.00
G01 X24.8500 Y13.4750 F50.00
G01 X24.8280 Y13.4737 F50.00
G01 X24.8110 Y13.4712 F50.00
G01 X24.7919 Y13.4664 F50.00
G01 X24.7712 Y13.4588 F50.00
G01 X24.7557 Y13.4514 F50.00
G01 X24.7410 Y13.4426 F50.00
G01 X24.7231 Y13.4296 F50.00
G01 X24.7069 Y13.4146 F50.00
G01 X24.6954 Y13.4019 F50.00
G01 X24.6851 Y13.3881 F50.00
G01 X24.6736 Y13.3693 F50.00
G01 X24.6643 Y13.3492 F50.00
G01 X24.6586 Y13.3331 F50.00
G01 X24.6541 Y13.3152 F50.00
G01 X24.6510 Y13.2946 F50.00
G01 X24.6500 Y13.2750 F50.00
G01 X24.6500 Y12.1000 F50.00
G01 X24.6511 Y12.0792 F50.00
G01 X24.6538 Y12.0610 F50.00
G01 X24.6586 Y12.0419 F50.00
G01 X24.6652 Y12.0235 F50.00
G01 X24.6725 Y12.0079 F50.00
G01 X24.6851 Y11.9869 F50.00
G01 X24.6954 Y11.9731 F50.00
G01 X24.7086 Y11.9586 F50.00
G01 X24.7231 Y11.9454 F50.00
G01 X24.7369 Y11.9351 F50.00
G01 X24.7568 Y11.9231 F50.00
G01 X24.7735 Y11.9152 F50.00
G01 X24.7919 Y11.9086 F50.00
G01 X24.8110 Y11.9038 F50.00
G01 X24.8249 Y11.9017 F50.00
G00 Z2.0000
G00 X30.6871 Y17.6602
G01 F50.00
G01 Z-0.1500
G01 F50.00
G01 X33.9871 Y11.9445 F50.00
G01 X33.9907 Y11.9386 F50.00
G01 X33.9966 Y11.9301 F50.00
G01 X34.0054 Y11.9196 F50.00
G01 X34.0152 Y11.9100 F50.00
G01 X34.0259 Y11.9013 F50.00
G01 X34.0345 Y11.8956 F50.00
G01 X34.0434 Y11.8905 F50.00
G01 X34.0527 Y11.8860 F50.00
G01 X34.0623 Y11.8823 F50.00
G01 X34.0721 Y11.8792 F50.00
G01 X34.0822 Y11.8769 F50.00
G01 X34.0924 Y11.8754 F50.00
G01 X34.0992 Y11.8748 F50.00
G01 X34.1095 Y11.8745 F50.00
G01 X34.1198 Y11.8749 F50.00
G01 X34.1301 Y11.8761 F50.00
G01 X34.1402 Y11.8781 F50.00
G01 X34.1501 Y11.8808 F50.00
G01 X34.1598 Y11.8843 F50.00
G01 X34.1662 Y11.8869 F50.00
G01 X34.1754 Y11.8915 F50.00
G01 X36.6466 Y13.3182 F50.00
G01 X36.6581 Y13.3257 F50.00
G01 X36.6689 Y13.3342 F50.00
G01 X36.6787 Y13.3438 F50.00
G01 X36.6876 Y13.3542 F50.00
G01 X36.6954 Y13.3655 F50.00
G01 X36.7006 Y13.3745 F50.00
G01 X36.7063 Y13.3869 F50.00
G01 X36.7109 Y13.3999 F50.00
G01 X36.7141 Y13.4133 F50.00
G01 X36.7160 Y13.4269 F50.00
G01 X36.7165 Y13.4406 F50.00
G01 X36.7158 Y13.4543 F50.00
G01 X36.7136 Y13.4679 F50.00
G01 X36.7102 Y13.4812 F50.00
G01 X36.7055 Y13.4941 F50.00
G01 X36.7011 Y13.5034 F50.00
G01 X34.9753 Y16.4929 F50.00
G01 X35.7222 Y17.2398 F50.00
G01 X36.1278 Y17.6824 F50.00
G01 X36.1386 Y17.6955 F50.00
G01 X36.4990 Y18.1654 F50.00
G01 X36.5086 Y18.1794 F50.00
G01 X36.8235 Y18.6737 F50.00
G01 X36.8351 Y18.6937 F50.00
G01 X37.1084 Y19.2190 F50.00
G01 X37.1155 Y19.2345 F50.00
G01 X37.3409 Y19.7788 F50.00
G01 X37.3477 Y19.7977 F50.00
G01 X37.5248 Y20.3595 F50.00
G01 X37.5299 Y20.3789 F50.00
G01 X37.5811 Y20.6100 F50.00
G01 X40.8034 Y20.6100 F50.00
G01 X40.8137 Y20.6107 F50.00
G01 X40.8205 Y20.6115 F50.00
G01 X40.8340 Y20.6142 F50.00
G01 X40.8472 Y20.6182 F50.00
G01 X40.8599 Y20.6234 F50.00
G01 X40.8720 Y20.6299 F50.00
G01 X40.8778 Y20.6336 F50.00
G01 X40.8861 Y20.6396 F50.00
G01 X40.8940 Y20.6463 F50.00
G01 X40.8990 Y20.6510 F50.00
G01 X40.9082 Y20.6612 F50.00
G01 X40.9164 Y20.6722 F50.00
G01 X40.9218 Y20.6810 F50.00
G01 X40.9266 Y20.6901 F50.00
G01 X40.9318 Y20.7028 F50.00
G01 X40.9358 Y20.7160 F50.00
G01 X40.9379 Y20.7261 F50.00
G01 X40.9396 Y20.7397 F50.00
G01 X40.9400 Y20.7500 F50.00
G01 X40.9400 Y23.6000 F50.00
G01 X40.9398 Y23.6069 F50.00
G01 X40.9389 Y23.6171 F50.00
G01 X40.9373 Y23.6273 F50.00
G01 X40.9349 Y23.6373 F50.00
G01 X40.9329 Y23.6439 F50.00
G01 X40.9293 Y23.6536 F50.00
G01 X40.9251 Y23.6629 F50.00
G01 X40.9201 Y23.6720 F50.00
G01 X40.9164 Y23.6778 F50.00
G01 X40.9104 Y23.6861 F50.00
G01 X40.9037 Y23.6940 F50.00
G01 X40.8990 Y23.6990 F50.00
G01 X40.8914 Y23.7060 F50.00
G01 X40.8834 Y23.7124 F50.00
G01 X40.8778 Y23.7164 F50.00
G01 X40.8690 Y23.7218 F50.00
G01 X40.8629 Y23.7251 F50.00
G01 X40.8536 Y23.7293 F50.00
G01 X40.8439 Y23.7329 F50.00
G01 X40.8340 Y23.7358 F50.00
G01 X40.8273 Y23.7373 F50.00
G01 X40.8171 Y23.7389 F50.00
G01 X40.8069 Y23.7398 F50.00
G01 X40.8000 Y23.7400 F50.00
G01 X34.2000 Y23.7400 F50.00
G01 X34.1897 Y23.7396 F50.00
G01 X34.1795 Y23.7385 F50.00
G01 X34.1727 Y23.7373 F50.00
G01 X34.1627 Y23.7349 F50.00
G01 X34.1528 Y23.7318 F50.00
G01 X34.1433 Y23.7280 F50.00
G01 X34.1340 Y23.7235 F50.00
G01 X34.1280 Y23.7201 F50.00
G01 X34.1194 Y23.7145 F50.00
G01 X34.1139 Y23.7104 F50.00
G01 X34.1060 Y23.7037 F50.00
G01 X34.0986 Y23.6965 F50.00
G01 X34.0918 Y23.6888 F50.00
G01 X34.0876 Y23.6834 F50.00
G01 X34.0836 Y23.6778 F50.00
G01 X34.0782 Y23.6690 F50.00
G01 X34.0749 Y23.6629 F50.00
G01 X34.0707 Y23.6536 F50.00
G01 X34.0682 Y23.6472 F50.00
G01 X34.0651 Y23.6373 F50.00
G01 X34.0634 Y23.6307 F50.00
G01 X34.0615 Y23.6205 F50.00
G01 X34.0604 Y23.6103 F50.00
G01 X34.0600 Y23.6034 F50.00
G01 X34.0600 Y20.7500 F50.00
G01 X34.0607 Y20.7363 F50.00
G01 X34.0621 Y20.7261 F50.00
G01 X34.0634 Y20.7193 F50.00
G01 X34.0671 Y20.7061 F50.00
G01 X34.0694 Y20.6996 F50.00
G01 X34.0734 Y20.6901 F50.00
G01 X34.0782 Y20.6810 F50.00
G01 X34.0836 Y20.6722 F50.00
G01 X34.0896 Y20.6639 F50.00
G01 X34.0963 Y20.6560 F50.00
G01 X34.1035 Y20.6486 F50.00
G01 X34.1112 Y20.6418 F50.00
G01 X34.1166 Y20.6376 F50.00
G01 X34.1251 Y20.6317 F50.00
G01 X34.1310 Y20.6282 F50.00
G01 X34.1401 Y20.6234 F50.00
G01 X34.1496 Y20.6194 F50.00
G01 X34.1594 Y20.6160 F50.00
G01 X34.1660 Y20.6142 F50.00
G01 X34.1761 Y20.6121 F50.00
G01 X34.1863 Y20.6107 F50.00
G01 X34.1966 Y20.6100 F50.00
G01 X37.0381 Y20.6100 F50.00
G01 X37.0148 Y20.5050 F50.00
G01 X36.8455 Y19.9681 F50.00
G01 X36.6301 Y19.4480 F50.00
G01 X36.3702 Y18.9487 F50.00
G01 X36.0678 Y18.4740 F50.00
G01 X35.7251 Y18.0274 F50.00
G01 X35.3406 Y17.6079 F50.00
G01 X34.7009 Y16.9682 F50.00
G01 X33.3960 Y19.2282 F50.00
G01 X33.3923 Y19.2340 F50.00
G01 X33.3862 Y19.2423 F50.00
G01 X33.3772 Y19.2526 F50.00
G01 X33.3723 Y19.2574 F50.00
G01 X33.3645 Y19.2642 F50.00
G01 X33.3534 Y19.2723 F50.00
G01 X33.3415 Y19.2792 F50.00
G01 X33.3322 Y19.2837 F50.00
G01 X33.3259 Y19.2863 F50.00
G01 X33.3128 Y19.2905 F50.00
G01 X33.2994 Y19.2934 F50.00
G01 X33.2857 Y19.2949 F50.00
G01 X33.2754 Y19.2952 F50.00
G01 X33.2651 Y19.2948 F50.00
G01 X33.2515 Y19.2930 F50.00
G01 X33.2414 Y19.2907 F50.00
G01 X33.2283 Y19.2867 F50.00
G01 X33.2157 Y19.2813 F50.00
G01 X33.2066 Y19.2765 F50.00
G01 X30.7354 Y17.8497 F50.00
G01 X30.7241 Y17.8420 F50.00
G01 X30.7135 Y17.8332 F50.00
G01 X30.7039 Y17.8234 F50.00
G01 X30.6953 Y17.8127 F50.00
G01 X30.6877 Y17.8012 F50.00
G01 X30.6813 Y17.7890 F50.00
G01 X30.6762 Y17.7763 F50.00
G01 X30.6723 Y17.7631 F50.00
G01 X30.6697 Y17.7496 F50.00
G01 X30.6685 Y17.7360 F50.00
G01 X30.6686 Y17.7222 F50.00
G01 X30.6701 Y17.7086 F50.00
G01 X30.6729 Y17.6951 F50.00
G01 X30.6770 Y17.6820 F50.00
G01 X30.6809 Y17.6724 F50.00
G01 X30.6871 Y17.6602 F50.00
G00 Z2.0000
G00 X30.7651 Y17.7052
G01 F50.00
G01 Z-0.1500
G01 F50.00
G01 X34.0651 Y11.9895 F50.00
G01 X34.0677 Y11.9853 F50.00
G01 X34.0716 Y11.9806 F50.00
G01 X34.0789 Y11.9741 F50.00
G01 X34.0852 Y11.9702 F50.00
G01 X34.0919 Y11.9672 F50.00
G01 X34.0990 Y11.9653 F50.00
G01 X34.1063 Y11.9645 F50.00
G01 X34.1137 Y11.9647 F50.00
G01 X34.1209 Y11.9661 F50.00
G01 X34.1268 Y11.9680 F50.00
G01 X34.1334 Y11.9712 F50.00
G01 X36.6016 Y13.3962 F50.00
G01 X36.6086 Y13.4011 F50.00
G01 X36.6155 Y13.4081 F50.00
G01 X36.6208 Y13.4162 F50.00
G01 X36.6245 Y13.4253 F50.00
G01 X36.6263 Y13.4350 F50.00
G01 X36.6263 Y13.4448 F50.00
G01 X36.6243 Y13.4544 F50.00
G01 X36.6205 Y13.4634 F50.00
G01 X34.8629 Y16.5077 F50.00
G01 X35.6570 Y17.3019 F50.00
G01 X36.0588 Y17.7402 F50.00
G01 X36.0672 Y17.7503 F50.00
G01 X36.4253 Y18.2170 F50.00
G01 X36.4327 Y18.2277 F50.00
G01 X36.7476 Y18.7220 F50.00
G01 X36.7553 Y18.7352 F50.00
G01 X37.0268 Y19.2570 F50.00
G01 X37.0323 Y19.2689 F50.00
G01 X37.2570 Y19.8114 F50.00
G01 X37.2618 Y19.8247 F50.00
G01 X37.4384 Y20.3847 F50.00
G01 X37.4420 Y20.3984 F50.00
G01 X37.5089 Y20.7000 F50.00
G01 X40.8000 Y20.7000 F50.00
G01 X40.8061 Y20.7004 F50.00
G01 X40.8110 Y20.7012 F50.00
G01 X40.8168 Y20.7029 F50.00
G01 X40.8214 Y20.7048 F50.00
G01 X40.8267 Y20.7078 F50.00
G01 X40.8308 Y20.7106 F50.00
G01 X40.8354 Y20.7146 F50.00
G01 X40.8387 Y20.7183 F50.00
G01 X40.8435 Y20.7254 F50.00
G01 X40.8471 Y20.7332 F50.00
G01 X40.8493 Y20.7415 F50.00
G01 X40.8500 Y20.7500 F50.00
G01 X40.8500 Y23.6000 F50.00
G01 X40.8496 Y23.6061 F50.00
G01 X40.8482 Y23.6133 F50.00
G01 X40.8457 Y23.6203 F50.00
G01 X40.8429 Y23.6257 F50.00
G01 X40.8394 Y23.6308 F50.00
G01 X40.8354 Y23.6354 F50.00
G01 X40.8298 Y23.6402 F50.00
G01 X40.8246 Y23.6435 F50.00
G01 X40.8180 Y23.6466 F50.00
G01 X40.8121 Y23.6485 F50.00
G01 X40.8061 Y23.6496 F50.00
G01 X40.8000 Y23.6500 F50.00
G01 X34.2000 Y23.6500 F50.00
G01 X34.1939 Y23.6496 F50.00
G01 X34.1867 Y23.6482 F50.00
G01 X34.1797 Y23.6457 F50.00
G01 X34.1743 Y23.6429 F50.00
G01 X34.1692 Y23.6394 F50.00
G01 X34.1646 Y23.6354 F50.00
G01 X34.1598 Y23.6298 F50.00
G01 X34.1565 Y23.6246 F50.00
G01 X34.1538 Y23.6191 F50.00
G01 X34.1518 Y23.6133 F50.00
G01 X34.1504 Y23.6061 F50.00
G01 X34.1500 Y23.6000 F50.00
G01 X34.1500 Y20.7500 F50.00
G01 X34.1510 Y20.7402 F50.00
G01 X34.1538 Y20.7309 F50.00
G01 X34.1584 Y20.7222 F50.00
G01 X34.1646 Y20.7146 F50.00
G01 X34.1722 Y20.7084 F50.00
G01 X34.1809 Y20.7038 F50.00
G01 X34.1902 Y20.7010 F50.00
G01 X34.2000 Y20.7000 F50.00
G01 X37.1502 Y20.7000 F50.00
G01 X37.1018 Y20.4816 F50.00
G01 X36.9302 Y19.9373 F50.00
G01 X36.7118 Y19.4100 F50.00
G01 X36.4482 Y18.9037 F50.00
G01 X36.1415 Y18.4223 F50.00
G01 X35.7941 Y17.9695 F50.00
G01 X35.4057 Y17.5456 F50.00
G01 X34.6816 Y16.8216 F50.00
G01 X33.3199 Y19.1802 F50.00
G01 X33.3141 Y19.1882 F50.00
G01 X33.3107 Y19.1917 F50.00
G01 X33.3060 Y19.1956 F50.00
G01 X33.3019 Y19.1983 F50.00
G01 X33.2964 Y19.2011 F50.00
G01 X33.2871 Y19.2041 F50.00
G01 X33.2774 Y19.2052 F50.00
G01 X33.2688 Y19.2046 F50.00
G01 X33.2605 Y19.2026 F50.00
G01 X33.2516 Y19.1985 F50.00
G01 X30.7823 Y17.7729 F50.00
G01 X30.7745 Y17.7670 F50.00
G01 X30.7680 Y17.7597 F50.00
G01 X30.7630 Y17.7512 F50.00
G01 X30.7598 Y17.7420 F50.00
G01 X30.7584 Y17.7323 F50.00
G01 X30.7588 Y17.7237 F50.00
G01 X30.7610 Y17.7142 F50.00
G01 X30.7651 Y17.7052 F50.00
G00 Z2.0000
G00 X30.7424 Y32.1462
G01 F50.00
G01 Z-0.1500
G01 F50.00
G01 X33.2136 Y30.7195 F50.00
G01 X33.2260 Y30.7135 F50.00
G01 X33.2356 Y30.7099 F50.00
G01 X33.2488 Y30.7061 F50.00
G01 X33.2623 Y30.7036 F50.00
G01 X33.2760 Y30.7025 F50.00
G01 X33.2863 Y30.7026 F50.00
G01 X33.3000 Y30.7038 F50.00
G01 X33.3102 Y30.7056 F50.00
G01 X33.3234 Y30.7091 F50.00
G01 X33.3363 Y30.7140 F50.00
G01 X33.3486 Y30.7201 F50.00
G01 X33.3603 Y30.7273 F50.00
G01 X33.3658 Y30.7314 F50.00
G01 X33.3738 Y30.7379 F50.00
G01 X33.3836 Y30.7476 F50.00
G01 X33.3924 Y30.7581 F50.00
G01 X33.4001 Y30.7695 F50.00
G01 X34.7050 Y33.0295 F50.00
G01 X35.3391 Y32.3953 F50.00
G01 X35.7690 Y31.9210 F50.00
G01 X36.1465 Y31.4121 F50.00
G01 X36.4722 Y30.8686 F50.00
G01 X36.7431 Y30.2958 F50.00
G01 X36.9566 Y29.6993 F50.00
G01 X37.0341 Y29.3900 F50.00
G01 X34.1966 Y29.3900 F50.00
G01 X34.1863 Y29.3893 F50.00
G01 X34.1761 Y29.3879 F50.00
G01 X34.1693 Y29.3866 F50.00
G01 X34.1594 Y29.3840 F50.00
G01 X34.1528 Y29.3818 F50.00
G01 X34.1433 Y29.3780 F50.00
G01 X34.1340 Y29.3735 F50.00
G01 X34.1251 Y29.3683 F50.00
G01 X34.1166 Y29.3624 F50.00
G01 X34.1086 Y29.3560 F50.00
G01 X34.1010 Y29.3490 F50.00
G01 X34.0963 Y29.3440 F50.00
G01 X34.0896 Y29.3361 F50.00
G01 X34.0836 Y29.3278 F50.00
G01 X34.0799 Y29.3220 F50.00
G01 X34.0749 Y29.3129 F50.00
G01 X34.0694 Y29.3004 F50.00
G01 X34.0671 Y29.2939 F50.00
G01 X34.0642 Y29.2840 F50.00
G01 X34.0621 Y29.2739 F50.00
G01 X34.0611 Y29.2671 F50.00
G01 X34.0602 Y29.2569 F50.00
G01 X34.0600 Y29.2500 F50.00
G01 X34.0600 Y26.3966 F50.00
G01 X34.0604 Y26.3897 F50.00
G01 X34.0615 Y26.3795 F50.00
G01 X34.0627 Y26.3727 F50.00
G01 X34.0651 Y26.3627 F50.00
G01 X34.0671 Y26.3561 F50.00
G01 X34.0707 Y26.3464 F50.00
G01 X34.0749 Y26.3371 F50.00
G01 X34.0799 Y26.3280 F50.00
G01 X34.0836 Y26.3222 F50.00
G01 X34.0896 Y26.3139 F50.00
G01 X34.0963 Y26.3060 F50.00
G01 X34.1010 Y26.3010 F50.00
G01 X34.1086 Y26.2940 F50.00
G01 X34.1166 Y26.2876 F50.00
G01 X34.1222 Y26.2836 F50.00
G01 X34.1310 Y26.2782 F50.00
G01 X34.1371 Y26.2749 F50.00
G01 X34.1464 Y26.2707 F50.00
G01 X34.1561 Y26.2671 F50.00
G01 X34.1660 Y26.2642 F50.00
G01 X34.1727 Y26.2627 F50.00
G01 X34.1829 Y26.2611 F50.00
G01 X34.1931 Y26.2602 F50.00
G01 X34.2000 Y26.2600 F50.00
G01 X40.8000 Y26.2600 F50.00
G01 X40.8103 Y26.2604 F50.00
G01 X40.8205 Y26.2615 F50.00
G01 X40.8273 Y26.2627 F50.00
G01 X40.8373 Y26.2651 F50.00
G01 X40.8472 Y26.2682 F50.00
G01 X40.8567 Y26.2720 F50.00
G01 X40.8660 Y26.2765 F50.00
G01 X40.8720 Y26.2799 F50.00
G01 X40.8778 Y26.2836 F50.00
G01 X40.8861 Y26.2896 F50.00
G01 X40.8940 Y26.2963 F50.00
G01 X40.9014 Y26.3035 F50.00
G01 X40.9082 Y26.3112 F50.00
G01 X40.9124 Y26.3166 F50.00
G01 X40.9164 Y26.3222 F50.00
G01 X40.9218 Y26.3310 F50.00
G01 X40.9251 Y26.3371 F50.00
G01 X40.9293 Y26.3464 F50.00
G01 X40.9329 Y26.3561 F50.00
G01 X40.9358 Y26.3660 F50.00
G01 X40.9379 Y26.3761 F50.00
G01 X40.9389 Y26.3829 F50.00
G01 X40.9396 Y26.3897 F50.00
G01 X40.9400 Y26.4000 F50.00
G01 X40.9400 Y29.2500 F50.00
G01 X40.9393 Y29.2637 F50.00
G01 X40.9379 Y29.2739 F50.00
G01 X40.9349 Y29.2873 F50.00
G01 X40.9318 Y29.2972 F50.00
G01 X40.9266 Y29.3099 F50.00
G01 X40.9218 Y29.3190 F50.00
G01 X40.9145 Y29.3306 F50.00
G01 X40.9082 Y29.3388 F50.00
G01 X40.9037 Y29.3440 F50.00
G01 X40.8965 Y29.3514 F50.00
G01 X40.8861 Y29.3604 F50.00
G01 X40.8749 Y29.3683 F50.00
G01 X40.8690 Y29.3718 F50.00
G01 X40.8599 Y29.3766 F50.00
G01 X40.8472 Y29.3818 F50.00
G01 X40.8406 Y29.3840 F50.00
G01 X40.8307 Y29.3866 F50.00
G01 X40.8171 Y29.3889 F50.00
G01 X40.8034 Y29.3900 F50.00
G01 X37.5806 Y29.3900 F50.00
G01 X37.4677 Y29.8407 F50.00
G01 X37.4623 Y29.8591 F50.00
G01 X37.2379 Y30.4867 F50.00
G01 X37.2307 Y30.5044 F50.00
G01 X36.9428 Y31.1132 F50.00
G01 X36.9336 Y31.1300 F50.00
G01 X36.5927 Y31.6987 F50.00
G01 X36.5800 Y31.7174 F50.00
G01 X36.1871 Y32.2473 F50.00
G01 X36.1706 Y32.2674 F50.00
G01 X35.7210 Y32.7631 F50.00
G01 X34.9794 Y33.5048 F50.00
G01 X36.7019 Y36.4882 F50.00
G01 X36.7067 Y36.4973 F50.00
G01 X36.7120 Y36.5100 F50.00
G01 X36.7161 Y36.5231 F50.00
G01 X36.7183 Y36.5331 F50.00
G01 X36.7201 Y36.5468 F50.00
G01 X36.7206 Y36.5571 F50.00
G01 X36.7200 Y36.5708 F50.00
G01 X36.7187 Y36.5810 F50.00
G01 X36.7175 Y36.5878 F50.00
G01 X36.7149 Y36.5977 F50.00
G01 X36.7104 Y36.6107 F50.00
G01 X36.7046 Y36.6232 F50.00
G01 X36.7013 Y36.6292 F50.00
G01 X36.6957 Y36.6379 F50.00
G01 X36.6874 Y36.6488 F50.00
G01 X36.6804 Y36.6564 F50.00
G01 X36.6755 Y36.6612 F50.00
G01 X36.6649 Y36.6700 F50.00
G01 X36.6536 Y36.6777 F50.00
G01 X34.1824 Y38.1044 F50.00
G01 X34.1702 Y38.1107 F50.00
G01 X34.1574 Y38.1158 F50.00
G01 X34.1442 Y38.1195 F50.00
G01 X34.1307 Y38.1220 F50.00
G01 X34.1204 Y38.1230 F50.00
G01 X34.1067 Y38.1231 F50.00
G01 X34.0930 Y38.1218 F50.00
G01 X34.0795 Y38.1193 F50.00
G01 X34.0664 Y38.1154 F50.00
G01 X34.0536 Y38.1102 F50.00
G01 X34.0414 Y38.1039 F50.00
G01 X34.0300 Y38.0963 F50.00
G01 X34.0193 Y38.0877 F50.00
G01 X34.0095 Y38.0781 F50.00
G01 X34.0007 Y38.0675 F50.00
G01 X33.9929 Y38.0562 F50.00
G01 X30.6912 Y32.3374 F50.00
G01 X30.6849 Y32.3252 F50.00
G01 X30.6799 Y32.3124 F50.00
G01 X30.6761 Y32.2992 F50.00
G01 X30.6736 Y32.2857 F50.00
G01 X30.6725 Y32.2720 F50.00
G01 X30.6727 Y32.2583 F50.00
G01 X30.6743 Y32.2446 F50.00
G01 X30.6772 Y32.2312 F50.00
G01 X30.6814 Y32.2181 F50.00
G01 X30.6869 Y32.2055 F50.00
G01 X30.6935 Y32.1935 F50.00
G01 X30.7014 Y32.1822 F50.00
G01 X30.7103 Y32.1717 F50.00
G01 X30.7201 Y32.1622 F50.00
G01 X30.7309 Y32.1536 F50.00
G01 X30.7424 Y32.1462 F50.00
G00 Z2.0000
G00 X30.7874 Y32.2241
G01 F50.00
G01 Z-0.1500
G01 F50.00
G01 X33.2556 Y30.7991 F50.00
G01 X33.2634 Y30.7955 F50.00
G01 X33.2729 Y30.7930 F50.00
G01 X33.2827 Y30.7925 F50.00
G01 X33.2924 Y30.7938 F50.00
G01 X33.3016 Y30.7971 F50.00
G01 X33.3101 Y30.8020 F50.00
G01 X33.3174 Y30.8086 F50.00
G01 X33.3205 Y30.8123 F50.00
G01 X33.3239 Y30.8174 F50.00
G01 X34.6857 Y33.1761 F50.00
G01 X35.4043 Y32.4574 F50.00
G01 X35.8387 Y31.9782 F50.00
G01 X36.2214 Y31.4622 F50.00
G01 X36.5517 Y30.9111 F50.00
G01 X36.8264 Y30.3303 F50.00
G01 X37.0428 Y29.7254 F50.00
G01 X37.1494 Y29.3000 F50.00
G01 X34.2000 Y29.3000 F50.00
G01 X34.1927 Y29.2995 F50.00
G01 X34.1867 Y29.2982 F50.00
G01 X34.1797 Y29.2957 F50.00
G01 X34.1743 Y29.2929 F50.00
G01 X34.1692 Y29.2894 F50.00
G01 X34.1638 Y29.2845 F50.00
G01 X34.1598 Y29.2798 F50.00
G01 X34.1559 Y29.2736 F50.00
G01 X34.1534 Y29.2680 F50.00
G01 X34.1515 Y29.2621 F50.00
G01 X34.1504 Y29.2561 F50.00
G01 X34.1500 Y29.2500 F50.00
G01 X34.1500 Y26.4000 F50.00
G01 X34.1504 Y26.3939 F50.00
G01 X34.1518 Y26.3867 F50.00
G01 X34.1543 Y26.3797 F50.00
G01 X34.1571 Y26.3743 F50.00
G01 X34.1606 Y26.3692 F50.00
G01 X34.1646 Y26.3646 F50.00
G01 X34.1702 Y26.3598 F50.00
G01 X34.1754 Y26.3565 F50.00
G01 X34.1820 Y26.3534 F50.00
G01 X34.1879 Y26.3515 F50.00
G01 X34.1939 Y26.3504 F50.00
G01 X34.2000 Y26.3500 F50.00
G01 X40.8000 Y26.3500 F50.00
G01 X40.8061 Y26.3504 F50.00
G01 X40.8133 Y26.3518 F50.00
G01 X40.8191 Y26.3538 F50.00
G01 X40.8246 Y26.3565 F50.00
G01 X40.8298 Y26.3598 F50.00
G01 X40.8354 Y26.3646 F50.00
G01 X40.8402 Y26.3702 F50.00
G01 X40.8435 Y26.3754 F50.00
G01 X40.8462 Y26.3809 F50.00
G01 X40.8482 Y26.3867 F50.00
G01 X40.8496 Y26.3939 F50.00
G01 X40.8500 Y26.4000 F50.00
G01 X40.8500 Y29.2500 F50.00
G01 X40.8493 Y29.2585 F50.00
G01 X40.8471 Y29.2668 F50.00
G01 X40.8435 Y29.2746 F50.00
G01 X40.8387 Y29.2817 F50.00
G01 X40.8354 Y29.2854 F50.00
G01 X40.8308 Y29.2894 F50.00
G01 X40.8267 Y29.2922 F50.00
G01 X40.8214 Y29.2952 F50.00
G01 X40.8168 Y29.2971 F50.00
G01 X40.8110 Y29.2988 F50.00
G01 X40.8049 Y29.2998 F50.00
G01 X40.8000 Y29.3000 F50.00
G01 X37.5103 Y29.3000 F50.00
G01 X37.3804 Y29.8188 F50.00
G01 X37.3761 Y29.8329 F50.00
G01 X37.1531 Y30.4564 F50.00
G01 X37.1476 Y30.4700 F50.00
G01 X36.8634 Y31.0708 F50.00
G01 X36.8564 Y31.0837 F50.00
G01 X36.5167 Y31.6506 F50.00
G01 X36.5078 Y31.6638 F50.00
G01 X36.1148 Y32.1937 F50.00
G01 X36.1039 Y32.2070 F50.00
G01 X35.6558 Y32.7011 F50.00
G01 X34.8669 Y33.4900 F50.00
G01 X36.6245 Y36.5343 F50.00
G01 X36.6283 Y36.5433 F50.00
G01 X36.6303 Y36.5529 F50.00
G01 X36.6304 Y36.5627 F50.00
G01 X36.6286 Y36.5723 F50.00
G01 X36.6249 Y36.5814 F50.00
G01 X36.6203 Y36.5886 F50.00
G01 X36.6136 Y36.5958 F50.00
G01 X36.6056 Y36.6015 F50.00
G01 X34.1374 Y38.0265 F50.00
G01 X34.1308 Y38.0297 F50.00
G01 X34.1238 Y38.0319 F50.00
G01 X34.1165 Y38.0330 F50.00
G01 X34.1092 Y38.0331 F50.00
G01 X34.1019 Y38.0321 F50.00
G01 X34.0948 Y38.0300 F50.00
G01 X34.0881 Y38.0269 F50.00
G01 X34.0820 Y38.0229 F50.00
G01 X34.0748 Y38.0162 F50.00
G01 X34.0691 Y38.0082 F50.00
G01 X30.7691 Y32.2924 F50.00
G01 X30.7651 Y32.2835 F50.00
G01 X30.7629 Y32.2740 F50.00
G01 X30.7625 Y32.2642 F50.00
G01 X30.7641 Y32.2545 F50.00
G01 X30.7676 Y32.2453 F50.00
G01 X30.7728 Y32.2370 F50.00
G01 X30.7795 Y32.2298 F50.00
G01 X30.7874 Y32.2241 F50.00
G00 Z2.0000
G00 X22.0750 Y41.2475
G01 F50.00
G01 Z-0.1500
G01 F50.00
G01 X22.0758 Y41.2328 F50.00
G01 X22.0783 Y41.2158 F50.00
G01 X22.0825 Y41.1992 F50.00
G01 X22.0883 Y41.1830 F50.00
G01 X22.0956 Y41.1675 F50.00
G01 X22.1044 Y41.1527 F50.00
G01 X22.1147 Y41.1389 F50.00
G01 X22.1254 Y41.1271 F50.00
G01 X22.3762 Y40.8762 F50.00
G01 X22.3889 Y40.8647 F50.00
G01 X22.4027 Y40.8544 F50.00
G01 X22.4153 Y40.8468 F50.00
G01 X22.4330 Y40.8383 F50.00
G01 X22.4492 Y40.8325 F50.00
G01 X22.4635 Y40.8288 F50.00
G01 X22.4853 Y40.8256 F50.00
G01 X22.5000 Y40.8249 F50.00
G01 X29.0749 Y40.8249 F50.00
G01 X29.0749 Y40.6580 F50.00
G01 X25.8761 Y35.1174 F50.00
G01 X25.8738 Y35.1131 F50.00
G01 X25.8717 Y35.1073 F50.00
G01 X25.8697 Y35.0977 F50.00
G01 X25.8694 Y35.0904 F50.00
G01 X25.8703 Y35.0831 F50.00
G01 X25.8722 Y35.0760 F50.00
G01 X25.8751 Y35.0692 F50.00
G01 X25.8790 Y35.0630 F50.00
G01 X25.8837 Y35.0574 F50.00
G01 X25.8883 Y35.0533 F50.00
G01 X25.8944 Y35.0491 F50.00
G01 X28.3658 Y33.6224 F50.00
G01 X28.3750 Y33.6190 F50.00
G01 X28.3847 Y33.6175 F50.00
G01 X28.3945 Y33.6179 F50.00
G01 X28.4029 Y33.6198 F50.00
G01 X28.4108 Y33.6231 F50.00
G01 X28.4190 Y33.6285 F50.00
G01 X28.4252 Y33.6345 F50.00
G01 X28.4309 Y33.6424 F50.00
G01 X31.7309 Y39.3582 F50.00
G01 X31.7336 Y39.3637 F50.00
G01 X31.7356 Y39.3695 F50.00
G01 X31.7373 Y39.3779 F50.00
G01 X31.7375 Y39.3852 F50.00
G01 X31.7364 Y39.3938 F50.00
G01 X31.7344 Y39.4008 F50.00
G01 X31.7307 Y39.4086 F50.00
G01 X31.7257 Y39.4155 F50.00
G01 X31.7196 Y39.4216 F50.00
G01 X31.7136 Y39.4259 F50.00
G01 X29.4251 Y40.7472 F50.00
G01 X29.4251 Y40.8161 F50.00
G01 X30.4335 Y40.7666 F50.00
G01 X31.6057 Y40.5927 F50.00
G01 X32.7551 Y40.3048 F50.00
G01 X33.8708 Y39.9056 F50.00
G01 X34.9420 Y39.3990 F50.00
G01 X35.9584 Y38.7898 F50.00
G01 X36.9101 Y38.0839 F50.00
G01 X37.7881 Y37.2881 F50.00
G01 X38.5839 Y36.4101 F50.00
G01 X39.2898 Y35.4584 F50.00
G01 X39.8990 Y34.4420 F50.00
G01 X40.4056 Y33.3708 F50.00
G01 X40.8048 Y32.2551 F50.00
G01 X41.0927 Y31.1057 F50.00
G01 X41.2666 Y29.9335 F50.00
G01 X41.3249 Y28.7457 F50.00
G01 X41.3249 Y22.5043 F50.00
G01 X41.2582 Y21.1449 F50.00
G01 X41.0591 Y19.8029 F50.00
G01 X40.7294 Y18.4869 F50.00
G01 X40.2724 Y17.2095 F50.00
G01 X39.6923 Y15.9831 F50.00
G01 X38.9948 Y14.8194 F50.00
G01 X38.1867 Y13.7297 F50.00
G01 X37.2756 Y12.7244 F50.00
G01 X36.2703 Y11.8133 F50.00
G01 X35.1806 Y11.0052 F50.00
G01 X34.0169 Y10.3077 F50.00
G01 X32.7905 Y9.7276 F50.00
G01 X31.5131 Y9.2706 F50.00
G01 X30.1971 Y8.9409 F50.00
G01 X28.8551 Y8.7418 F50.00
G01 X27.4997 Y8.6753 F50.00
G01 X27.3732 Y8.6811 F50.00
G01 X27.2474 Y8.6987 F50.00
G01 X27.1238 Y8.7277 F50.00
G01 X27.0034 Y8.7681 F50.00
G01 X26.8872 Y8.8194 F50.00
G01 X26.7763 Y8.8812 F50.00
G01 X26.6715 Y8.9529 F50.00
G01 X26.5738 Y9.0340 F50.00
G01 X26.4840 Y9.1238 F50.00
G01 X26.4029 Y9.2215 F50.00
G01 X26.3312 Y9.3263 F50.00
G01 X26.2694 Y9.4372 F50.00
G01 X26.2181 Y9.5534 F50.00
G01 X26.1777 Y9.6738 F50.00
G01 X26.1487 Y9.7974 F50.00
G01 X26.1311 Y9.9232 F50.00
G01 X26.1263 Y10.0269 F50.00
G01 X26.1390 Y10.0288 F50.00
G01 X26.1581 Y10.0336 F50.00
G01 X26.1765 Y10.0402 F50.00
G01 X26.1932 Y10.0481 F50.00
G01 X26.2111 Y10.0587 F50.00
G01 X26.2249 Y10.0689 F50.00
G01 X26.2423 Y10.0845 F50.00
G01 X26.2546 Y10.0981 F50.00
G01 X26.2663 Y10.1139 F50.00
G01 X26.2764 Y10.1307 F50.00
G01 X26.2838 Y10.1462 F50.00
G01 X26.2920 Y10.1693 F50.00
G01 X26.2962 Y10.1860 F50.00
G01 X26.2991 Y10.2066 F50.00
G01 X26.3000 Y10.2250 F50.00
G01 X26.3000 Y11.4012 F50.00
G01 X26.2990 Y11.4196 F50.00
G01 X26.2956 Y11.4414 F50.00
G01 X26.2906 Y11.4604 F50.00
G01 X26.2848 Y11.4765 F50.00
G01 X26.2775 Y11.4921 F50.00
G01 X26.2663 Y11.5111 F50.00
G01 X26.2546 Y11.5269 F50.00
G01 X26.2414 Y11.5414 F50.00
G01 X26.2249 Y11.5561 F50.00
G01 X26.2090 Y11.5676 F50.00
G01 X26.1943 Y11.5764 F50.00
G01 X26.1788 Y11.5838 F50.00
G01 X26.1581 Y11.5914 F50.00
G01 X26.1402 Y11.5959 F50.00
G01 X26.1196 Y11.5990 F50.00
G01 X26.1000 Y11.6000 F50.00
G01 X25.7988 Y11.6000 F50.00
G01 X25.7804 Y11.5990 F50.00
G01 X25.7634 Y11.5966 F50.00
G01 X25.7419 Y11.5914 F50.00
G01 X25.7235 Y11.5848 F50.00
G01 X25.7079 Y11.5775 F50.00
G01 X25.6889 Y11.5663 F50.00
G01 X25.6731 Y11.5546 F50.00
G01 X25.6604 Y11.5431 F50.00
G01 X25.6454 Y11.5269 F50.00
G01 X25.6337 Y11.5111 F50.00
G01 X25.6248 Y11.4964 F50.00
G01 X25.6148 Y11.4754 F50.00
G01 X25.6086 Y11.4581 F50.00
G01 X25.6038 Y11.4390 F50.00
G01 X25.6010 Y11.4196 F50.00
G01 X25.6000 Y11.4000 F50.00
G01 X25.6000 Y10.2250 F50.00
G01 X25.6013 Y10.2030 F50.00
G01 X25.6038 Y10.1860 F50.00
G01 X25.6086 Y10.1669 F50.00
G01 X25.6152 Y10.1485 F50.00
G01 X25.6225 Y10.1329 F50.00
G01 X25.6351 Y10.1119 F50.00
G01 X25.6454 Y10.0981 F50.00
G01 X25.6586 Y10.0836 F50.00
G01 X25.6731 Y10.0704 F50.00
G01 X25.6869 Y10.0601 F50.00
G01 X25.7079 Y10.0475 F50.00
G01 X25.7235 Y10.0402 F50.00
G01 X25.7419 Y10.0336 F50.00
G01 X25.7610 Y10.0288 F50.00
G01 X25.7758 Y10.0266 F50.00
G01 X25.7817 Y9.8989 F50.00
G01 X25.7830 Y9.8851 F50.00
G01 X25.8030 Y9.7410 F50.00
G01 X25.8055 Y9.7274 F50.00
G01 X25.8388 Y9.5857 F50.00
G01 X25.8425 Y9.5724 F50.00
G01 X25.8887 Y9.4344 F50.00
G01 X25.8941 Y9.4204 F50.00
G01 X25.9524 Y9.2884 F50.00
G01 X25.9585 Y9.2760 F50.00
G01 X26.0292 Y9.1488 F50.00
G01 X26.0377 Y9.1351 F50.00
G01 X26.1200 Y9.0151 F50.00
G01 X26.1284 Y9.0041 F50.00
G01 X26.2199 Y8.8939 F50.00
G01 X26.2307 Y8.8820 F50.00
G01 X26.3320 Y8.7807 F50.00
G01 X26.3439 Y8.7699 F50.00
G01 X26.4559 Y8.6770 F50.00
G01 X26.4670 Y8.6686 F50.00
G01 X26.5870 Y8.5865 F50.00
G01 X26.5988 Y8.5792 F50.00
G01 X26.7260 Y8.5085 F50.00
G01 X26.7384 Y8.5024 F50.00
G01 X26.8704 Y8.4441 F50.00
G01 X26.8844 Y8.4387 F50.00
G01 X27.0224 Y8.3925 F50.00
G01 X27.0357 Y8.3888 F50.00
G01 X27.1774 Y8.3555 F50.00
G01 X27.1910 Y8.3530 F50.00
G01 X27.3351 Y8.3330 F50.00
G01 X27.3489 Y8.3317 F50.00
G01 X27.4931 Y8.3251 F50.00
G01 X27.5086 Y8.3251 F50.00
G01 X28.8808 Y8.3926 F50.00
G01 X28.8955 Y8.3939 F50.00
G01 X30.2594 Y8.5963 F50.00
G01 X30.2738 Y8.5992 F50.00
G01 X31.6089 Y8.9337 F50.00
G01 X31.6230 Y8.9380 F50.00
G01 X32.9165 Y9.4009 F50.00
G01 X32.9302 Y9.4064 F50.00
G01 X34.1744 Y9.9948 F50.00
G01 X34.1896 Y10.0029 F50.00
G01 X35.3701 Y10.7106 F50.00
G01 X35.3823 Y10.7188 F50.00
G01 X36.4858 Y11.5372 F50.00
G01 X36.4991 Y11.5481 F50.00
G01 X37.5171 Y12.4708 F50.00
G01 X37.5292 Y12.4829 F50.00
G01 X38.4535 Y13.5028 F50.00
G01 X38.4628 Y13.5142 F50.00
G01 X39.2826 Y14.6197 F50.00
G01 X39.2907 Y14.6320 F50.00
G01 X39.9983 Y15.8126 F50.00
G01 X40.0052 Y15.8256 F50.00
G01 X40.5926 Y17.0676 F50.00
G01 X40.5983 Y17.0812 F50.00
G01 X41.0628 Y18.3794 F50.00
G01 X41.0670 Y18.3935 F50.00
G01 X41.4013 Y19.7286 F50.00
G01 X41.4042 Y19.7430 F50.00
G01 X41.6061 Y21.1045 F50.00
G01 X41.6074 Y21.1192 F50.00
G01 X41.6749 Y22.4926 F50.00
G01 X41.6751 Y28.7500 F50.00
G01 X41.6159 Y29.9593 F50.00
G01 X41.6142 Y29.9764 F50.00
G01 X41.4374 Y31.1680 F50.00
G01 X41.4344 Y31.1824 F50.00
G01 X41.1417 Y32.3509 F50.00
G01 X41.1373 Y32.3650 F50.00
G01 X40.7315 Y33.4991 F50.00
G01 X40.7258 Y33.5127 F50.00
G01 X40.2107 Y34.6017 F50.00
G01 X40.2037 Y34.6146 F50.00
G01 X39.5843 Y35.6478 F50.00
G01 X39.5761 Y35.6600 F50.00
G01 X38.8600 Y36.6256 F50.00
G01 X38.8507 Y36.6370 F50.00
G01 X38.0418 Y37.5296 F50.00
G01 X38.0314 Y37.5401 F50.00
G01 X37.1389 Y38.3491 F50.00
G01 X37.1275 Y38.3585 F50.00
G01 X36.1600 Y39.0761 F50.00
G01 X36.1478 Y39.0843 F50.00
G01 X35.1146 Y39.7037 F50.00
G01 X35.0995 Y39.7118 F50.00
G01 X34.0127 Y40.2258 F50.00
G01 X33.9991 Y40.2315 F50.00
G01 X32.8650 Y40.6373 F50.00
G01 X32.8509 Y40.6417 F50.00
G01 X31.6800 Y40.9350 F50.00
G01 X31.6655 Y40.9378 F50.00
G01 X30.4752 Y41.1143 F50.00
G01 X30.4593 Y41.1159 F50.00
G01 X29.2500 Y41.1751 F50.00
G01 X22.5725 Y41.1751 F50.00
G01 X22.4251 Y41.3225 F50.00
G01 X22.4251 Y41.6775 F50.00
G01 X22.6225 Y41.8749 F50.00
G01 X22.9017 Y41.8749 F50.00
G01 X22.9038 Y41.8610 F50.00
G01 X22.9086 Y41.8419 F50.00
G01 X22.9152 Y41.8235 F50.00
G01 X22.9231 Y41.8068 F50.00
G01 X22.9337 Y41.7889 F50.00
G01 X22.9439 Y41.7751 F50.00
G01 X22.9595 Y41.7577 F50.00
G01 X22.9731 Y41.7454 F50.00
G01 X22.9889 Y41.7337 F50.00
G01 X23.0057 Y41.7236 F50.00
G01 X23.0212 Y41.7162 F50.00
G01 X23.0443 Y41.7080 F50.00
G01 X23.0610 Y41.7038 F50.00
G01 X23.0804 Y41.7010 F50.00
G01 X23.1000 Y41.7000 F50.00
G01 X24.2762 Y41.7000 F50.00
G01 X24.2946 Y41.7010 F50.00
G01 X24.3164 Y41.7044 F50.00
G01 X24.3354 Y41.7094 F50.00
G01 X24.3515 Y41.7152 F50.00
G01 X24.3671 Y41.7225 F50.00
G01 X24.3861 Y41.7337 F50.00
G01 X24.4037 Y41.7470 F50.00
G01 X24.4164 Y41.7586 F50.00
G01 X24.4280 Y41.7713 F50.00
G01 X24.4406 Y41.7879 F50.00
G01 X24.4514 Y41.8057 F50.00
G01 X24.4602 Y41.8246 F50.00
G01 X24.4670 Y41.8443 F50.00
G01 X24.4712 Y41.8610 F50.00
G01 X24.4733 Y41.8749 F50.00
G01 X24.5512 Y41.8750 F50.00
G01 X24.5672 Y41.8758 F50.00
G01 X24.5865 Y41.8788 F50.00
G01 X24.6008 Y41.8825 F50.00
G01 X24.6147 Y41.8874 F50.00
G01 X24.6325 Y41.8956 F50.00
G01 X24.6493 Y41.9059 F50.00
G01 X24.6611 Y41.9147 F50.00
G01 X24.6720 Y41.9245 F50.00
G01 X25.5725 Y42.8249 F50.00
G01 X27.4017 Y42.8249 F50.00
G01 X27.4038 Y42.8110 F50.00
G01 X27.4086 Y42.7919 F50.00
G01 X27.4152 Y42.7735 F50.00
G01 X27.4231 Y42.7568 F50.00
G01 X27.4351 Y42.7369 F50.00
G01 X27.4454 Y42.7231 F50.00
G01 X27.4586 Y42.7086 F50.00
G01 X27.4731 Y42.6954 F50.00
G01 X27.4869 Y42.6851 F50.00
G01 X27.5079 Y42.6725 F50.00
G01 X27.5235 Y42.6652 F50.00
G01 X27.5419 Y42.6586 F50.00
G01 X27.5610 Y42.6538 F50.00
G01 X27.5792 Y42.6511 F50.00
G01 X27.6000 Y42.6500 F50.00
G01 X28.7750 Y42.6500 F50.00
G01 X28.7970 Y42.6513 F50.00
G01 X28.8140 Y42.6538 F50.00
G01 X28.8331 Y42.6586 F50.00
G01 X28.8515 Y42.6652 F50.00
G01 X28.8671 Y42.6725 F50.00
G01 X28.8861 Y42.6837 F50.00
G01 X28.9019 Y42.6954 F50.00
G01 X28.9146 Y42.7069 F50.00
G01 X28.9311 Y42.7251 F50.00
G01 X28.9413 Y42.7389 F50.00
G01 X28.9514 Y42.7557 F50.00
G01 X28.9598 Y42.7735 F50.00
G01 X28.9656 Y42.7896 F50.00
G01 X28.9716 Y42.8134 F50.00
G01 X28.9740 Y42.8304 F50.00
G01 X28.9750 Y42.8488 F50.00
G01 X28.9750 Y43.1512 F50.00
G01 X28.9740 Y43.1696 F50.00
G01 X28.9706 Y43.1914 F50.00
G01 X28.9656 Y43.2104 F50.00
G01 X28.9598 Y43.2265 F50.00
G01 X28.9525 Y43.2421 F50.00
G01 X28.9413 Y43.2611 F50.00
G01 X28.9296 Y43.2769 F50.00
G01 X28.9164 Y43.2914 F50.00
G01 X28.8999 Y43.3061 F50.00
G01 X28.8840 Y43.3176 F50.00
G01 X28.8693 Y43.3264 F50.00
G01 X28.8538 Y43.3338 F50.00
G01 X28.8331 Y43.3414 F50.00
G01 X28.8140 Y43.3462 F50.00
G01 X28.7946 Y43.3490 F50.00
G01 X28.7750 Y43.3500 F50.00
G01 X27.6000 Y43.3500 F50.00
G01 X27.5804 Y43.3490 F50.00
G01 X27.5610 Y43.3462 F50.00
G01 X27.5443 Y43.3420 F50.00
G01 X27.5212 Y43.3338 F50.00
G01 X27.5057 Y43.3264 F50.00
G01 X27.4889 Y43.3163 F50.00
G01 X27.4731 Y43.3046 F50.00
G01 X27.4595 Y43.2923 F50.00
G01 X27.4454 Y43.2769 F50.00
G01 X27.4351 Y43.2631 F50.00
G01 X27.4231 Y43.2432 F50.00
G01 X27.4152 Y43.2265 F50.00
G01 X27.4086 Y43.2081 F50.00
G01 X27.4038 Y43.1890 F50.00
G01 X27.4017 Y43.1751 F50.00
G01 X25.5000 Y43.1751 F50.00
G01 X25.4804 Y43.1739 F50.00
G01 X25.4658 Y43.1717 F50.00
G01 X25.4492 Y43.1675 F50.00
G01 X25.4330 Y43.1617 F50.00
G01 X25.4153 Y43.1532 F50.00
G01 X25.4027 Y43.1456 F50.00
G01 X25.3909 Y43.1368 F50.00
G01 X25.3771 Y43.1246 F50.00
G01 X24.4775 Y42.2251 F50.00
G01 X24.4733 Y42.2251 F50.00
G01 X24.4712 Y42.2390 F50.00
G01 X24.4664 Y42.2581 F50.00
G01 X24.4598 Y42.2765 F50.00
G01 X24.4514 Y42.2943 F50.00
G01 X24.4413 Y42.3111 F50.00
G01 X24.4311 Y42.3249 F50.00
G01 X24.4155 Y42.3423 F50.00
G01 X24.4019 Y42.3546 F50.00
G01 X24.3881 Y42.3649 F50.00
G01 X24.3671 Y42.3775 F50.00
G01 X24.3515 Y42.3848 F50.00
G01 X24.3331 Y42.3914 F50.00
G01 X24.3140 Y42.3962 F50.00
G01 X24.2958 Y42.3989 F50.00
G01 X24.2750 Y42.4000 F50.00
G01 X23.1000 Y42.4000 F50.00
G01 X23.0804 Y42.3990 F50.00
G01 X23.0610 Y42.3962 F50.00
G01 X23.0419 Y42.3914 F50.00
G01 X23.0258 Y42.3857 F50.00
G01 X23.0036 Y42.3752 F50.00
G01 X22.9889 Y42.3663 F50.00
G01 X22.9722 Y42.3538 F50.00
G01 X22.9586 Y42.3414 F50.00
G01 X22.9454 Y42.3269 F50.00
G01 X22.9337 Y42.3111 F50.00
G01 X22.9236 Y42.2943 F50.00
G01 X22.9152 Y42.2765 F50.00
G01 X22.9086 Y42.2581 F50.00
G01 X22.9038 Y42.2390 F50.00
G01 X22.9017 Y42.2251 F50.00
G01 X22.5475 Y42.2250 F50.00
G01 X22.5304 Y42.2239 F50.00
G01 X22.5158 Y42.2217 F50.00
G01 X22.5015 Y42.2182 F50.00
G01 X22.4830 Y42.2117 F50.00
G01 X22.4664 Y42.2038 F50.00
G01 X22.4527 Y42.1956 F50.00
G01 X22.4409 Y42.1868 F50.00
G01 X22.4271 Y42.1746 F50.00
G01 X22.1262 Y41.8738 F50.00
G01 X22.1147 Y41.8611 F50.00
G01 X22.1044 Y41.8473 F50.00
G01 X22.0956 Y41.8325 F50.00
G01 X22.0883 Y41.8170 F50.00
G01 X22.0825 Y41.8008 F50.00
G01 X22.0783 Y41.7842 F50.00
G01 X22.0758 Y41.7672 F50.00
G01 X22.0750 Y41.7512 F50.00
G01 X22.0750 Y41.2475 F50.00
G00 Z2.0000
G00 X21.9851 Y41.2431
G01 F50.00
G01 Z-0.1500
G01 F50.00
G01 X21.9862 Y41.2240 F50.00
G01 X21.9900 Y41.1983 F50.00
G01 X21.9964 Y41.1731 F50.00
G01 X22.0051 Y41.1486 F50.00
G01 X22.0162 Y41.1251 F50.00
G01 X22.0296 Y41.1027 F50.00
G01 X22.0451 Y41.0818 F50.00
G01 X22.0602 Y41.0650 F50.00
G01 X22.3126 Y40.8126 F50.00
G01 X22.3266 Y40.7996 F50.00
G01 X22.3345 Y40.7930 F50.00
G01 X22.3527 Y40.7796 F50.00
G01 X22.3720 Y40.7679 F50.00
G01 X22.3923 Y40.7579 F50.00
G01 X22.4018 Y40.7538 F50.00
G01 X22.4231 Y40.7464 F50.00
G01 X22.4449 Y40.7407 F50.00
G01 X22.4551 Y40.7389 F50.00
G01 X22.4774 Y40.7359 F50.00
G01 X22.5000 Y40.7349 F50.00
G01 X28.9849 Y40.7349 F50.00
G01 X28.9849 Y40.6821 F50.00
G01 X25.7981 Y35.1624 F50.00
G01 X25.7933 Y35.1533 F50.00
G01 X25.7905 Y35.1471 F50.00
G01 X25.7858 Y35.1342 F50.00
G01 X25.7823 Y35.1209 F50.00
G01 X25.7806 Y35.1107 F50.00
G01 X25.7799 Y35.1039 F50.00
G01 X25.7795 Y35.0970 F50.00
G01 X25.7795 Y35.0867 F50.00
G01 X25.7803 Y35.0764 F50.00
G01 X25.7819 Y35.0662 F50.00
G01 X25.7842 Y35.0562 F50.00
G01 X25.7872 Y35.0463 F50.00
G01 X25.7896 Y35.0399 F50.00
G01 X25.7938 Y35.0305 F50.00
G01 X25.7987 Y35.0214 F50.00
G01 X25.8043 Y35.0128 F50.00
G01 X25.8104 Y35.0045 F50.00
G01 X25.8149 Y34.9993 F50.00
G01 X25.8220 Y34.9918 F50.00
G01 X25.8297 Y34.9849 F50.00
G01 X25.8378 Y34.9786 F50.00
G01 X25.8464 Y34.9729 F50.00
G01 X28.3176 Y33.5462 F50.00
G01 X28.3267 Y33.5414 F50.00
G01 X28.3361 Y33.5372 F50.00
G01 X28.3491 Y33.5328 F50.00
G01 X28.3625 Y33.5297 F50.00
G01 X28.3761 Y33.5279 F50.00
G01 X28.3899 Y33.5275 F50.00
G01 X28.4001 Y33.5280 F50.00
G01 X28.4138 Y33.5299 F50.00
G01 X28.4271 Y33.5331 F50.00
G01 X28.4401 Y33.5377 F50.00
G01 X28.4525 Y33.5434 F50.00
G01 X28.4644 Y33.5504 F50.00
G01 X28.4728 Y33.5564 F50.00
G01 X28.4833 Y33.5653 F50.00
G01 X28.4928 Y33.5751 F50.00
G01 X28.4993 Y33.5831 F50.00
G01 X28.5071 Y33.5945 F50.00
G01 X31.8088 Y39.3132 F50.00
G01 X31.8136 Y39.3223 F50.00
G01 X31.8165 Y39.3286 F50.00
G01 X31.8190 Y39.3350 F50.00
G01 X31.8222 Y39.3448 F50.00
G01 X31.8246 Y39.3548 F50.00
G01 X31.8268 Y39.3683 F50.00
G01 X31.8275 Y39.3786 F50.00
G01 X31.8274 Y39.3889 F50.00
G01 X31.8266 Y39.3992 F50.00
G01 X31.8251 Y39.4094 F50.00
G01 X31.8228 Y39.4194 F50.00
G01 X31.8186 Y39.4325 F50.00
G01 X31.8146 Y39.4420 F50.00
G01 X31.8099 Y39.4512 F50.00
G01 X31.8027 Y39.4629 F50.00
G01 X31.7965 Y39.4711 F50.00
G01 X31.7897 Y39.4789 F50.00
G01 X31.7824 Y39.4862 F50.00
G01 X31.7719 Y39.4950 F50.00
G01 X31.7634 Y39.5009 F50.00
G01 X29.6619 Y40.7144 F50.00
G01 X30.4247 Y40.6769 F50.00
G01 X31.5881 Y40.5043 F50.00
G01 X32.7290 Y40.2186 F50.00
G01 X33.8363 Y39.8223 F50.00
G01 X34.8995 Y39.3195 F50.00
G01 X35.9083 Y38.7148 F50.00
G01 X36.8530 Y38.0142 F50.00
G01 X37.7244 Y37.2244 F50.00
G01 X38.5142 Y36.3530 F50.00
G01 X39.2148 Y35.4083 F50.00
G01 X39.8195 Y34.3995 F50.00
G01 X40.3223 Y33.3363 F50.00
G01 X40.7186 Y32.2290 F50.00
G01 X41.0043 Y31.0881 F50.00
G01 X41.1769 Y29.9247 F50.00
G01 X41.2349 Y28.7435 F50.00
G01 X41.2349 Y22.5065 F50.00
G01 X41.1685 Y21.1538 F50.00
G01 X40.9707 Y19.8205 F50.00
G01 X40.6432 Y18.5131 F50.00
G01 X40.1891 Y17.2440 F50.00
G01 X39.6129 Y16.0255 F50.00
G01 X38.9199 Y14.8695 F50.00
G01 X38.1170 Y13.7869 F50.00
G01 X37.2118 Y12.7882 F50.00
G01 X36.2131 Y11.8830 F50.00
G01 X35.1305 Y11.0801 F50.00
G01 X33.9745 Y10.3871 F50.00
G01 X32.7560 Y9.8109 F50.00
G01 X31.4869 Y9.3568 F50.00
G01 X30.1795 Y9.0293 F50.00
G01 X28.8462 Y8.8315 F50.00
G01 X27.4996 Y8.7654 F50.00
G01 X27.3815 Y8.7708 F50.00
G01 X27.2639 Y8.7872 F50.00
G01 X27.1484 Y8.8144 F50.00
G01 X27.0359 Y8.8521 F50.00
G01 X26.9274 Y8.9000 F50.00
G01 X26.8237 Y8.9578 F50.00
G01 X26.7258 Y9.0248 F50.00
G01 X26.6345 Y9.1006 F50.00
G01 X26.5506 Y9.1845 F50.00
G01 X26.4748 Y9.2758 F50.00
G01 X26.4078 Y9.3737 F50.00
G01 X26.3500 Y9.4774 F50.00
G01 X26.3021 Y9.5859 F50.00
G01 X26.2644 Y9.6984 F50.00
G01 X26.2372 Y9.8139 F50.00
G01 X26.2208 Y9.9315 F50.00
G01 X26.2195 Y9.9609 F50.00
G01 X26.2367 Y9.9692 F50.00
G01 X26.2582 Y9.9820 F50.00
G01 X26.2786 Y9.9966 F50.00
G01 X26.2866 Y10.0030 F50.00
G01 X26.3051 Y10.0199 F50.00
G01 X26.3197 Y10.0358 F50.00
G01 X26.3263 Y10.0437 F50.00
G01 X26.3411 Y10.0639 F50.00
G01 X26.3558 Y10.0883 F50.00
G01 X26.3651 Y10.1077 F50.00
G01 X26.3692 Y10.1172 F50.00
G01 X26.3775 Y10.1408 F50.00
G01 X26.3837 Y10.1651 F50.00
G01 X26.3856 Y10.1752 F50.00
G01 X26.3886 Y10.1966 F50.00
G01 X26.3898 Y10.2181 F50.00
G01 X26.3900 Y11.4034 F50.00
G01 X26.3889 Y11.4250 F50.00
G01 X26.3878 Y11.4352 F50.00
G01 X26.3844 Y11.4566 F50.00
G01 X26.3793 Y11.4776 F50.00
G01 X26.3765 Y11.4875 F50.00
G01 X26.3679 Y11.5110 F50.00
G01 X26.3588 Y11.5306 F50.00
G01 X26.3541 Y11.5397 F50.00
G01 X26.3411 Y11.5611 F50.00
G01 X26.3242 Y11.5840 F50.00
G01 X26.3051 Y11.6051 F50.00
G01 X26.2840 Y11.6242 F50.00
G01 X26.2611 Y11.6411 F50.00
G01 X26.2367 Y11.6558 F50.00
G01 X26.2110 Y11.6679 F50.00
G01 X26.1907 Y11.6754 F50.00
G01 X26.1809 Y11.6785 F50.00
G01 X26.1566 Y11.6844 F50.00
G01 X26.1352 Y11.6878 F50.00
G01 X26.1250 Y11.6889 F50.00
G01 X26.1034 Y11.6900 F50.00
G01 X25.7931 Y11.6898 F50.00
G01 X25.7716 Y11.6886 F50.00
G01 X25.7468 Y11.6851 F50.00
G01 X25.7224 Y11.6793 F50.00
G01 X25.7125 Y11.6765 F50.00
G01 X25.6890 Y11.6679 F50.00
G01 X25.6694 Y11.6588 F50.00
G01 X25.6573 Y11.6524 F50.00
G01 X25.6361 Y11.6392 F50.00
G01 X25.6160 Y11.6242 F50.00
G01 X25.5999 Y11.6098 F50.00
G01 X25.5925 Y11.6026 F50.00
G01 X25.5758 Y11.5840 F50.00
G01 X25.5589 Y11.5611 F50.00
G01 X25.5476 Y11.5427 F50.00
G01 X25.5412 Y11.5306 F50.00
G01 X25.5308 Y11.5078 F50.00
G01 X25.5225 Y11.4842 F50.00
G01 X25.5156 Y11.4566 F50.00
G01 X25.5114 Y11.4284 F50.00
G01 X25.5100 Y11.4034 F50.00
G01 X25.5100 Y10.2250 F50.00
G01 X25.5109 Y10.2034 F50.00
G01 X25.5118 Y10.1932 F50.00
G01 X25.5156 Y10.1684 F50.00
G01 X25.5207 Y10.1474 F50.00
G01 X25.5235 Y10.1375 F50.00
G01 X25.5321 Y10.1140 F50.00
G01 X25.5427 Y10.0913 F50.00
G01 X25.5476 Y10.0823 F50.00
G01 X25.5589 Y10.0639 F50.00
G01 X25.5716 Y10.0464 F50.00
G01 X25.5780 Y10.0384 F50.00
G01 X25.5949 Y10.0199 F50.00
G01 X25.6108 Y10.0053 F50.00
G01 X25.6187 Y9.9987 F50.00
G01 X25.6389 Y9.9839 F50.00
G01 X25.6573 Y9.9726 F50.00
G01 X25.6663 Y9.9677 F50.00
G01 X25.6889 Y9.9571 F50.00
G01 X25.6918 Y9.8947 F50.00
G01 X25.6937 Y9.8736 F50.00
G01 X25.7139 Y9.7286 F50.00
G01 X25.7177 Y9.7077 F50.00
G01 X25.7511 Y9.5651 F50.00
G01 X25.7559 Y9.5478 F50.00
G01 X25.8033 Y9.4058 F50.00
G01 X25.8109 Y9.3860 F50.00
G01 X25.8700 Y9.2520 F50.00
G01 X25.8779 Y9.2358 F50.00
G01 X25.9506 Y9.1050 F50.00
G01 X25.9600 Y9.0897 F50.00
G01 X26.0444 Y8.9661 F50.00
G01 X26.0551 Y8.9517 F50.00
G01 X26.1506 Y8.8364 F50.00
G01 X26.1671 Y8.8183 F50.00
G01 X26.2730 Y8.7126 F50.00
G01 X26.2864 Y8.7006 F50.00
G01 X26.3966 Y8.6092 F50.00
G01 X26.4161 Y8.5944 F50.00
G01 X26.5342 Y8.5135 F50.00
G01 X26.5550 Y8.5006 F50.00
G01 X26.6858 Y8.4279 F50.00
G01 X26.7020 Y8.4200 F50.00
G01 X26.8330 Y8.3622 F50.00
G01 X26.8558 Y8.3533 F50.00
G01 X26.9978 Y8.3059 F50.00
G01 X27.0151 Y8.3011 F50.00
G01 X27.1608 Y8.2670 F50.00
G01 X27.1786 Y8.2639 F50.00
G01 X27.3268 Y8.2433 F50.00
G01 X27.3447 Y8.2418 F50.00
G01 X27.4912 Y8.2351 F50.00
G01 X27.5130 Y8.2353 F50.00
G01 X28.8852 Y8.3027 F50.00
G01 X28.9043 Y8.3044 F50.00
G01 X30.2769 Y8.5080 F50.00
G01 X30.2957 Y8.5119 F50.00
G01 X31.6350 Y8.8475 F50.00
G01 X31.6533 Y8.8533 F50.00
G01 X32.9469 Y9.3161 F50.00
G01 X32.9646 Y9.3233 F50.00
G01 X34.2129 Y9.9135 F50.00
G01 X34.2358 Y9.9258 F50.00
G01 X35.4201 Y10.6358 F50.00
G01 X35.4359 Y10.6465 F50.00
G01 X36.5394 Y11.4650 F50.00
G01 X36.5595 Y11.4815 F50.00
G01 X37.5775 Y12.4041 F50.00
G01 X37.5959 Y12.4225 F50.00
G01 X38.5230 Y13.4457 F50.00
G01 X38.5350 Y13.4606 F50.00
G01 X39.3574 Y14.5697 F50.00
G01 X39.3679 Y14.5857 F50.00
G01 X40.0776 Y15.7702 F50.00
G01 X40.0865 Y15.7871 F50.00
G01 X40.6739 Y17.0291 F50.00
G01 X40.6814 Y17.0467 F50.00
G01 X41.1489 Y18.3532 F50.00
G01 X41.1543 Y18.3716 F50.00
G01 X41.4896 Y19.7110 F50.00
G01 X41.4932 Y19.7298 F50.00
G01 X41.6956 Y21.0957 F50.00
G01 X41.6973 Y21.1148 F50.00
G01 X41.7649 Y22.4904 F50.00
G01 X41.7651 Y28.7500 F50.00
G01 X41.7647 Y28.7630 F50.00
G01 X41.7058 Y29.9637 F50.00
G01 X41.7032 Y29.9896 F50.00
G01 X41.5256 Y31.1855 F50.00
G01 X41.5217 Y31.2043 F50.00
G01 X41.2278 Y32.3770 F50.00
G01 X41.2221 Y32.3953 F50.00
G01 X40.8146 Y33.5336 F50.00
G01 X40.8071 Y33.5512 F50.00
G01 X40.2901 Y34.6441 F50.00
G01 X40.2809 Y34.6609 F50.00
G01 X39.6592 Y35.6978 F50.00
G01 X39.6484 Y35.7136 F50.00
G01 X38.9323 Y36.6792 F50.00
G01 X38.9203 Y36.6941 F50.00
G01 X38.1085 Y37.5901 F50.00
G01 X38.0950 Y37.6037 F50.00
G01 X37.1993 Y38.4158 F50.00
G01 X37.1846 Y38.4281 F50.00
G01 X36.2136 Y39.1484 F50.00
G01 X36.1978 Y39.1592 F50.00
G01 X35.1609 Y39.7809 F50.00
G01 X35.1379 Y39.7931 F50.00
G01 X34.0512 Y40.3071 F50.00
G01 X34.0336 Y40.3146 F50.00
G01 X32.8953 Y40.7221 F50.00
G01 X32.8770 Y40.7278 F50.00
G01 X31.6976 Y41.0232 F50.00
G01 X31.6787 Y41.0268 F50.00
G01 X30.4862 Y41.2037 F50.00
G01 X30.4637 Y41.2058 F50.00
G01 X29.2630 Y41.2647 F50.00
G01 X29.2500 Y41.2651 F50.00
G01 X22.6098 Y41.2651 F50.00
G01 X22.5151 Y41.3598 F50.00
G01 X22.5151 Y41.6402 F50.00
G01 X22.6598 Y41.7849 F50.00
G01 X22.8339 Y41.7849 F50.00
G01 X22.8442 Y41.7633 F50.00
G01 X22.8552 Y41.7447 F50.00
G01 X22.8608 Y41.7361 F50.00
G01 X22.8758 Y41.7160 F50.00
G01 X22.8925 Y41.6974 F50.00
G01 X22.8999 Y41.6902 F50.00
G01 X22.9160 Y41.6758 F50.00
G01 X22.9333 Y41.6628 F50.00
G01 X22.9418 Y41.6570 F50.00
G01 X22.9633 Y41.6442 F50.00
G01 X22.9827 Y41.6349 F50.00
G01 X22.9922 Y41.6308 F50.00
G01 X23.0158 Y41.6225 F50.00
G01 X23.0367 Y41.6171 F50.00
G01 X23.0468 Y41.6149 F50.00
G01 X23.0716 Y41.6114 F50.00
G01 X23.1000 Y41.6100 F50.00
G01 X24.2784 Y41.6100 F50.00
G01 X24.3034 Y41.6114 F50.00
G01 X24.3316 Y41.6156 F50.00
G01 X24.3592 Y41.6225 F50.00
G01 X24.3796 Y41.6296 F50.00
G01 X24.3891 Y41.6334 F50.00
G01 X24.4117 Y41.6442 F50.00
G01 X24.4361 Y41.6589 F50.00
G01 X24.4590 Y41.6758 F50.00
G01 X24.4801 Y41.6949 F50.00
G01 X24.4992 Y41.7160 F50.00
G01 X24.5161 Y41.7389 F50.00
G01 X24.5308 Y41.7633 F50.00
G01 X24.5411 Y41.7849 F50.00
G01 X24.5534 Y41.7850 F50.00
G01 X24.5691 Y41.7857 F50.00
G01 X24.5828 Y41.7871 F50.00
G01 X24.6051 Y41.7907 F50.00
G01 X24.6236 Y41.7954 F50.00
G01 X24.6335 Y41.7985 F50.00
G01 X24.6546 Y41.8065 F50.00
G01 X24.6780 Y41.8179 F50.00
G01 X24.7001 Y41.8316 F50.00
G01 X24.7155 Y41.8430 F50.00
G01 X24.7234 Y41.8496 F50.00
G01 X24.7374 Y41.8626 F50.00
G01 X25.6098 Y42.7349 F50.00
G01 X27.3339 Y42.7349 F50.00
G01 X27.3442 Y42.7133 F50.00
G01 X27.3552 Y42.6947 F50.00
G01 X27.3608 Y42.6861 F50.00
G01 X27.3758 Y42.6660 F50.00
G01 X27.3925 Y42.6474 F50.00
G01 X27.3999 Y42.6402 F50.00
G01 X27.4160 Y42.6258 F50.00
G01 X27.4333 Y42.6128 F50.00
G01 X27.4418 Y42.6070 F50.00
G01 X27.4633 Y42.5942 F50.00
G01 X27.4827 Y42.5849 F50.00
G01 X27.4922 Y42.5808 F50.00
G01 X27.5158 Y42.5725 F50.00
G01 X27.5367 Y42.5671 F50.00
G01 X27.5468 Y42.5649 F50.00
G01 X27.5716 Y42.5614 F50.00
G01 X27.6000 Y42.5600 F50.00
G01 X28.7750 Y42.5600 F50.00
G01 X28.8034 Y42.5614 F50.00
G01 X28.8248 Y42.5644 F50.00
G01 X28.8383 Y42.5671 F50.00
G01 X28.8625 Y42.5735 F50.00
G01 X28.8860 Y42.5821 F50.00
G01 X28.9087 Y42.5927 F50.00
G01 X28.9303 Y42.6052 F50.00
G01 X28.9417 Y42.6128 F50.00
G01 X28.9590 Y42.6258 F50.00
G01 X28.9801 Y42.6449 F50.00
G01 X28.9992 Y42.6660 F50.00
G01 X29.0122 Y42.6833 F50.00
G01 X29.0198 Y42.6947 F50.00
G01 X29.0323 Y42.7163 F50.00
G01 X29.0429 Y42.7390 F50.00
G01 X29.0515 Y42.7625 F50.00
G01 X29.0579 Y42.7867 F50.00
G01 X29.0606 Y42.8002 F50.00
G01 X29.0636 Y42.8216 F50.00
G01 X29.0650 Y42.8466 F50.00
G01 X29.0650 Y43.1534 F50.00
G01 X29.0636 Y43.1784 F50.00
G01 X29.0606 Y43.1998 F50.00
G01 X29.0587 Y43.2099 F50.00
G01 X29.0525 Y43.2342 F50.00
G01 X29.0429 Y43.2610 F50.00
G01 X29.0338 Y43.2806 F50.00
G01 X29.0291 Y43.2897 F50.00
G01 X29.0198 Y43.3053 F50.00
G01 X29.0142 Y43.3139 F50.00
G01 X29.0013 Y43.3313 F50.00
G01 X28.9947 Y43.3392 F50.00
G01 X28.9825 Y43.3526 F50.00
G01 X28.9751 Y43.3598 F50.00
G01 X28.9590 Y43.3742 F50.00
G01 X28.9417 Y43.3872 F50.00
G01 X28.9332 Y43.3930 F50.00
G01 X28.9147 Y43.4041 F50.00
G01 X28.8923 Y43.4151 F50.00
G01 X28.8828 Y43.4192 F50.00
G01 X28.8625 Y43.4265 F50.00
G01 X28.8526 Y43.4293 F50.00
G01 X28.8349 Y43.4337 F50.00
G01 X28.8248 Y43.4356 F50.00
G01 X28.8034 Y43.4386 F50.00
G01 X28.7784 Y43.4400 F50.00
G01 X27.5931 Y43.4398 F50.00
G01 X27.5716 Y43.4386 F50.00
G01 X27.5502 Y43.4356 F50.00
G01 X27.5401 Y43.4337 F50.00
G01 X27.5158 Y43.4275 F50.00
G01 X27.4890 Y43.4179 F50.00
G01 X27.4694 Y43.4088 F50.00
G01 X27.4603 Y43.4041 F50.00
G01 X27.4389 Y43.3911 F50.00
G01 X27.4160 Y43.3742 F50.00
G01 X27.3999 Y43.3598 F50.00
G01 X27.3925 Y43.3526 F50.00
G01 X27.3758 Y43.3340 F50.00
G01 X27.3608 Y43.3139 F50.00
G01 X27.3552 Y43.3053 F50.00
G01 X27.3442 Y43.2867 F50.00
G01 X27.3339 Y43.2651 F50.00
G01 X25.5000 Y43.2651 F50.00
G01 X25.4774 Y43.2641 F50.00
G01 X25.4672 Y43.2629 F50.00
G01 X25.4483 Y43.2600 F50.00
G01 X25.4231 Y43.2536 F50.00
G01 X25.4050 Y43.2474 F50.00
G01 X25.3954 Y43.2435 F50.00
G01 X25.3781 Y43.2353 F50.00
G01 X25.3691 Y43.2304 F50.00
G01 X25.3527 Y43.2204 F50.00
G01 X25.3373 Y43.2091 F50.00
G01 X25.3292 Y43.2027 F50.00
G01 X25.3150 Y43.1898 F50.00
G01 X24.5035 Y42.3784 F50.00
G01 X24.4970 Y42.3866 F50.00
G01 X24.4825 Y42.4026 F50.00
G01 X24.4751 Y42.4098 F50.00
G01 X24.4616 Y42.4220 F50.00
G01 X24.4536 Y42.4284 F50.00
G01 X24.4361 Y42.4411 F50.00
G01 X24.4117 Y42.4558 F50.00
G01 X24.3860 Y42.4679 F50.00
G01 X24.3592 Y42.4775 F50.00
G01 X24.3316 Y42.4844 F50.00
G01 X24.3102 Y42.4878 F50.00
G01 X24.3000 Y42.4889 F50.00
G01 X24.2750 Y42.4900 F50.00
G01 X23.0931 Y42.4898 F50.00
G01 X23.0716 Y42.4886 F50.00
G01 X23.0502 Y42.4856 F50.00
G01 X23.0401 Y42.4837 F50.00
G01 X23.0158 Y42.4775 F50.00
G01 X22.9890 Y42.4679 F50.00
G01 X22.9694 Y42.4588 F50.00
G01 X22.9603 Y42.4541 F50.00
G01 X22.9389 Y42.4411 F50.00
G01 X22.9160 Y42.4242 F50.00
G01 X22.8999 Y42.4098 F50.00
G01 X22.8925 Y42.4026 F50.00
G01 X22.8758 Y42.3840 F50.00
G01 X22.8608 Y42.3639 F50.00
G01 X22.8552 Y42.3553 F50.00
G01 X22.8442 Y42.3367 F50.00
G01 X22.8339 Y42.3151 F50.00
G01 X22.5500 Y42.3151 F50.00
G01 X22.5274 Y42.3141 F50.00
G01 X22.5172 Y42.3129 F50.00
G01 X22.4983 Y42.3100 F50.00
G01 X22.4731 Y42.3036 F50.00
G01 X22.4550 Y42.2974 F50.00
G01 X22.4454 Y42.2935 F50.00
G01 X22.4281 Y42.2853 F50.00
G01 X22.4191 Y42.2804 F50.00
G01 X22.4027 Y42.2704 F50.00
G01 X22.3873 Y42.2591 F50.00
G01 X22.3792 Y42.2527 F50.00
G01 X22.3650 Y42.2398 F50.00
G01 X22.0602 Y41.9350 F50.00
G01 X22.0451 Y41.9182 F50.00
G01 X22.0296 Y41.8973 F50.00
G01 X22.0162 Y41.8749 F50.00
G01 X22.0051 Y41.8514 F50.00
G01 X21.9964 Y41.8269 F50.00
G01 X21.9900 Y41.8017 F50.00
G01 X21.9862 Y41.7760 F50.00
G01 X21.9850 Y41.7534 F50.00
G01 X21.9851 Y41.2431 F50.00
G00 Z2.0000
G00 X9.1919 Y26.3453
G01 F50.00
G01 Z-0.1500
G01 F50.00
G01 X15.7919 Y26.3453 F50.00
G01 X15.7980 Y26.3457 F50.00
G01 X15.8052 Y26.3471 F50.00
G01 X15.8110 Y26.3491 F50.00
G01 X15.8176 Y26.3524 F50.00
G01 X15.8227 Y26.3559 F50.00
G01 X15.8281 Y26.3608 F50.00
G01 X15.8320 Y26.3655 F50.00
G01 X15.8354 Y26.3707 F50.00
G01 X15.8381 Y26.3762 F50.00
G01 X15.8401 Y26.3820 F50.00
G01 X15.8415 Y26.3892 F50.00
G01 X15.8419 Y26.3953 F50.00
G01 X15.8419 Y29.2453 F50.00
G01 X15.8409 Y29.2551 F50.00
G01 X15.8381 Y29.2645 F50.00
G01 X15.8335 Y29.2731 F50.00
G01 X15.8272 Y29.2807 F50.00
G01 X15.8197 Y29.2869 F50.00
G01 X15.8110 Y29.2915 F50.00
G01 X15.8016 Y29.2944 F50.00
G01 X15.7919 Y29.2953 F50.00
G01 X12.8417 Y29.2953 F50.00
G01 X12.8901 Y29.5137 F50.00
G01 X13.0617 Y30.0580 F50.00
G01 X13.2801 Y30.5853 F50.00
G01 X13.5437 Y31.0916 F50.00
G01 X13.8504 Y31.5730 F50.00
G01 X14.1978 Y32.0258 F50.00
G01 X14.5864 Y32.4499 F50.00
G01 X15.3103 Y33.1737 F50.00
G01 X16.6720 Y30.8151 F50.00
G01 X16.6777 Y30.8071 F50.00
G01 X16.6849 Y30.8004 F50.00
G01 X16.6932 Y30.7952 F50.00
G01 X16.6989 Y30.7929 F50.00
G01 X16.7036 Y30.7915 F50.00
G01 X16.7133 Y30.7901 F50.00
G01 X16.7231 Y30.7907 F50.00
G01 X16.7314 Y30.7927 F50.00
G01 X16.7403 Y30.7968 F50.00
G01 X19.2085 Y32.2218 F50.00
G01 X19.2136 Y32.2252 F50.00
G01 X19.2183 Y32.2292 F50.00
G01 X19.2224 Y32.2337 F50.00
G01 X19.2266 Y32.2397 F50.00
G01 X19.2294 Y32.2452 F50.00
G01 X19.2318 Y32.2522 F50.00
G01 X19.2330 Y32.2582 F50.00
G01 X19.2335 Y32.2643 F50.00
G01 X19.2331 Y32.2716 F50.00
G01 X19.2319 Y32.2776 F50.00
G01 X19.2300 Y32.2835 F50.00
G01 X19.2268 Y32.2901 F50.00
G01 X15.9268 Y38.0059 F50.00
G01 X15.9234 Y38.0110 F50.00
G01 X15.9194 Y38.0156 F50.00
G01 X15.9139 Y38.0205 F50.00
G01 X15.9089 Y38.0240 F50.00
G01 X15.9034 Y38.0267 F50.00
G01 X15.8964 Y38.0292 F50.00
G01 X15.8892 Y38.0305 F50.00
G01 X15.8831 Y38.0309 F50.00
G01 X15.8770 Y38.0304 F50.00
G01 X15.8698 Y38.0289 F50.00
G01 X15.8640 Y38.0269 F50.00
G01 X15.8585 Y38.0242 F50.00
G01 X13.3903 Y36.5992 F50.00
G01 X13.3862 Y36.5965 F50.00
G01 X13.3815 Y36.5926 F50.00
G01 X13.3780 Y36.5891 F50.00
G01 X13.3742 Y36.5843 F50.00
G01 X13.3710 Y36.5791 F50.00
G01 X13.3690 Y36.5746 F50.00
G01 X13.3674 Y36.5700 F50.00
G01 X13.3660 Y36.5640 F50.00
G01 X13.3653 Y36.5555 F50.00
G01 X13.3661 Y36.5469 F50.00
G01 X13.3684 Y36.5386 F50.00
G01 X13.3720 Y36.5309 F50.00
G01 X15.1290 Y33.4877 F50.00
G01 X14.3349 Y32.6935 F50.00
G01 X13.9331 Y32.2551 F50.00
G01 X13.9247 Y32.2450 F50.00
G01 X13.5666 Y31.7783 F50.00
G01 X13.5592 Y31.7676 F50.00
G01 X13.2443 Y31.2733 F50.00
G01 X13.2366 Y31.2601 F50.00
G01 X12.9651 Y30.7383 F50.00
G01 X12.9596 Y30.7264 F50.00
G01 X12.7349 Y30.1839 F50.00
G01 X12.7301 Y30.1706 F50.00
G01 X12.5535 Y29.6106 F50.00
G01 X12.5499 Y29.5969 F50.00
G01 X12.4830 Y29.2953 F50.00
G01 X9.1919 Y29.2953 F50.00
G01 X9.1870 Y29.2951 F50.00
G01 X9.1809 Y29.2941 F50.00
G01 X9.1750 Y29.2924 F50.00
G01 X9.1705 Y29.2905 F50.00
G01 X9.1662 Y29.2882 F50.00
G01 X9.1611 Y29.2847 F50.00
G01 X9.1574 Y29.2815 F50.00
G01 X9.1532 Y29.2770 F50.00
G01 X9.1484 Y29.2700 F50.00
G01 X9.1448 Y29.2622 F50.00
G01 X9.1426 Y29.2539 F50.00
G01 X9.1419 Y29.2453 F50.00
G01 X9.1419 Y26.3941 F50.00
G01 X9.1431 Y26.3844 F50.00
G01 X9.1462 Y26.3751 F50.00
G01 X9.1510 Y26.3665 F50.00
G01 X9.1574 Y26.3591 F50.00
G01 X9.1651 Y26.3531 F50.00
G01 X9.1739 Y26.3487 F50.00
G01 X9.1821 Y26.3463 F50.00
G01 X9.1919 Y26.3453 F50.00
G00 Z2.0000
G00 X9.1919 Y26.2553
G01 F50.00
G01 Z-0.1500
G01 F50.00
G01 X15.7919 Y26.2553 F50.00
G01 X15.8022 Y26.2557 F50.00
G01 X15.8124 Y26.2568 F50.00
G01 X15.8192 Y26.2580 F50.00
G01 X15.8292 Y26.2604 F50.00
G01 X15.8391 Y26.2635 F50.00
G01 X15.8486 Y26.2673 F50.00
G01 X15.8579 Y26.2718 F50.00
G01 X15.8639 Y26.2752 F50.00
G01 X15.8697 Y26.2789 F50.00
G01 X15.8780 Y26.2849 F50.00
G01 X15.8859 Y26.2916 F50.00
G01 X15.8909 Y26.2963 F50.00
G01 X15.8979 Y26.3039 F50.00
G01 X15.9043 Y26.3119 F50.00
G01 X15.9083 Y26.3175 F50.00
G01 X15.9137 Y26.3263 F50.00
G01 X15.9184 Y26.3355 F50.00
G01 X15.9212 Y26.3417 F50.00
G01 X15.9237 Y26.3482 F50.00
G01 X15.9268 Y26.3580 F50.00
G01 X15.9292 Y26.3680 F50.00
G01 X15.9304 Y26.3748 F50.00
G01 X15.9315 Y26.3850 F50.00
G01 X15.9318 Y26.3919 F50.00
G01 X15.9319 Y29.2453 F50.00
G01 X15.9317 Y29.2522 F50.00
G01 X15.9308 Y29.2625 F50.00
G01 X15.9285 Y29.2760 F50.00
G01 X15.9248 Y29.2892 F50.00
G01 X15.9212 Y29.2989 F50.00
G01 X15.9184 Y29.3052 F50.00
G01 X15.9137 Y29.3143 F50.00
G01 X15.9083 Y29.3231 F50.00
G01 X15.9023 Y29.3315 F50.00
G01 X15.8956 Y29.3393 F50.00
G01 X15.8909 Y29.3443 F50.00
G01 X15.8833 Y29.3513 F50.00
G01 X15.8753 Y29.3578 F50.00
G01 X15.8668 Y29.3636 F50.00
G01 X15.8579 Y29.3688 F50.00
G01 X15.8517 Y29.3719 F50.00
G01 X15.8423 Y29.3759 F50.00
G01 X15.8325 Y29.3793 F50.00
G01 X15.8259 Y29.3811 F50.00
G01 X15.8158 Y29.3833 F50.00
G01 X15.8056 Y29.3846 F50.00
G01 X15.7953 Y29.3853 F50.00
G01 X12.9538 Y29.3853 F50.00
G01 X12.9771 Y29.4904 F50.00
G01 X13.1463 Y30.0272 F50.00
G01 X13.3618 Y30.5473 F50.00
G01 X13.6217 Y31.0466 F50.00
G01 X13.9241 Y31.5213 F50.00
G01 X14.2668 Y31.9679 F50.00
G01 X14.6514 Y32.3876 F50.00
G01 X15.2910 Y33.0272 F50.00
G01 X16.5958 Y30.7671 F50.00
G01 X16.6036 Y30.7558 F50.00
G01 X16.6124 Y30.7452 F50.00
G01 X16.6222 Y30.7356 F50.00
G01 X16.6329 Y30.7270 F50.00
G01 X16.6443 Y30.7194 F50.00
G01 X16.6504 Y30.7161 F50.00
G01 X16.6597 Y30.7116 F50.00
G01 X16.6725 Y30.7068 F50.00
G01 X16.6858 Y30.7032 F50.00
G01 X16.6993 Y30.7010 F50.00
G01 X16.7130 Y30.7001 F50.00
G01 X16.7233 Y30.7003 F50.00
G01 X16.7370 Y30.7018 F50.00
G01 X16.7471 Y30.7038 F50.00
G01 X16.7603 Y30.7075 F50.00
G01 X16.7731 Y30.7126 F50.00
G01 X16.7853 Y30.7188 F50.00
G01 X19.2535 Y32.1438 F50.00
G01 X19.2622 Y32.1493 F50.00
G01 X19.2705 Y32.1554 F50.00
G01 X19.2758 Y32.1598 F50.00
G01 X19.2833 Y32.1669 F50.00
G01 X19.2903 Y32.1745 F50.00
G01 X19.2966 Y32.1826 F50.00
G01 X19.3005 Y32.1883 F50.00
G01 X19.3059 Y32.1971 F50.00
G01 X19.3091 Y32.2032 F50.00
G01 X19.3133 Y32.2126 F50.00
G01 X19.3168 Y32.2223 F50.00
G01 X19.3196 Y32.2322 F50.00
G01 X19.3216 Y32.2423 F50.00
G01 X19.3226 Y32.2491 F50.00
G01 X19.3232 Y32.2559 F50.00
G01 X19.3235 Y32.2662 F50.00
G01 X19.3233 Y32.2731 F50.00
G01 X19.3223 Y32.2834 F50.00
G01 X19.3206 Y32.2935 F50.00
G01 X19.3181 Y32.3035 F50.00
G01 X19.3161 Y32.3101 F50.00
G01 X19.3124 Y32.3197 F50.00
G01 X19.3096 Y32.3260 F50.00
G01 X19.3048 Y32.3351 F50.00
G01 X16.0048 Y38.0509 F50.00
G01 X16.0012 Y38.0567 F50.00
G01 X15.9953 Y38.0652 F50.00
G01 X15.9888 Y38.0732 F50.00
G01 X15.9817 Y38.0807 F50.00
G01 X15.9741 Y38.0876 F50.00
G01 X15.9660 Y38.0940 F50.00
G01 X15.9603 Y38.0979 F50.00
G01 X15.9515 Y38.1032 F50.00
G01 X15.9423 Y38.1079 F50.00
G01 X15.9360 Y38.1106 F50.00
G01 X15.9296 Y38.1131 F50.00
G01 X15.9197 Y38.1161 F50.00
G01 X15.9097 Y38.1184 F50.00
G01 X15.9029 Y38.1195 F50.00
G01 X15.8927 Y38.1206 F50.00
G01 X15.8858 Y38.1208 F50.00
G01 X15.8755 Y38.1206 F50.00
G01 X15.8686 Y38.1201 F50.00
G01 X15.8584 Y38.1186 F50.00
G01 X15.8517 Y38.1172 F50.00
G01 X15.8418 Y38.1145 F50.00
G01 X15.8353 Y38.1123 F50.00
G01 X15.8257 Y38.1084 F50.00
G01 X15.8165 Y38.1038 F50.00
G01 X13.3453 Y36.6771 F50.00
G01 X13.3366 Y36.6716 F50.00
G01 X13.3256 Y36.6634 F50.00
G01 X13.3155 Y36.6540 F50.00
G01 X13.3086 Y36.6464 F50.00
G01 X13.3022 Y36.6383 F50.00
G01 X13.2964 Y36.6298 F50.00
G01 X13.2913 Y36.6208 F50.00
G01 X13.2856 Y36.6084 F50.00
G01 X13.2810 Y36.5954 F50.00
G01 X13.2785 Y36.5854 F50.00
G01 X13.2772 Y36.5787 F50.00
G01 X13.2763 Y36.5719 F50.00
G01 X13.2755 Y36.5616 F50.00
G01 X13.2756 Y36.5478 F50.00
G01 X13.2761 Y36.5410 F50.00
G01 X13.2776 Y36.5308 F50.00
G01 X13.2807 Y36.5174 F50.00
G01 X13.2851 Y36.5044 F50.00
G01 X13.2893 Y36.4950 F50.00
G01 X13.2924 Y36.4889 F50.00
G01 X15.0166 Y33.5025 F50.00
G01 X14.2697 Y32.7555 F50.00
G01 X13.8641 Y32.3129 F50.00
G01 X13.8533 Y32.2998 F50.00
G01 X13.4929 Y31.8299 F50.00
G01 X13.4833 Y31.8159 F50.00
G01 X13.1684 Y31.3217 F50.00
G01 X13.1568 Y31.3016 F50.00
G01 X12.8835 Y30.7763 F50.00
G01 X12.8764 Y30.7608 F50.00
G01 X12.6510 Y30.2166 F50.00
G01 X12.6442 Y30.1977 F50.00
G01 X12.4671 Y29.6358 F50.00
G01 X12.4620 Y29.6164 F50.00
G01 X12.4108 Y29.3853 F50.00
G01 X9.1885 Y29.3853 F50.00
G01 X9.1816 Y29.3849 F50.00
G01 X9.1713 Y29.3838 F50.00
G01 X9.1612 Y29.3819 F50.00
G01 X9.1512 Y29.3793 F50.00
G01 X9.1447 Y29.3771 F50.00
G01 X9.1352 Y29.3733 F50.00
G01 X9.1289 Y29.3704 F50.00
G01 X9.1199 Y29.3654 F50.00
G01 X9.1113 Y29.3598 F50.00
G01 X9.1031 Y29.3535 F50.00
G01 X9.0979 Y29.3491 F50.00
G01 X9.0905 Y29.3419 F50.00
G01 X9.0837 Y29.3341 F50.00
G01 X9.0794 Y29.3287 F50.00
G01 X9.0755 Y29.3231 F50.00
G01 X9.0701 Y29.3143 F50.00
G01 X9.0653 Y29.3052 F50.00
G01 X9.0625 Y29.2989 F50.00
G01 X9.0590 Y29.2892 F50.00
G01 X9.0561 Y29.2793 F50.00
G01 X9.0540 Y29.2693 F50.00
G01 X9.0529 Y29.2625 F50.00
G01 X9.0523 Y29.2556 F50.00
G01 X9.0519 Y29.2453 F50.00
G01 X9.0521 Y26.3884 F50.00
G01 X9.0534 Y26.3748 F50.00
G01 X9.0561 Y26.3613 F50.00
G01 X9.0601 Y26.3482 F50.00
G01 X9.0653 Y26.3355 F50.00
G01 X9.0718 Y26.3233 F50.00
G01 X9.0794 Y26.3119 F50.00
G01 X9.0882 Y26.3013 F50.00
G01 X9.0954 Y26.2939 F50.00
G01 X9.1058 Y26.2849 F50.00
G01 X9.1170 Y26.2770 F50.00
G01 X9.1289 Y26.2703 F50.00
G01 X9.1415 Y26.2647 F50.00
G01 X9.1545 Y26.2604 F50.00
G01 X9.1680 Y26.2574 F50.00
G01 X9.1816 Y26.2557 F50.00
G01 X9.1919 Y26.2553 F50.00
G00 Z2.0000
G00 X8.3251 Y22.4957
G01 F50.00
G01 Z-0.1500
G01 F50.00
G01 X8.3926 Y21.1192 F50.00
G01 X8.3939 Y21.1045 F50.00
G01 X8.5958 Y19.7430 F50.00
G01 X8.5987 Y19.7286 F50.00
G01 X8.9330 Y18.3935 F50.00
G01 X8.9372 Y18.3794 F50.00
G01 X9.4009 Y17.0835 F50.00
G01 X9.4074 Y17.0676 F50.00
G01 X9.9960 Y15.8234 F50.00
G01 X10.0029 Y15.8104 F50.00
G01 X10.7093 Y14.6320 F50.00
G01 X10.7188 Y14.6177 F50.00
G01 X11.5372 Y13.5142 F50.00
G01 X11.5481 Y13.5009 F50.00
G01 X12.4725 Y12.4812 F50.00
G01 X12.4829 Y12.4708 F50.00
G01 X13.5018 Y11.5473 F50.00
G01 X13.5142 Y11.5372 F50.00
G01 X14.6197 Y10.7174 F50.00
G01 X14.6320 Y10.7093 F50.00
G01 X15.8104 Y10.0029 F50.00
G01 X15.8234 Y9.9960 F50.00
G01 X17.0676 Y9.4074 F50.00
G01 X17.0812 Y9.4017 F50.00
G01 X18.3770 Y8.9380 F50.00
G01 X18.3935 Y8.9330 F50.00
G01 X19.7286 Y8.5987 F50.00
G01 X19.7430 Y8.5958 F50.00
G01 X21.1021 Y8.3942 F50.00
G01 X21.1192 Y8.3926 F50.00
G01 X22.4939 Y8.3251 F50.00
G01 X22.5081 Y8.3251 F50.00
G01 X22.6511 Y8.3317 F50.00
G01 X22.6649 Y8.3330 F50.00
G01 X22.8090 Y8.3530 F50.00
G01 X22.8249 Y8.3560 F50.00
G01 X22.9665 Y8.3893 F50.00
G01 X22.9798 Y8.3932 F50.00
G01 X23.1156 Y8.4387 F50.00
G01 X23.1306 Y8.4445 F50.00
G01 X23.2616 Y8.5024 F50.00
G01 X23.2761 Y8.5096 F50.00
G01 X23.4031 Y8.5804 F50.00
G01 X23.4149 Y8.5877 F50.00
G01 X23.5349 Y8.6700 F50.00
G01 X23.5459 Y8.6784 F50.00
G01 X23.6561 Y8.7699 F50.00
G01 X23.6663 Y8.7792 F50.00
G01 X23.7693 Y8.8820 F50.00
G01 X23.7794 Y8.8931 F50.00
G01 X23.8716 Y9.0041 F50.00
G01 X23.8800 Y9.0151 F50.00
G01 X23.9623 Y9.1351 F50.00
G01 X23.9696 Y9.1469 F50.00
G01 X24.0415 Y9.2760 F50.00
G01 X24.0476 Y9.2884 F50.00
G01 X24.1064 Y9.4215 F50.00
G01 X24.1113 Y9.4344 F50.00
G01 X24.1575 Y9.5724 F50.00
G01 X24.1612 Y9.5857 F50.00
G01 X24.1945 Y9.7274 F50.00
G01 X24.1970 Y9.7410 F50.00
G01 X24.2170 Y9.8851 F50.00
G01 X24.2183 Y9.8989 F50.00
G01 X24.2242 Y10.0266 F50.00
G01 X24.2390 Y10.0288 F50.00
G01 X24.2581 Y10.0336 F50.00
G01 X24.2765 Y10.0402 F50.00
G01 X24.2921 Y10.0475 F50.00
G01 X24.3131 Y10.0601 F50.00
G01 X24.3269 Y10.0704 F50.00
G01 X24.3405 Y10.0827 F50.00
G01 X24.3561 Y10.1001 F50.00
G01 X24.3663 Y10.1139 F50.00
G01 X24.3764 Y10.1307 F50.00
G01 X24.3848 Y10.1485 F50.00
G01 X24.3906 Y10.1646 F50.00
G01 X24.3964 Y10.1872 F50.00
G01 X24.3990 Y10.2054 F50.00
G01 X24.4000 Y10.2250 F50.00
G01 X24.4000 Y11.4000 F50.00
G01 X24.3991 Y11.4184 F50.00
G01 X24.3956 Y11.4414 F50.00
G01 X24.3914 Y11.4581 F50.00
G01 X24.3857 Y11.4742 F50.00
G01 X24.3764 Y11.4943 F50.00
G01 X24.3649 Y11.5131 F50.00
G01 X24.3546 Y11.5269 F50.00
G01 X24.3431 Y11.5396 F50.00
G01 X24.3269 Y11.5546 F50.00
G01 X24.3090 Y11.5676 F50.00
G01 X24.2943 Y11.5764 F50.00
G01 X24.2788 Y11.5838 F50.00
G01 X24.2581 Y11.5914 F50.00
G01 X24.2390 Y11.5962 F50.00
G01 X24.2196 Y11.5990 F50.00
G01 X24.2012 Y11.6000 F50.00
G01 X23.9000 Y11.6000 F50.00
G01 X23.8804 Y11.5990 F50.00
G01 X23.8610 Y11.5962 F50.00
G01 X23.8396 Y11.5906 F50.00
G01 X23.8235 Y11.5848 F50.00
G01 X23.8079 Y11.5775 F50.00
G01 X23.7889 Y11.5663 F50.00
G01 X23.7731 Y11.5546 F50.00
G01 X23.7569 Y11.5396 F50.00
G01 X23.7454 Y11.5269 F50.00
G01 X23.7351 Y11.5131 F50.00
G01 X23.7236 Y11.4943 F50.00
G01 X23.7148 Y11.4754 F50.00
G01 X23.7086 Y11.4581 F50.00
G01 X23.7038 Y11.4390 F50.00
G01 X23.7010 Y11.4196 F50.00
G01 X23.7000 Y11.4000 F50.00
G01 X23.7000 Y10.2250 F50.00
G01 X23.7009 Y10.2066 F50.00
G01 X23.7038 Y10.1860 F50.00
G01 X23.7080 Y10.1693 F50.00
G01 X23.7162 Y10.1462 F50.00
G01 X23.7236 Y10.1307 F50.00
G01 X23.7337 Y10.1139 F50.00
G01 X23.7454 Y10.0981 F50.00
G01 X23.7577 Y10.0845 F50.00
G01 X23.7731 Y10.0704 F50.00
G01 X23.7869 Y10.0601 F50.00
G01 X23.8068 Y10.0481 F50.00
G01 X23.8235 Y10.0402 F50.00
G01 X23.8419 Y10.0336 F50.00
G01 X23.8610 Y10.0288 F50.00
G01 X23.8737 Y10.0269 F50.00
G01 X23.8689 Y9.9232 F50.00
G01 X23.8513 Y9.7974 F50.00
G01 X23.8223 Y9.6738 F50.00
G01 X23.7819 Y9.5534 F50.00
G01 X23.7306 Y9.4372 F50.00
G01 X23.6688 Y9.3263 F50.00
G01 X23.5971 Y9.2215 F50.00
G01 X23.5160 Y9.1238 F50.00
G01 X23.4262 Y9.0340 F50.00
G01 X23.3285 Y8.9529 F50.00
G01 X23.2237 Y8.8812 F50.00
G01 X23.1128 Y8.8194 F50.00
G01 X22.9966 Y8.7681 F50.00
G01 X22.8762 Y8.7277 F50.00
G01 X22.7526 Y8.6987 F50.00
G01 X22.6268 Y8.6811 F50.00
G01 X22.5003 Y8.6753 F50.00
G01 X21.1449 Y8.7418 F50.00
G01 X19.8029 Y8.9409 F50.00
G01 X18.4869 Y9.2706 F50.00
G01 X17.2095 Y9.7276 F50.00
G01 X15.9831 Y10.3077 F50.00
G01 X14.8194 Y11.0052 F50.00
G01 X13.7297 Y11.8133 F50.00
G01 X12.7244 Y12.7244 F50.00
G01 X11.8133 Y13.7297 F50.00
G01 X11.0052 Y14.8194 F50.00
G01 X10.3077 Y15.9831 F50.00
G01 X9.7276 Y17.2095 F50.00
G01 X9.2706 Y18.4869 F50.00
G01 X8.9409 Y19.8029 F50.00
G01 X8.7418 Y21.1449 F50.00
G01 X8.6751 Y22.5043 F50.00
G01 X8.6751 Y28.7459 F50.00
G01 X8.7268 Y29.8641 F50.00
G01 X8.8808 Y30.9687 F50.00
G01 X9.1362 Y32.0544 F50.00
G01 X9.4906 Y33.1119 F50.00
G01 X9.9411 Y34.1322 F50.00
G01 X10.4838 Y35.1065 F50.00
G01 X11.1141 Y36.0267 F50.00
G01 X11.8266 Y36.8847 F50.00
G01 X12.6153 Y37.6733 F50.00
G01 X13.4733 Y38.3859 F50.00
G01 X14.3935 Y39.0162 F50.00
G01 X15.3678 Y39.5589 F50.00
G01 X16.3881 Y40.0094 F50.00
G01 X17.4456 Y40.3638 F50.00
G01 X18.5313 Y40.6192 F50.00
G01 X19.6359 Y40.7732 F50.00
G01 X20.5749 Y40.8167 F50.00
G01 X20.5749 Y40.7472 F50.00
G01 X18.2834 Y39.4242 F50.00
G01 X18.2773 Y39.4200 F50.00
G01 X18.2719 Y39.4150 F50.00
G01 X18.2673 Y39.4093 F50.00
G01 X18.2635 Y39.4030 F50.00
G01 X18.2608 Y39.3962 F50.00
G01 X18.2590 Y39.3890 F50.00
G01 X18.2584 Y39.3817 F50.00
G01 X18.2588 Y39.3743 F50.00
G01 X18.2610 Y39.3648 F50.00
G01 X18.2651 Y39.3559 F50.00
G01 X21.5657 Y33.6390 F50.00
G01 X21.5716 Y33.6312 F50.00
G01 X21.5789 Y33.6247 F50.00
G01 X21.5874 Y33.6197 F50.00
G01 X21.5954 Y33.6168 F50.00
G01 X21.6039 Y33.6153 F50.00
G01 X21.6137 Y33.6154 F50.00
G01 X21.6233 Y33.6174 F50.00
G01 X21.6323 Y33.6212 F50.00
G01 X24.1016 Y35.0468 F50.00
G01 X24.1076 Y35.0509 F50.00
G01 X24.1139 Y35.0568 F50.00
G01 X24.1196 Y35.0647 F50.00
G01 X24.1233 Y35.0725 F50.00
G01 X24.1257 Y35.0807 F50.00
G01 X24.1266 Y35.0905 F50.00
G01 X24.1257 Y35.0990 F50.00
G01 X24.1235 Y35.1073 F50.00
G01 X24.1199 Y35.1151 F50.00
G01 X20.9251 Y40.6486 F50.00
G01 X20.9251 Y42.4275 F50.00
G01 X21.1590 Y42.6614 F50.00
G01 X21.1681 Y42.6583 F50.00
G01 X21.1872 Y42.6536 F50.00
G01 X21.2054 Y42.6510 F50.00
G01 X21.2250 Y42.6500 F50.00
G01 X22.4000 Y42.6500 F50.00
G01 X22.4208 Y42.6511 F50.00
G01 X22.4390 Y42.6538 F50.00
G01 X22.4581 Y42.6586 F50.00
G01 X22.4765 Y42.6652 F50.00
G01 X22.4921 Y42.6725 F50.00
G01 X22.5131 Y42.6851 F50.00
G01 X22.5269 Y42.6954 F50.00
G01 X22.5414 Y42.7086 F50.00
G01 X22.5546 Y42.7231 F50.00
G01 X22.5649 Y42.7369 F50.00
G01 X22.5769 Y42.7568 F50.00
G01 X22.5848 Y42.7735 F50.00
G01 X22.5914 Y42.7919 F50.00
G01 X22.5962 Y42.8110 F50.00
G01 X22.5983 Y42.8249 F50.00
G01 X24.5000 Y42.8249 F50.00
G01 X24.5196 Y42.8261 F50.00
G01 X24.5342 Y42.8283 F50.00
G01 X24.5508 Y42.8325 F50.00
G01 X24.5670 Y42.8383 F50.00
G01 X24.5847 Y42.8468 F50.00
G01 X24.5973 Y42.8544 F50.00
G01 X24.6091 Y42.8632 F50.00
G01 X24.6229 Y42.8754 F50.00
G01 X25.5225 Y43.7749 F50.00
G01 X25.5267 Y43.7749 F50.00
G01 X25.5288 Y43.7610 F50.00
G01 X25.5336 Y43.7419 F50.00
G01 X25.5402 Y43.7235 F50.00
G01 X25.5486 Y43.7057 F50.00
G01 X25.5587 Y43.6889 F50.00
G01 X25.5689 Y43.6751 F50.00
G01 X25.5845 Y43.6577 F50.00
G01 X25.5981 Y43.6454 F50.00
G01 X25.6139 Y43.6337 F50.00
G01 X25.6307 Y43.6236 F50.00
G01 X25.6462 Y43.6162 F50.00
G01 X25.6693 Y43.6080 F50.00
G01 X25.6860 Y43.6038 F50.00
G01 X25.7054 Y43.6010 F50.00
G01 X25.7250 Y43.6000 F50.00
G01 X26.9012 Y43.6000 F50.00
G01 X26.9220 Y43.6013 F50.00
G01 X26.9390 Y43.6038 F50.00
G01 X26.9557 Y43.6080 F50.00
G01 X26.9765 Y43.6152 F50.00
G01 X26.9954 Y43.6242 F50.00
G01 X27.0131 Y43.6351 F50.00
G01 X27.0269 Y43.6454 F50.00
G01 X27.0396 Y43.6569 F50.00
G01 X27.0546 Y43.6731 F50.00
G01 X27.0663 Y43.6889 F50.00
G01 X27.0775 Y43.7079 F50.00
G01 X27.0848 Y43.7235 F50.00
G01 X27.0906 Y43.7396 F50.00
G01 X27.0962 Y43.7610 F50.00
G01 X27.0992 Y43.7828 F50.00
G01 X27.1000 Y43.8000 F50.00
G01 X27.1000 Y44.1000 F50.00
G01 X27.0990 Y44.1196 F50.00
G01 X27.0966 Y44.1366 F50.00
G01 X27.0906 Y44.1604 F50.00
G01 X27.0848 Y44.1765 F50.00
G01 X27.0752 Y44.1964 F50.00
G01 X27.0663 Y44.2111 F50.00
G01 X27.0546 Y44.2269 F50.00
G01 X27.0414 Y44.2414 F50.00
G01 X27.0278 Y44.2538 F50.00
G01 X27.0111 Y44.2663 F50.00
G01 X26.9964 Y44.2752 F50.00
G01 X26.9742 Y44.2857 F50.00
G01 X26.9581 Y44.2914 F50.00
G01 X26.9390 Y44.2962 F50.00
G01 X26.9196 Y44.2990 F50.00
G01 X26.9012 Y44.3000 F50.00
G01 X25.7250 Y44.3000 F50.00
G01 X25.7054 Y44.2990 F50.00
G01 X25.6860 Y44.2962 F50.00
G01 X25.6669 Y44.2914 F50.00
G01 X25.6485 Y44.2848 F50.00
G01 X25.6286 Y44.2752 F50.00
G01 X25.6139 Y44.2663 F50.00
G01 X25.6001 Y44.2561 F50.00
G01 X25.5836 Y44.2414 F50.00
G01 X25.5696 Y44.2259 F50.00
G01 X25.5587 Y44.2111 F50.00
G01 X25.5498 Y44.1964 F50.00
G01 X25.5402 Y44.1765 F50.00
G01 X25.5330 Y44.1557 F50.00
G01 X25.5288 Y44.1390 F50.00
G01 X25.5267 Y44.1251 F50.00
G01 X25.4488 Y44.1250 F50.00
G01 X25.4328 Y44.1242 F50.00
G01 X25.4135 Y44.1212 F50.00
G01 X25.3992 Y44.1175 F50.00
G01 X25.3853 Y44.1126 F50.00
G01 X25.3675 Y44.1044 F50.00
G01 X25.3507 Y44.0941 F50.00
G01 X25.3389 Y44.0853 F50.00
G01 X25.3280 Y44.0755 F50.00
G01 X24.4275 Y43.1751 F50.00
G01 X22.5983 Y43.1751 F50.00
G01 X22.5962 Y43.1890 F50.00
G01 X22.5914 Y43.2081 F50.00
G01 X22.5848 Y43.2265 F50.00
G01 X22.5769 Y43.2432 F50.00
G01 X22.5663 Y43.2611 F50.00
G01 X22.5561 Y43.2749 F50.00
G01 X22.5405 Y43.2923 F50.00
G01 X22.5269 Y43.3046 F50.00
G01 X22.5111 Y43.3163 F50.00
G01 X22.4943 Y43.3264 F50.00
G01 X22.4788 Y43.3338 F50.00
G01 X22.4557 Y43.3420 F50.00
G01 X22.4390 Y43.3462 F50.00
G01 X22.4196 Y43.3490 F50.00
G01 X22.4000 Y43.3500 F50.00
G01 X21.2250 Y43.3500 F50.00
G01 X21.2054 Y43.3490 F50.00
G01 X21.1860 Y43.3462 F50.00
G01 X21.1669 Y43.3414 F50.00
G01 X21.1462 Y43.3338 F50.00
G01 X21.1307 Y43.3264 F50.00
G01 X21.1139 Y43.3163 F50.00
G01 X21.0981 Y43.3046 F50.00
G01 X21.0836 Y43.2914 F50.00
G01 X21.0704 Y43.2769 F50.00
G01 X21.0587 Y43.2611 F50.00
G01 X21.0486 Y43.2443 F50.00
G01 X21.0398 Y43.2254 F50.00
G01 X21.0336 Y43.2081 F50.00
G01 X21.0294 Y43.1914 F50.00
G01 X21.0259 Y43.1684 F50.00
G01 X21.0250 Y43.1500 F50.00
G01 X21.0250 Y43.0226 F50.00
G01 X20.6254 Y42.6229 F50.00
G01 X20.6132 Y42.6091 F50.00
G01 X20.6044 Y42.5973 F50.00
G01 X20.5968 Y42.5847 F50.00
G01 X20.5883 Y42.5670 F50.00
G01 X20.5821 Y42.5496 F50.00
G01 X20.5783 Y42.5342 F50.00
G01 X20.5761 Y42.5196 F50.00
G01 X20.5749 Y42.5000 F50.00
G01 X20.5749 Y41.1672 F50.00
G01 X19.6116 Y41.1226 F50.00
G01 X19.5978 Y41.1214 F50.00
G01 X18.4749 Y40.9648 F50.00
G01 X18.4590 Y40.9618 F50.00
G01 X17.3575 Y40.7028 F50.00
G01 X17.3420 Y40.6984 F50.00
G01 X16.2670 Y40.3380 F50.00
G01 X16.2541 Y40.3329 F50.00
G01 X15.2190 Y39.8759 F50.00
G01 X15.2045 Y39.8687 F50.00
G01 X14.2140 Y39.3169 F50.00
G01 X14.2023 Y39.3096 F50.00
G01 X13.2669 Y38.6688 F50.00
G01 X13.2559 Y38.6604 F50.00
G01 X12.3854 Y37.9375 F50.00
G01 X12.3751 Y37.9282 F50.00
G01 X11.5733 Y37.1266 F50.00
G01 X11.5632 Y37.1155 F50.00
G01 X10.8382 Y36.2423 F50.00
G01 X10.8299 Y36.2312 F50.00
G01 X10.1904 Y35.2977 F50.00
G01 X10.1819 Y35.2840 F50.00
G01 X9.6302 Y34.2934 F50.00
G01 X9.6241 Y34.2810 F50.00
G01 X9.1671 Y33.2459 F50.00
G01 X9.1612 Y33.2308 F50.00
G01 X8.8016 Y32.1580 F50.00
G01 X8.7978 Y32.1447 F50.00
G01 X8.5379 Y31.0399 F50.00
G01 X8.5352 Y31.0251 F50.00
G01 X8.3787 Y29.9033 F50.00
G01 X8.3774 Y29.8884 F50.00
G01 X8.3522 Y29.3436 F50.00
G01 X8.3456 Y29.3325 F50.00
G01 X8.3393 Y29.3192 F50.00
G01 X8.3325 Y29.3008 F50.00
G01 X8.3279 Y29.2817 F50.00
G01 X8.3258 Y29.2671 F50.00
G01 X8.3250 Y29.2512 F50.00
G01 X8.3251 Y22.4957 F50.00
G00 Z2.0000
G00 X8.2351 Y22.4935
G01 F50.00
G01 Z-0.1500
G01 F50.00
G01 X8.3027 Y21.1148 F50.00
G01 X8.3044 Y21.0957 F50.00
G01 X8.5068 Y19.7298 F50.00
G01 X8.5104 Y19.7110 F50.00
G01 X8.8457 Y18.3716 F50.00
G01 X8.8511 Y18.3532 F50.00
G01 X9.3161 Y17.0531 F50.00
G01 X9.3261 Y17.0291 F50.00
G01 X9.9166 Y15.7810 F50.00
G01 X9.9258 Y15.7642 F50.00
G01 X10.6321 Y14.5857 F50.00
G01 X10.6465 Y14.5641 F50.00
G01 X11.4650 Y13.4606 F50.00
G01 X11.4815 Y13.4405 F50.00
G01 X12.4088 Y12.4175 F50.00
G01 X12.4225 Y12.4041 F50.00
G01 X13.4431 Y11.4792 F50.00
G01 X13.4606 Y11.4650 F50.00
G01 X14.5697 Y10.6426 F50.00
G01 X14.5857 Y10.6321 F50.00
G01 X15.7642 Y9.9258 F50.00
G01 X15.7810 Y9.9166 F50.00
G01 X17.0291 Y9.3261 F50.00
G01 X17.0467 Y9.3186 F50.00
G01 X18.3467 Y8.8533 F50.00
G01 X18.3716 Y8.8457 F50.00
G01 X19.7110 Y8.5104 F50.00
G01 X19.7298 Y8.5068 F50.00
G01 X21.0889 Y8.3052 F50.00
G01 X21.1148 Y8.3027 F50.00
G01 X22.4939 Y8.2351 F50.00
G01 X22.5122 Y8.2352 F50.00
G01 X22.6553 Y8.2418 F50.00
G01 X22.6732 Y8.2433 F50.00
G01 X22.8214 Y8.2639 F50.00
G01 X22.8455 Y8.2684 F50.00
G01 X22.9911 Y8.3028 F50.00
G01 X23.0084 Y8.3078 F50.00
G01 X23.1442 Y8.3533 F50.00
G01 X23.1670 Y8.3622 F50.00
G01 X23.2980 Y8.4200 F50.00
G01 X23.3199 Y8.4309 F50.00
G01 X23.4505 Y8.5039 F50.00
G01 X23.4658 Y8.5135 F50.00
G01 X23.5891 Y8.5982 F50.00
G01 X23.6034 Y8.6092 F50.00
G01 X23.7136 Y8.7006 F50.00
G01 X23.7270 Y8.7126 F50.00
G01 X23.8329 Y8.8183 F50.00
G01 X23.8473 Y8.8340 F50.00
G01 X23.9449 Y8.9517 F50.00
G01 X23.9556 Y8.9661 F50.00
G01 X24.0365 Y9.0842 F50.00
G01 X24.0494 Y9.1050 F50.00
G01 X24.1191 Y9.2301 F50.00
G01 X24.1286 Y9.2491 F50.00
G01 X24.1878 Y9.3830 F50.00
G01 X24.1945 Y9.3998 F50.00
G01 X24.2422 Y9.5416 F50.00
G01 X24.2481 Y9.5620 F50.00
G01 X24.2816 Y9.7045 F50.00
G01 X24.2856 Y9.7254 F50.00
G01 X24.3063 Y9.8736 F50.00
G01 X24.3082 Y9.8947 F50.00
G01 X24.3111 Y9.9571 F50.00
G01 X24.3337 Y9.9677 F50.00
G01 X24.3427 Y9.9726 F50.00
G01 X24.3611 Y9.9839 F50.00
G01 X24.3786 Y9.9966 F50.00
G01 X24.3866 Y10.0030 F50.00
G01 X24.4026 Y10.0175 F50.00
G01 X24.4098 Y10.0249 F50.00
G01 X24.4242 Y10.0410 F50.00
G01 X24.4392 Y10.0611 F50.00
G01 X24.4448 Y10.0697 F50.00
G01 X24.4558 Y10.0883 F50.00
G01 X24.4651 Y10.1077 F50.00
G01 X24.4692 Y10.1172 F50.00
G01 X24.4775 Y10.1408 F50.00
G01 X24.4829 Y10.1617 F50.00
G01 X24.4851 Y10.1718 F50.00
G01 X24.4886 Y10.1966 F50.00
G01 X24.4900 Y10.2250 F50.00
G01 X24.4900 Y11.4000 F50.00
G01 X24.4891 Y11.4216 F50.00
G01 X24.4882 Y11.4318 F50.00
G01 X24.4844 Y11.4566 F50.00
G01 X24.4793 Y11.4776 F50.00
G01 X24.4765 Y11.4875 F50.00
G01 X24.4692 Y11.5078 F50.00
G01 X24.4651 Y11.5173 F50.00
G01 X24.4558 Y11.5367 F50.00
G01 X24.4430 Y11.5582 F50.00
G01 X24.4372 Y11.5667 F50.00
G01 X24.4242 Y11.5840 F50.00
G01 X24.4098 Y11.6001 F50.00
G01 X24.4026 Y11.6075 F50.00
G01 X24.3840 Y11.6242 F50.00
G01 X24.3639 Y11.6392 F50.00
G01 X24.3553 Y11.6448 F50.00
G01 X24.3367 Y11.6558 F50.00
G01 X24.3173 Y11.6651 F50.00
G01 X24.3078 Y11.6692 F50.00
G01 X24.2875 Y11.6765 F50.00
G01 X24.2776 Y11.6793 F50.00
G01 X24.2599 Y11.6837 F50.00
G01 X24.2498 Y11.6856 F50.00
G01 X24.2318 Y11.6882 F50.00
G01 X24.2069 Y11.6898 F50.00
G01 X23.8966 Y11.6900 F50.00
G01 X23.8716 Y11.6886 F50.00
G01 X23.8502 Y11.6856 F50.00
G01 X23.8401 Y11.6837 F50.00
G01 X23.8191 Y11.6785 F50.00
G01 X23.8093 Y11.6754 F50.00
G01 X23.7890 Y11.6679 F50.00
G01 X23.7694 Y11.6588 F50.00
G01 X23.7603 Y11.6541 F50.00
G01 X23.7418 Y11.6430 F50.00
G01 X23.7333 Y11.6372 F50.00
G01 X23.7160 Y11.6242 F50.00
G01 X23.6974 Y11.6075 F50.00
G01 X23.6902 Y11.6001 F50.00
G01 X23.6758 Y11.5840 F50.00
G01 X23.6628 Y11.5667 F50.00
G01 X23.6570 Y11.5582 F50.00
G01 X23.6459 Y11.5397 F50.00
G01 X23.6412 Y11.5306 F50.00
G01 X23.6321 Y11.5110 F50.00
G01 X23.6225 Y11.4842 F50.00
G01 X23.6156 Y11.4566 F50.00
G01 X23.6114 Y11.4284 F50.00
G01 X23.6100 Y11.4034 F50.00
G01 X23.6100 Y10.2250 F50.00
G01 X23.6111 Y10.2000 F50.00
G01 X23.6122 Y10.1898 F50.00
G01 X23.6156 Y10.1684 F50.00
G01 X23.6215 Y10.1441 F50.00
G01 X23.6246 Y10.1343 F50.00
G01 X23.6321 Y10.1140 F50.00
G01 X23.6427 Y10.0913 F50.00
G01 X23.6476 Y10.0823 F50.00
G01 X23.6608 Y10.0611 F50.00
G01 X23.6758 Y10.0410 F50.00
G01 X23.6902 Y10.0249 F50.00
G01 X23.6974 Y10.0175 F50.00
G01 X23.7160 Y10.0008 F50.00
G01 X23.7333 Y9.9878 F50.00
G01 X23.7418 Y9.9820 F50.00
G01 X23.7633 Y9.9692 F50.00
G01 X23.7805 Y9.9609 F50.00
G01 X23.7792 Y9.9315 F50.00
G01 X23.7628 Y9.8139 F50.00
G01 X23.7356 Y9.6984 F50.00
G01 X23.6979 Y9.5859 F50.00
G01 X23.6500 Y9.4774 F50.00
G01 X23.5922 Y9.3737 F50.00
G01 X23.5252 Y9.2758 F50.00
G01 X23.4494 Y9.1845 F50.00
G01 X23.3655 Y9.1006 F50.00
G01 X23.2742 Y9.0248 F50.00
G01 X23.1763 Y8.9578 F50.00
G01 X23.0726 Y8.9000 F50.00
G01 X22.9641 Y8.8521 F50.00
G01 X22.8516 Y8.8144 F50.00
G01 X22.7361 Y8.7872 F50.00
G01 X22.6185 Y8.7708 F50.00
G01 X22.5004 Y8.7654 F50.00
G01 X21.1538 Y8.8315 F50.00
G01 X19.8205 Y9.0293 F50.00
G01 X18.5131 Y9.3568 F50.00
G01 X17.2440 Y9.8109 F50.00
G01 X16.0255 Y10.3871 F50.00
G01 X14.8695 Y11.0801 F50.00
G01 X13.7869 Y11.8830 F50.00
G01 X12.7882 Y12.7882 F50.00
G01 X11.8830 Y13.7869 F50.00
G01 X11.0801 Y14.8695 F50.00
G01 X10.3871 Y16.0255 F50.00
G01 X9.8109 Y17.2440 F50.00
G01 X9.3568 Y18.5131 F50.00
G01 X9.0293 Y19.8205 F50.00
G01 X8.8315 Y21.1538 F50.00
G01 X8.7651 Y22.5065 F50.00
G01 X8.7651 Y28.7439 F50.00
G01 X8.8165 Y29.8558 F50.00
G01 X8.9694 Y30.9522 F50.00
G01 X9.2228 Y32.0297 F50.00
G01 X9.5746 Y33.0793 F50.00
G01 X10.0218 Y34.0920 F50.00
G01 X10.5604 Y35.0591 F50.00
G01 X11.1860 Y35.9724 F50.00
G01 X11.8932 Y36.8240 F50.00
G01 X12.6760 Y37.6068 F50.00
G01 X13.5276 Y38.3140 F50.00
G01 X14.4409 Y38.9396 F50.00
G01 X15.4080 Y39.4782 F50.00
G01 X16.4206 Y39.9254 F50.00
G01 X17.4702 Y40.2771 F50.00
G01 X18.5478 Y40.5306 F50.00
G01 X19.6442 Y40.6835 F50.00
G01 X20.3404 Y40.7157 F50.00
G01 X18.2354 Y39.5003 F50.00
G01 X18.2268 Y39.4947 F50.00
G01 X18.2187 Y39.4884 F50.00
G01 X18.2110 Y39.4815 F50.00
G01 X18.2039 Y39.4740 F50.00
G01 X18.1973 Y39.4661 F50.00
G01 X18.1913 Y39.4577 F50.00
G01 X18.1860 Y39.4489 F50.00
G01 X18.1813 Y39.4397 F50.00
G01 X18.1774 Y39.4302 F50.00
G01 X18.1741 Y39.4204 F50.00
G01 X18.1715 Y39.4104 F50.00
G01 X18.1697 Y39.4003 F50.00
G01 X18.1687 Y39.3900 F50.00
G01 X18.1684 Y39.3797 F50.00
G01 X18.1688 Y39.3694 F50.00
G01 X18.1701 Y39.3592 F50.00
G01 X18.1729 Y39.3457 F50.00
G01 X18.1758 Y39.3359 F50.00
G01 X18.1809 Y39.3231 F50.00
G01 X18.1871 Y39.3109 F50.00
G01 X21.4871 Y33.5951 F50.00
G01 X21.4946 Y33.5835 F50.00
G01 X21.5031 Y33.5728 F50.00
G01 X21.5127 Y33.5629 F50.00
G01 X21.5205 Y33.5561 F50.00
G01 X21.5287 Y33.5500 F50.00
G01 X21.5374 Y33.5444 F50.00
G01 X21.5465 Y33.5395 F50.00
G01 X21.5559 Y33.5353 F50.00
G01 X21.5656 Y33.5318 F50.00
G01 X21.5755 Y33.5290 F50.00
G01 X21.5856 Y33.5270 F50.00
G01 X21.5958 Y33.5257 F50.00
G01 X21.6061 Y33.5251 F50.00
G01 X21.6164 Y33.5253 F50.00
G01 X21.6267 Y33.5263 F50.00
G01 X21.6368 Y33.5280 F50.00
G01 X21.6468 Y33.5305 F50.00
G01 X21.6566 Y33.5337 F50.00
G01 X21.6662 Y33.5376 F50.00
G01 X21.6754 Y33.5422 F50.00
G01 X24.1466 Y34.9688 F50.00
G01 X24.1553 Y34.9743 F50.00
G01 X24.1636 Y34.9804 F50.00
G01 X24.1739 Y34.9895 F50.00
G01 X24.1811 Y34.9969 F50.00
G01 X24.1897 Y35.0076 F50.00
G01 X24.1954 Y35.0162 F50.00
G01 X24.2006 Y35.0251 F50.00
G01 X24.2063 Y35.0376 F50.00
G01 X24.2098 Y35.0473 F50.00
G01 X24.2134 Y35.0605 F50.00
G01 X24.2152 Y35.0707 F50.00
G01 X24.2164 Y35.0844 F50.00
G01 X24.2163 Y35.0981 F50.00
G01 X24.2149 Y35.1118 F50.00
G01 X24.2129 Y35.1219 F50.00
G01 X24.2091 Y35.1351 F50.00
G01 X24.2041 Y35.1479 F50.00
G01 X24.1995 Y35.1571 F50.00
G01 X21.0151 Y40.6727 F50.00
G01 X21.0151 Y42.3902 F50.00
G01 X21.1874 Y42.5626 F50.00
G01 X21.2000 Y42.5611 F50.00
G01 X21.2250 Y42.5600 F50.00
G01 X22.4000 Y42.5600 F50.00
G01 X22.4216 Y42.5609 F50.00
G01 X22.4318 Y42.5618 F50.00
G01 X22.4566 Y42.5656 F50.00
G01 X22.4776 Y42.5707 F50.00
G01 X22.4875 Y42.5735 F50.00
G01 X22.5078 Y42.5808 F50.00
G01 X22.5173 Y42.5849 F50.00
G01 X22.5367 Y42.5942 F50.00
G01 X22.5582 Y42.6070 F50.00
G01 X22.5667 Y42.6128 F50.00
G01 X22.5840 Y42.6258 F50.00
G01 X22.6001 Y42.6402 F50.00
G01 X22.6075 Y42.6474 F50.00
G01 X22.6242 Y42.6660 F50.00
G01 X22.6392 Y42.6861 F50.00
G01 X22.6448 Y42.6947 F50.00
G01 X22.6558 Y42.7133 F50.00
G01 X22.6661 Y42.7349 F50.00
G01 X24.5000 Y42.7349 F50.00
G01 X24.5260 Y42.7362 F50.00
G01 X24.5449 Y42.7389 F50.00
G01 X24.5584 Y42.7415 F50.00
G01 X24.5802 Y42.7474 F50.00
G01 X24.5982 Y42.7538 F50.00
G01 X24.6077 Y42.7579 F50.00
G01 X24.6249 Y42.7662 F50.00
G01 X24.6415 Y42.7759 F50.00
G01 X24.6501 Y42.7816 F50.00
G01 X24.6655 Y42.7930 F50.00
G01 X24.6850 Y42.8102 F50.00
G01 X25.4965 Y43.6216 F50.00
G01 X25.5030 Y43.6134 F50.00
G01 X25.5175 Y43.5974 F50.00
G01 X25.5249 Y43.5902 F50.00
G01 X25.5410 Y43.5758 F50.00
G01 X25.5639 Y43.5589 F50.00
G01 X25.5823 Y43.5476 F50.00
G01 X25.5913 Y43.5427 F50.00
G01 X25.6077 Y43.5349 F50.00
G01 X25.6172 Y43.5308 F50.00
G01 X25.6375 Y43.5235 F50.00
G01 X25.6474 Y43.5207 F50.00
G01 X25.6684 Y43.5156 F50.00
G01 X25.6898 Y43.5122 F50.00
G01 X25.7000 Y43.5111 F50.00
G01 X25.7181 Y43.5102 F50.00
G01 X26.9034 Y43.5100 F50.00
G01 X26.9284 Y43.5114 F50.00
G01 X26.9498 Y43.5144 F50.00
G01 X26.9599 Y43.5163 F50.00
G01 X26.9842 Y43.5225 F50.00
G01 X27.0078 Y43.5308 F50.00
G01 X27.0173 Y43.5349 F50.00
G01 X27.0367 Y43.5442 F50.00
G01 X27.0582 Y43.5570 F50.00
G01 X27.0667 Y43.5628 F50.00
G01 X27.0840 Y43.5758 F50.00
G01 X27.1026 Y43.5925 F50.00
G01 X27.1098 Y43.5999 F50.00
G01 X27.1242 Y43.6160 F50.00
G01 X27.1372 Y43.6333 F50.00
G01 X27.1430 Y43.6418 F50.00
G01 X27.1541 Y43.6603 F50.00
G01 X27.1588 Y43.6694 F50.00
G01 X27.1679 Y43.6890 F50.00
G01 X27.1754 Y43.7093 F50.00
G01 X27.1785 Y43.7191 F50.00
G01 X27.1837 Y43.7401 F50.00
G01 X27.1856 Y43.7502 F50.00
G01 X27.1886 Y43.7716 F50.00
G01 X27.1898 Y43.7931 F50.00
G01 X27.1900 Y44.1034 F50.00
G01 X27.1886 Y44.1284 F50.00
G01 X27.1844 Y44.1566 F50.00
G01 X27.1775 Y44.1842 F50.00
G01 X27.1692 Y44.2078 F50.00
G01 X27.1588 Y44.2306 F50.00
G01 X27.1524 Y44.2427 F50.00
G01 X27.1411 Y44.2611 F50.00
G01 X27.1242 Y44.2840 F50.00
G01 X27.1051 Y44.3051 F50.00
G01 X27.0866 Y44.3220 F50.00
G01 X27.0786 Y44.3284 F50.00
G01 X27.0639 Y44.3392 F50.00
G01 X27.0427 Y44.3524 F50.00
G01 X27.0337 Y44.3573 F50.00
G01 X27.0173 Y44.3651 F50.00
G01 X27.0046 Y44.3704 F50.00
G01 X26.9842 Y44.3775 F50.00
G01 X26.9566 Y44.3844 F50.00
G01 X26.9284 Y44.3886 F50.00
G01 X26.9034 Y44.3900 F50.00
G01 X25.7216 Y44.3900 F50.00
G01 X25.6966 Y44.3886 F50.00
G01 X25.6684 Y44.3844 F50.00
G01 X25.6408 Y44.3775 F50.00
G01 X25.6172 Y44.3692 F50.00
G01 X25.6077 Y44.3651 F50.00
G01 X25.5883 Y44.3558 F50.00
G01 X25.5639 Y44.3411 F50.00
G01 X25.5410 Y44.3242 F50.00
G01 X25.5224 Y44.3075 F50.00
G01 X25.5152 Y44.3001 F50.00
G01 X25.5008 Y44.2840 F50.00
G01 X25.4858 Y44.2639 F50.00
G01 X25.4802 Y44.2553 F50.00
G01 X25.4709 Y44.2397 F50.00
G01 X25.4589 Y44.2151 F50.00
G01 X25.4466 Y44.2150 F50.00
G01 X25.4309 Y44.2143 F50.00
G01 X25.4172 Y44.2129 F50.00
G01 X25.3949 Y44.2093 F50.00
G01 X25.3764 Y44.2046 F50.00
G01 X25.3665 Y44.2015 F50.00
G01 X25.3454 Y44.1935 F50.00
G01 X25.3220 Y44.1821 F50.00
G01 X25.2999 Y44.1684 F50.00
G01 X25.2845 Y44.1570 F50.00
G01 X25.2766 Y44.1504 F50.00
G01 X25.2626 Y44.1374 F50.00
G01 X24.3902 Y43.2651 F50.00
G01 X22.6661 Y43.2651 F50.00
G01 X22.6558 Y43.2867 F50.00
G01 X22.6448 Y43.3053 F50.00
G01 X22.6392 Y43.3139 F50.00
G01 X22.6242 Y43.3340 F50.00
G01 X22.6075 Y43.3526 F50.00
G01 X22.6001 Y43.3598 F50.00
G01 X22.5840 Y43.3742 F50.00
G01 X22.5611 Y43.3911 F50.00
G01 X22.5367 Y43.4058 F50.00
G01 X22.5173 Y43.4151 F50.00
G01 X22.5078 Y43.4192 F50.00
G01 X22.4842 Y43.4275 F50.00
G01 X22.4599 Y43.4337 F50.00
G01 X22.4498 Y43.4356 F50.00
G01 X22.4284 Y43.4386 F50.00
G01 X22.4069 Y43.4398 F50.00
G01 X21.2216 Y43.4400 F50.00
G01 X21.1966 Y43.4386 F50.00
G01 X21.1752 Y43.4356 F50.00
G01 X21.1651 Y43.4337 F50.00
G01 X21.1474 Y43.4293 F50.00
G01 X21.1375 Y43.4265 F50.00
G01 X21.1172 Y43.4192 F50.00
G01 X21.1077 Y43.4151 F50.00
G01 X21.0883 Y43.4058 F50.00
G01 X21.0639 Y43.3911 F50.00
G01 X21.0410 Y43.3742 F50.00
G01 X21.0224 Y43.3575 F50.00
G01 X21.0152 Y43.3501 F50.00
G01 X21.0030 Y43.3366 F50.00
G01 X20.9878 Y43.3167 F50.00
G01 X20.9802 Y43.3053 F50.00
G01 X20.9709 Y43.2897 F50.00
G01 X20.9662 Y43.2806 F50.00
G01 X20.9571 Y43.2610 F50.00
G01 X20.9475 Y43.2342 F50.00
G01 X20.9406 Y43.2066 F50.00
G01 X20.9372 Y43.1852 F50.00
G01 X20.9361 Y43.1750 F50.00
G01 X20.9350 Y43.1534 F50.00
G01 X20.9350 Y43.0599 F50.00
G01 X20.5626 Y42.6874 F50.00
G01 X20.5496 Y42.6734 F50.00
G01 X20.5430 Y42.6655 F50.00
G01 X20.5316 Y42.6501 F50.00
G01 X20.5259 Y42.6415 F50.00
G01 X20.5162 Y42.6249 F50.00
G01 X20.5051 Y42.6014 F50.00
G01 X20.4985 Y42.5835 F50.00
G01 X20.4954 Y42.5736 F50.00
G01 X20.4900 Y42.5517 F50.00
G01 X20.4871 Y42.5328 F50.00
G01 X20.4859 Y42.5226 F50.00
G01 X20.4849 Y42.5000 F50.00
G01 X20.4849 Y41.2531 F50.00
G01 X19.6075 Y41.2125 F50.00
G01 X19.5895 Y41.2110 F50.00
G01 X18.4624 Y41.0539 F50.00
G01 X18.4384 Y41.0494 F50.00
G01 X17.3369 Y40.7904 F50.00
G01 X17.3134 Y40.7837 F50.00
G01 X16.2345 Y40.4219 F50.00
G01 X16.2177 Y40.4153 F50.00
G01 X15.1826 Y39.9582 F50.00
G01 X15.1607 Y39.9473 F50.00
G01 X14.1666 Y39.3934 F50.00
G01 X14.1514 Y39.3838 F50.00
G01 X13.2127 Y38.7406 F50.00
G01 X13.1984 Y38.7296 F50.00
G01 X12.3279 Y38.0068 F50.00
G01 X12.3145 Y37.9947 F50.00
G01 X11.5097 Y37.1902 F50.00
G01 X11.4953 Y37.1746 F50.00
G01 X10.7663 Y36.2965 F50.00
G01 X10.7556 Y36.2821 F50.00
G01 X10.1162 Y35.3486 F50.00
G01 X10.1033 Y35.3278 F50.00
G01 X9.5497 Y34.3335 F50.00
G01 X9.5418 Y34.3173 F50.00
G01 X9.0847 Y33.2823 F50.00
G01 X9.0759 Y33.2594 F50.00
G01 X8.7163 Y32.1866 F50.00
G01 X8.7112 Y32.1693 F50.00
G01 X8.4499 Y31.0584 F50.00
G01 X8.4461 Y31.0375 F50.00
G01 X8.2893 Y29.9137 F50.00
G01 X8.2875 Y29.8925 F50.00
G01 X8.2633 Y29.3691 F50.00
G01 X8.2565 Y29.3546 F50.00
G01 X8.2526 Y29.3450 F50.00
G01 X8.2464 Y29.3269 F50.00
G01 X8.2415 Y29.3084 F50.00
G01 X8.2394 Y29.2983 F50.00
G01 X8.2366 Y29.2794 F50.00
G01 X8.2350 Y29.2534 F50.00
G01 X8.2351 Y22.4935 F50.00
G00 Z2.0000
G00 X9.1919 Y20.6953
G01 F50.00
G01 Z-0.1500
G01 F50.00
G01 X12.4816 Y20.6953 F50.00
G01 X12.6115 Y20.1765 F50.00
G01 X12.6157 Y20.1624 F50.00
G01 X12.8388 Y19.5389 F50.00
G01 X12.8443 Y19.5253 F50.00
G01 X13.1285 Y18.9246 F50.00
G01 X13.1355 Y18.9116 F50.00
G01 X13.4752 Y18.3447 F50.00
G01 X13.4841 Y18.3315 F50.00
G01 X13.8771 Y17.8016 F50.00
G01 X13.8880 Y17.7884 F50.00
G01 X14.3361 Y17.2942 F50.00
G01 X15.1250 Y16.5053 F50.00
G01 X13.3680 Y13.4621 F50.00
G01 X13.3657 Y13.4578 F50.00
G01 X13.3636 Y13.4520 F50.00
G01 X13.3623 Y13.4473 F50.00
G01 X13.3614 Y13.4412 F50.00
G01 X13.3613 Y13.4351 F50.00
G01 X13.3619 Y13.4290 F50.00
G01 X13.3633 Y13.4230 F50.00
G01 X13.3649 Y13.4184 F50.00
G01 X13.3688 Y13.4107 F50.00
G01 X13.3740 Y13.4038 F50.00
G01 X13.3802 Y13.3980 F50.00
G01 X13.3863 Y13.3938 F50.00
G01 X15.8545 Y11.9688 F50.00
G01 X15.8611 Y11.9656 F50.00
