(G-CODE GENERATED BY FLATCAM v8.994 - www.flatcam.org - Version Date: 2020/11/7)

(Name: ReceiverSampleBoard-Edge_Cuts.gbr_cutout_2_cnc)
(Type: G-code from Geometry)
(Units: MM)

(Created on Sunday, 10 March 2024 at 23:11)

(This preprocessor is the default preprocessor used by FlatCAM.)
(It is made to work with MACH3 compatible motion controllers.)

(TOOL DIAMETER: 1.0 mm)
(Feedrate_XY: 50.0 mm/min)
(Feedrate_Z: 50.0 mm/min)
(Feedrate rapids 1500.0 mm/min)

(Z_Cut: -1.8 mm)
(DepthPerCut: 0.6 mm <=>3 passes)
(Z_Move: 2.0 mm)
(Z Start: None mm)
(Z End: 15.0 mm)
(X,Y End: None mm)
(Steps per circle: 64)
(Preprocessor Geometry: default)

(X range:    4.2000 ...   45.8000  mm)
(Y range:    4.2000 ...   45.8000  mm)

(Spindle Speed: 1000.0 RPM)
G21
G90
G94

G01 F50.00

M5
G00 Z15.0000
G00 X0.0000 Y0.0000
T1
M6    
(MSG, Change to Tool Dia = 1.0000)
M0
G00 Z15.0000

M03 S1000.0
G01 F50.00
G00 X23.2500 Y4.2850
G01 F50.00
G01 Z-0.6000
G01 F50.00
G01 X23.0004 Y4.2972
G01 X22.9588 Y4.3004
G01 X22.9223 Y4.3049
G01 X20.9808 Y4.5929
G01 X20.9397 Y4.6002
G01 X20.9038 Y4.6082
G01 X18.9999 Y5.0851
G01 X18.9597 Y5.0964
G01 X18.9248 Y5.1079
G01 X17.0768 Y5.7692
G01 X17.0379 Y5.7843
G01 X17.0043 Y5.7992
G01 X15.2300 Y6.6384
G01 X15.1928 Y6.6572
G01 X15.1608 Y6.6754
G01 X13.4773 Y7.6844
G01 X13.4421 Y7.7068
G01 X13.4120 Y7.7280
G01 X11.8356 Y8.8972
G01 X11.8027 Y8.9230
G01 X11.7749 Y8.9470
G01 X10.3206 Y10.2651
G01 X10.2905 Y10.2939
G01 X10.2651 Y10.3206
G01 X8.9470 Y11.7749
G01 X8.9199 Y11.8065
G01 X8.8972 Y11.8356
G01 X7.7280 Y13.4120
G01 X7.7041 Y13.4462
G01 X7.6844 Y13.4773
G01 X6.6754 Y15.1608
G01 X6.6549 Y15.1971
G01 X6.6384 Y15.2300
G01 X5.7992 Y17.0043
G01 X5.7824 Y17.0425
G01 X5.7692 Y17.0768
G01 X5.1079 Y18.9248
G01 X5.0950 Y18.9644
G01 X5.0851 Y18.9999
G01 X4.6082 Y20.9038
G01 X4.5992 Y20.9445
G01 X4.5929 Y20.9808
G01 X4.3049 Y22.9223
G01 X4.3000 Y22.9637
G01 X4.2972 Y23.0004
G01 X4.2009 Y24.9607
G01 X4.2000 Y24.9975
G01 X4.2009 Y25.0393
G01 X4.2972 Y26.9996
G01 X4.3000 Y27.0363
G01 X4.3049 Y27.0777
G01 X4.5929 Y29.0192
G01 X4.5992 Y29.0555
G01 X4.6082 Y29.0962
G01 X5.0851 Y31.0001
G01 X5.0950 Y31.0356
G01 X5.1079 Y31.0752
G01 X5.7692 Y32.9232
G01 X5.7824 Y32.9575
G01 X5.7992 Y32.9957
G01 X6.6384 Y34.7700
G01 X6.6549 Y34.8029
G01 X6.6754 Y34.8392
G01 X7.6844 Y36.5227
G01 X7.7041 Y36.5538
G01 X7.7280 Y36.5880
G01 X8.8972 Y38.1644
G01 X8.9199 Y38.1935
G01 X8.9470 Y38.2251
G01 X10.2651 Y39.6794
G01 X10.2939 Y39.7095
G01 X10.3206 Y39.7349
G01 X11.7749 Y41.0530
G01 X11.8027 Y41.0770
G01 X11.8356 Y41.1028
G01 X13.4120 Y42.2720
G01 X13.4421 Y42.2932
G01 X13.4773 Y42.3156
G01 X15.1608 Y43.3246
G01 X15.1928 Y43.3428
G01 X15.2300 Y43.3616
G01 X17.0043 Y44.2008
G01 X17.0425 Y44.2176
G01 X17.0768 Y44.2308
G01 X18.9248 Y44.8921
G01 X18.9597 Y44.9036
G01 X18.9999 Y44.9149
G01 X20.9038 Y45.3918
G01 X20.9445 Y45.4008
G01 X20.9808 Y45.4071
G01 X22.9223 Y45.6951
G01 X22.9637 Y45.7000
G01 X23.0004 Y45.7028
G01 X23.2500 Y45.7150
G00 X23.2500 Y45.7150
G01 F50.00
G01 Z-1.2000
G01 F50.00
G01 X23.0004 Y45.7028
G01 X22.9637 Y45.7000
G01 X22.9223 Y45.6951
G01 X20.9808 Y45.4071
G01 X20.9445 Y45.4008
G01 X20.9038 Y45.3918
G01 X18.9999 Y44.9149
G01 X18.9597 Y44.9036
G01 X18.9248 Y44.8921
G01 X17.0768 Y44.2308
G01 X17.0425 Y44.2176
G01 X17.0043 Y44.2008
G01 X15.2300 Y43.3616
G01 X15.1928 Y43.3428
G01 X15.1608 Y43.3246
G01 X13.4773 Y42.3156
G01 X13.4421 Y42.2932
G01 X13.4120 Y42.2720
G01 X11.8356 Y41.1028
G01 X11.8027 Y41.0770
G01 X11.7749 Y41.0530
G01 X10.3206 Y39.7349
G01 X10.2939 Y39.7095
G01 X10.2651 Y39.6794
G01 X8.9470 Y38.2251
G01 X8.9199 Y38.1935
G01 X8.8972 Y38.1644
G01 X7.7280 Y36.5880
G01 X7.7041 Y36.5538
G01 X7.6844 Y36.5227
G01 X6.6754 Y34.8392
G01 X6.6549 Y34.8029
G01 X6.6384 Y34.7700
G01 X5.7992 Y32.9957
G01 X5.7824 Y32.9575
G01 X5.7692 Y32.9232
G01 X5.1079 Y31.0752
G01 X5.0964 Y31.0403
G01 X5.0851 Y31.0001
G01 X4.6082 Y29.0962
G01 X4.6002 Y29.0603
G01 X4.5929 Y29.0192
G01 X4.3049 Y27.0777
G01 X4.3004 Y27.0412
G01 X4.2972 Y26.9996
G01 X4.2009 Y25.0393
G01 X4.2000 Y25.0025
G01 X4.2009 Y24.9607
G01 X4.2972 Y23.0004
G01 X4.3000 Y22.9637
G01 X4.3049 Y22.9223
G01 X4.5929 Y20.9808
G01 X4.5992 Y20.9445
G01 X4.6082 Y20.9038
G01 X5.0851 Y18.9999
G01 X5.0950 Y18.9644
G01 X5.1079 Y18.9248
G01 X5.7692 Y17.0768
G01 X5.7824 Y17.0425
G01 X5.7992 Y17.0043
G01 X6.6384 Y15.2300
G01 X6.6549 Y15.1971
G01 X6.6754 Y15.1608
G01 X7.6844 Y13.4773
G01 X7.7041 Y13.4462
G01 X7.7280 Y13.4120
G01 X8.8972 Y11.8356
G01 X8.9199 Y11.8065
G01 X8.9470 Y11.7749
G01 X10.2651 Y10.3206
G01 X10.2905 Y10.2939
G01 X10.3206 Y10.2651
G01 X11.7749 Y8.9470
G01 X11.8027 Y8.9230
G01 X11.8356 Y8.8972
G01 X13.4120 Y7.7280
G01 X13.4421 Y7.7068
G01 X13.4773 Y7.6844
G01 X15.1608 Y6.6754
G01 X15.1928 Y6.6572
G01 X15.2300 Y6.6384
G01 X17.0043 Y5.7992
G01 X17.0379 Y5.7843
G01 X17.0768 Y5.7692
G01 X18.9248 Y5.1079
G01 X18.9597 Y5.0964
G01 X18.9999 Y5.0851
G01 X20.9038 Y4.6082
G01 X20.9397 Y4.6002
G01 X20.9808 Y4.5929
G01 X22.9223 Y4.3049
G01 X22.9588 Y4.3004
G01 X23.0004 Y4.2972
G01 X23.2500 Y4.2850
G00 X23.2500 Y4.2850
G01 F50.00
G01 Z-1.8000
G01 F50.00
G01 X23.0004 Y4.2972
G01 X22.9588 Y4.3004
G01 X22.9223 Y4.3049
G01 X20.9808 Y4.5929
G01 X20.9397 Y4.6002
G01 X20.9038 Y4.6082
G01 X18.9999 Y5.0851
G01 X18.9597 Y5.0964
G01 X18.9248 Y5.1079
G01 X17.0768 Y5.7692
G01 X17.0379 Y5.7843
G01 X17.0043 Y5.7992
G01 X15.2300 Y6.6384
G01 X15.1928 Y6.6572
G01 X15.1608 Y6.6754
G01 X13.4773 Y7.6844
G01 X13.4421 Y7.7068
G01 X13.4120 Y7.7280
G01 X11.8356 Y8.8972
G01 X11.8027 Y8.9230
G01 X11.7749 Y8.9470
G01 X10.3206 Y10.2651
G01 X10.2905 Y10.2939
G01 X10.2651 Y10.3206
G01 X8.9470 Y11.7749
G01 X8.9199 Y11.8065
G01 X8.8972 Y11.8356
G01 X7.7280 Y13.4120
G01 X7.7041 Y13.4462
G01 X7.6844 Y13.4773
G01 X6.6754 Y15.1608
G01 X6.6549 Y15.1971
G01 X6.6384 Y15.2300
G01 X5.7992 Y17.0043
G01 X5.7824 Y17.0425
G01 X5.7692 Y17.0768
G01 X5.1079 Y18.9248
G01 X5.0950 Y18.9644
G01 X5.0851 Y18.9999
G01 X4.6082 Y20.9038
G01 X4.5992 Y20.9445
G01 X4.5929 Y20.9808
G01 X4.3049 Y22.9223
G01 X4.3000 Y22.9637
G01 X4.2972 Y23.0004
G01 X4.2009 Y24.9607
G01 X4.2000 Y24.9975
G01 X4.2009 Y25.0393
G01 X4.2972 Y26.9996
G01 X4.3000 Y27.0363
G01 X4.3049 Y27.0777
G01 X4.5929 Y29.0192
G01 X4.5992 Y29.0555
G01 X4.6082 Y29.0962
G01 X5.0851 Y31.0001
G01 X5.0950 Y31.0356
G01 X5.1079 Y31.0752
G01 X5.7692 Y32.9232
G01 X5.7824 Y32.9575
G01 X5.7992 Y32.9957
G01 X6.6384 Y34.7700
G01 X6.6549 Y34.8029
G01 X6.6754 Y34.8392
G01 X7.6844 Y36.5227
G01 X7.7041 Y36.5538
G01 X7.7280 Y36.5880
G01 X8.8972 Y38.1644
G01 X8.9199 Y38.1935
G01 X8.9470 Y38.2251
G01 X10.2651 Y39.6794
G01 X10.2939 Y39.7095
G01 X10.3206 Y39.7349
G01 X11.7749 Y41.0530
G01 X11.8027 Y41.0770
G01 X11.8356 Y41.1028
G01 X13.4120 Y42.2720
G01 X13.4421 Y42.2932
G01 X13.4773 Y42.3156
G01 X15.1608 Y43.3246
G01 X15.1928 Y43.3428
G01 X15.2300 Y43.3616
G01 X17.0043 Y44.2008
G01 X17.0425 Y44.2176
G01 X17.0768 Y44.2308
G01 X18.9248 Y44.8921
G01 X18.9597 Y44.9036
G01 X18.9999 Y44.9149
G01 X20.9038 Y45.3918
G01 X20.9445 Y45.4008
G01 X20.9808 Y45.4071
G01 X22.9223 Y45.6951
G01 X22.9637 Y45.7000
G01 X23.0004 Y45.7028
G01 X23.2500 Y45.7150
G00 Z2.0000
G00 X27.2500 Y45.6695
G01 F50.00
G01 Z-0.6000
G01 F50.00
G01 X29.0192 Y45.4071
G01 X29.0603 Y45.3998
G01 X29.0962 Y45.3918
G01 X31.0001 Y44.9149
G01 X31.0403 Y44.9036
G01 X31.0752 Y44.8921
G01 X32.9232 Y44.2308
G01 X32.9621 Y44.2157
G01 X32.9957 Y44.2008
G01 X34.7700 Y43.3616
G01 X34.8072 Y43.3428
G01 X34.8392 Y43.3246
G01 X36.5227 Y42.3156
G01 X36.5579 Y42.2932
G01 X36.5880 Y42.2720
G01 X38.1644 Y41.1028
G01 X38.1935 Y41.0801
G01 X38.2251 Y41.0530
G01 X39.6794 Y39.7349
G01 X39.7061 Y39.7095
G01 X39.7349 Y39.6794
G01 X41.0530 Y38.2251
G01 X41.0801 Y38.1935
G01 X41.1028 Y38.1644
G01 X42.2720 Y36.5880
G01 X42.2959 Y36.5538
G01 X42.3156 Y36.5227
G01 X43.3246 Y34.8392
G01 X43.3451 Y34.8029
G01 X43.3616 Y34.7700
G01 X44.2008 Y32.9957
G01 X44.2176 Y32.9575
G01 X44.2308 Y32.9232
G01 X44.8921 Y31.0752
G01 X44.9050 Y31.0356
G01 X44.9149 Y31.0001
G01 X45.3918 Y29.0962
G01 X45.4008 Y29.0555
G01 X45.4071 Y29.0192
G01 X45.6951 Y27.0777
G01 X45.7000 Y27.0363
G01 X45.7028 Y26.9996
G01 X45.7991 Y25.0393
G01 X45.8000 Y24.9975
G01 X45.7991 Y24.9607
G01 X45.7028 Y23.0004
G01 X45.6996 Y22.9588
G01 X45.6951 Y22.9223
G01 X45.4071 Y20.9808
G01 X45.4008 Y20.9445
G01 X45.3918 Y20.9038
G01 X44.9149 Y18.9999
G01 X44.9050 Y18.9644
G01 X44.8921 Y18.9248
G01 X44.2308 Y17.0768
G01 X44.2157 Y17.0379
G01 X44.2008 Y17.0043
G01 X43.3616 Y15.2300
G01 X43.3428 Y15.1928
G01 X43.3246 Y15.1608
G01 X42.3156 Y13.4773
G01 X42.2932 Y13.4421
G01 X42.2720 Y13.4120
G01 X41.1028 Y11.8356
G01 X41.0770 Y11.8027
G01 X41.0530 Y11.7749
G01 X39.7349 Y10.3206
G01 X39.7061 Y10.2905
G01 X39.6794 Y10.2651
G01 X38.2251 Y8.9470
G01 X38.1935 Y8.9199
G01 X38.1644 Y8.8972
G01 X36.5880 Y7.7280
G01 X36.5538 Y7.7041
G01 X36.5227 Y7.6844
G01 X34.8392 Y6.6754
G01 X34.8072 Y6.6572
G01 X34.7700 Y6.6384
G01 X32.9957 Y5.7992
G01 X32.9621 Y5.7843
G01 X32.9232 Y5.7692
G01 X31.0752 Y5.1079
G01 X31.0403 Y5.0964
G01 X31.0001 Y5.0851
G01 X29.0962 Y4.6082
G01 X29.0603 Y4.6002
G01 X29.0192 Y4.5929
G01 X27.2500 Y4.3305
G00 X27.2500 Y4.3305
G01 F50.00
G01 Z-1.2000
G01 F50.00
G01 X29.0192 Y4.5929
G01 X29.0603 Y4.6002
G01 X29.0962 Y4.6082
G01 X31.0001 Y5.0851
G01 X31.0403 Y5.0964
G01 X31.0752 Y5.1079
G01 X32.9232 Y5.7692
G01 X32.9621 Y5.7843
G01 X32.9957 Y5.7992
G01 X34.7700 Y6.6384
G01 X34.8072 Y6.6572
G01 X34.8392 Y6.6754
G01 X36.5227 Y7.6844
G01 X36.5538 Y7.7041
G01 X36.5880 Y7.7280
G01 X38.1644 Y8.8972
G01 X38.1935 Y8.9199
G01 X38.2251 Y8.9470
G01 X39.6794 Y10.2651
G01 X39.7061 Y10.2905
G01 X39.7349 Y10.3206
G01 X41.0530 Y11.7749
G01 X41.0770 Y11.8027
G01 X41.1028 Y11.8356
G01 X42.2720 Y13.4120
G01 X42.2932 Y13.4421
G01 X42.3156 Y13.4773
G01 X43.3246 Y15.1608
G01 X43.3428 Y15.1928
G01 X43.3616 Y15.2300
G01 X44.2008 Y17.0043
G01 X44.2157 Y17.0379
G01 X44.2308 Y17.0768
G01 X44.8921 Y18.9248
G01 X44.9050 Y18.9644
G01 X44.9149 Y18.9999
G01 X45.3918 Y20.9038
G01 X45.4008 Y20.9445
G01 X45.4071 Y20.9808
G01 X45.6951 Y22.9223
G01 X45.6996 Y22.9588
G01 X45.7028 Y23.0004
G01 X45.7991 Y24.9607
G01 X45.8000 Y24.9975
G01 X45.7991 Y25.0393
G01 X45.7028 Y26.9996
G01 X45.7000 Y27.0363
G01 X45.6951 Y27.0777
G01 X45.4071 Y29.0192
G01 X45.4008 Y29.0555
G01 X45.3918 Y29.0962
G01 X44.9149 Y31.0001
G01 X44.9050 Y31.0356
G01 X44.8921 Y31.0752
G01 X44.2308 Y32.9232
G01 X44.2176 Y32.9575
G01 X44.2008 Y32.9957
G01 X43.3616 Y34.7700
G01 X43.3451 Y34.8029
G01 X43.3246 Y34.8392
G01 X42.3156 Y36.5227
G01 X42.2959 Y36.5538
G01 X42.2720 Y36.5880
G01 X41.1028 Y38.1644
G01 X41.0801 Y38.1935
G01 X41.0530 Y38.2251
G01 X39.7349 Y39.6794
G01 X39.7061 Y39.7095
G01 X39.6794 Y39.7349
G01 X38.2251 Y41.0530
G01 X38.1935 Y41.0801
G01 X38.1644 Y41.1028
G01 X36.5880 Y42.2720
G01 X36.5579 Y42.2932
G01 X36.5227 Y42.3156
G01 X34.8392 Y43.3246
G01 X34.8072 Y43.3428
G01 X34.7700 Y43.3616
G01 X32.9957 Y44.2008
G01 X32.9621 Y44.2157
G01 X32.9232 Y44.2308
G01 X31.0752 Y44.8921
G01 X31.0403 Y44.9036
G01 X31.0001 Y44.9149
G01 X29.0962 Y45.3918
G01 X29.0603 Y45.3998
G01 X29.0192 Y45.4071
G01 X27.2500 Y45.6695
G00 X27.2500 Y45.6695
G01 F50.00
G01 Z-1.8000
G01 F50.00
G01 X29.0192 Y45.4071
G01 X29.0603 Y45.3998
G01 X29.0962 Y45.3918
G01 X31.0001 Y44.9149
G01 X31.0403 Y44.9036
G01 X31.0752 Y44.8921
G01 X32.9232 Y44.2308
G01 X32.9621 Y44.2157
G01 X32.9957 Y44.2008
G01 X34.7700 Y43.3616
G01 X34.8072 Y43.3428
G01 X34.8392 Y43.3246
G01 X36.5227 Y42.3156
G01 X36.5579 Y42.2932
G01 X36.5880 Y42.2720
G01 X38.1644 Y41.1028
G01 X38.1935 Y41.0801
G01 X38.2251 Y41.0530
G01 X39.6794 Y39.7349
G01 X39.7061 Y39.7095
G01 X39.7349 Y39.6794
G01 X41.0530 Y38.2251
G01 X41.0801 Y38.1935
G01 X41.1028 Y38.1644
G01 X42.2720 Y36.5880
G01 X42.2959 Y36.5538
G01 X42.3156 Y36.5227
G01 X43.3246 Y34.8392
G01 X43.3451 Y34.8029
G01 X43.3616 Y34.7700
G01 X44.2008 Y32.9957
G01 X44.2176 Y32.9575
G01 X44.2308 Y32.9232
G01 X44.8921 Y31.0752
G01 X44.9050 Y31.0356
G01 X44.9149 Y31.0001
G01 X45.3918 Y29.0962
G01 X45.4008 Y29.0555
G01 X45.4071 Y29.0192
G01 X45.6951 Y27.0777
G01 X45.7000 Y27.0363
G01 X45.7028 Y26.9996
G01 X45.7991 Y25.0393
G01 X45.8000 Y24.9975
G01 X45.7991 Y24.9607
G01 X45.7028 Y23.0004
G01 X45.6996 Y22.9588
G01 X45.6951 Y22.9223
G01 X45.4071 Y20.9808
G01 X45.4008 Y20.9445
G01 X45.3918 Y20.9038
G01 X44.9149 Y18.9999
G01 X44.9050 Y18.9644
G01 X44.8921 Y18.9248
G01 X44.2308 Y17.0768
G01 X44.2157 Y17.0379
G01 X44.2008 Y17.0043
G01 X43.3616 Y15.2300
G01 X43.3428 Y15.1928
G01 X43.3246 Y15.1608
G01 X42.3156 Y13.4773
G01 X42.2932 Y13.4421
G01 X42.2720 Y13.4120
G01 X41.1028 Y11.8356
G01 X41.0770 Y11.8027
G01 X41.0530 Y11.7749
G01 X39.7349 Y10.3206
G01 X39.7061 Y10.2905
G01 X39.6794 Y10.2651
G01 X38.2251 Y8.9470
G01 X38.1935 Y8.9199
G01 X38.1644 Y8.8972
G01 X36.5880 Y7.7280
G01 X36.5538 Y7.7041
G01 X36.5227 Y7.6844
G01 X34.8392 Y6.6754
G01 X34.8072 Y6.6572
G01 X34.7700 Y6.6384
G01 X32.9957 Y5.7992
G01 X32.9621 Y5.7843
G01 X32.9232 Y5.7692
G01 X31.0752 Y5.1079
G01 X31.0403 Y5.0964
G01 X31.0001 Y5.0851
G01 X29.0962 Y4.6082
G01 X29.0603 Y4.6002
G01 X29.0192 Y4.5929
G01 X27.2500 Y4.3305
G00 Z2.0000
G00 X33.0000 Y25.0000
G01 F50.00
G01 Z-0.6000
G01 F50.00
G01 X32.9615 Y25.7841
G01 X32.8463 Y26.5607
G01 X32.6555 Y27.3223
G01 X32.3910 Y28.0615
G01 X32.0554 Y28.7712
G01 X31.6518 Y29.4446
G01 X31.1841 Y30.0751
G01 X30.6569 Y30.6569
G01 X30.0751 Y31.1841
G01 X29.4446 Y31.6518
G01 X28.7712 Y32.0554
G01 X28.0615 Y32.3910
G01 X27.3223 Y32.6555
G01 X26.5607 Y32.8463
G01 X25.7841 Y32.9615
G01 X25.0000 Y33.0000
G01 X24.2159 Y32.9615
G01 X23.4393 Y32.8463
G01 X22.6777 Y32.6555
G01 X21.9385 Y32.3910
G01 X21.2288 Y32.0554
G01 X20.5554 Y31.6518
G01 X19.9249 Y31.1841
G01 X19.3431 Y30.6569
G01 X18.8159 Y30.0751
G01 X18.3482 Y29.4446
G01 X17.9446 Y28.7712
G01 X17.6090 Y28.0615
G01 X17.3445 Y27.3223
G01 X17.1537 Y26.5607
G01 X17.0385 Y25.7841
G01 X17.0000 Y25.0000
G01 X17.0385 Y24.2159
G01 X17.1537 Y23.4393
G01 X17.3445 Y22.6777
G01 X17.6090 Y21.9385
G01 X17.9446 Y21.2288
G01 X18.3482 Y20.5554
G01 X18.8159 Y19.9249
G01 X19.3431 Y19.3431
G01 X19.9249 Y18.8159
G01 X20.5554 Y18.3482
G01 X21.2288 Y17.9446
G01 X21.9385 Y17.6090
G01 X22.6777 Y17.3445
G01 X23.4393 Y17.1537
G01 X24.2159 Y17.0385
G01 X25.0000 Y17.0000
G01 X25.7841 Y17.0385
G01 X26.5607 Y17.1537
G01 X27.3223 Y17.3445
G01 X28.0615 Y17.6090
G01 X28.7712 Y17.9446
G01 X29.4446 Y18.3482
G01 X30.0751 Y18.8159
G01 X30.6569 Y19.3431
G01 X31.1841 Y19.9249
G01 X31.6518 Y20.5554
G01 X32.0554 Y21.2288
G01 X32.3910 Y21.9385
G01 X32.6555 Y22.6777
G01 X32.8463 Y23.4393
G01 X32.9615 Y24.2159
G01 X33.0000 Y25.0000
G00 X33.0000 Y25.0000
G01 F50.00
G01 Z-1.2000
G01 F50.00
G01 X32.9615 Y25.7841
G01 X32.8463 Y26.5607
G01 X32.6555 Y27.3223
G01 X32.3910 Y28.0615
G01 X32.0554 Y28.7712
G01 X31.6518 Y29.4446
G01 X31.1841 Y30.0751
G01 X30.6569 Y30.6569
G01 X30.0751 Y31.1841
G01 X29.4446 Y31.6518
G01 X28.7712 Y32.0554
G01 X28.0615 Y32.3910
G01 X27.3223 Y32.6555
G01 X26.5607 Y32.8463
G01 X25.7841 Y32.9615
G01 X25.0000 Y33.0000
G01 X24.2159 Y32.9615
G01 X23.4393 Y32.8463
G01 X22.6777 Y32.6555
G01 X21.9385 Y32.3910
G01 X21.2288 Y32.0554
G01 X20.5554 Y31.6518
G01 X19.9249 Y31.1841
G01 X19.3431 Y30.6569
G01 X18.8159 Y30.0751
G01 X18.3482 Y29.4446
G01 X17.9446 Y28.7712
G01 X17.6090 Y28.0615
G01 X17.3445 Y27.3223
G01 X17.1537 Y26.5607
G01 X17.0385 Y25.7841
G01 X17.0000 Y25.0000
G01 X17.0385 Y24.2159
G01 X17.1537 Y23.4393
G01 X17.3445 Y22.6777
G01 X17.6090 Y21.9385
G01 X17.9446 Y21.2288
G01 X18.3482 Y20.5554
G01 X18.8159 Y19.9249
G01 X19.3431 Y19.3431
G01 X19.9249 Y18.8159
G01 X20.5554 Y18.3482
G01 X21.2288 Y17.9446
G01 X21.9385 Y17.6090
G01 X22.6777 Y17.3445
G01 X23.4393 Y17.1537
G01 X24.2159 Y17.0385
G01 X25.0000 Y17.0000
G01 X25.7841 Y17.0385
G01 X26.5607 Y17.1537
G01 X27.3223 Y17.3445
G01 X28.0615 Y17.6090
G01 X28.7712 Y17.9446
G01 X29.4446 Y18.3482
G01 X30.0751 Y18.8159
G01 X30.6569 Y19.3431
G01 X31.1841 Y19.9249
G01 X31.6518 Y20.5554
G01 X32.0554 Y21.2288
G01 X32.3910 Y21.9385
G01 X32.6555 Y22.6777
G01 X32.8463 Y23.4393
G01 X32.9615 Y24.2159
G01 X33.0000 Y25.0000
G00 X33.0000 Y25.0000
G01 F50.00
G01 Z-1.8000
G01 F50.00
G01 X32.9615 Y25.7841
G01 X32.8463 Y26.5607
G01 X32.6555 Y27.3223
G01 X32.3910 Y28.0615
G01 X32.0554 Y28.7712
G01 X31.6518 Y29.4446
G01 X31.1841 Y30.0751
G01 X30.6569 Y30.6569
G01 X30.0751 Y31.1841
G01 X29.4446 Y31.6518
G01 X28.7712 Y32.0554
G01 X28.0615 Y32.3910
G01 X27.3223 Y32.6555
G01 X26.5607 Y32.8463
G01 X25.7841 Y32.9615
G01 X25.0000 Y33.0000
G01 X24.2159 Y32.9615
G01 X23.4393 Y32.8463
G01 X22.6777 Y32.6555
G01 X21.9385 Y32.3910
G01 X21.2288 Y32.0554
G01 X20.5554 Y31.6518
G01 X19.9249 Y31.1841
G01 X19.3431 Y30.6569
G01 X18.8159 Y30.0751
G01 X18.3482 Y29.4446
G01 X17.9446 Y28.7712
G01 X17.6090 Y28.0615
G01 X17.3445 Y27.3223
G01 X17.1537 Y26.5607
G01 X17.0385 Y25.7841
G01 X17.0000 Y25.0000
G01 X17.0385 Y24.2159
G01 X17.1537 Y23.4393
G01 X17.3445 Y22.6777
G01 X17.6090 Y21.9385
G01 X17.9446 Y21.2288
G01 X18.3482 Y20.5554
G01 X18.8159 Y19.9249
G01 X19.3431 Y19.3431
G01 X19.9249 Y18.8159
G01 X20.5554 Y18.3482
G01 X21.2288 Y17.9446
G01 X21.9385 Y17.6090
G01 X22.6777 Y17.3445
G01 X23.4393 Y17.1537
G01 X24.2159 Y17.0385
G01 X25.0000 Y17.0000
G01 X25.7841 Y17.0385
G01 X26.5607 Y17.1537
G01 X27.3223 Y17.3445
G01 X28.0615 Y17.6090
G01 X28.7712 Y17.9446
G01 X29.4446 Y18.3482
G01 X30.0751 Y18.8159
G01 X30.6569 Y19.3431
G01 X31.1841 Y19.9249
G01 X31.6518 Y20.5554
G01 X32.0554 Y21.2288
G01 X32.3910 Y21.9385
G01 X32.6555 Y22.6777
G01 X32.8463 Y23.4393
G01 X32.9615 Y24.2159
G01 X33.0000 Y25.0000
G00 Z2.0000
M05
G00 Z2.0000
G00 Z15.00


