(G-CODE GENERATED BY FLATCAM v8.994 - www.flatcam.org - Version Date: 2020/11/7)

(Name: ReceiverSampleBoard-F_Cu.gbr_iso_combined_cnc)
(Type: G-code from Geometry)
(Units: MM)

(Created on Wednesday, 13 March 2024 at 21:44)

(This preprocessor is the default preprocessor used by FlatCAM.)
(It is made to work with MACH3 compatible motion controllers.)

(TOOL DIAMETER: 0.3 mm)
(Feedrate_XY: 50.0 mm/min)
(Feedrate_Z: 50.0 mm/min)
(Feedrate rapids 1500.0 mm/min)

(Z_Cut: -0.05 mm)
(Z_Move: 2.0 mm)
(Z Start: None mm)
(Z End: 15.0 mm)
(X,Y End: None mm)
(Steps per circle: 64)
(Preprocessor Geometry: default)

(X range:    5.0751 ...   44.9249  mm)
(Y range:    5.0749 ...   44.5500  mm)

(Spindle Speed: 1000.0 RPM)
G21
G90
G94

G01 F50.00

M5
G00 Z15.0000
G00 X0.0000 Y0.0000
T1
M6    
(MSG, Change to Tool Dia = 0.3000)
M0
G00 Z15.0000

M03 S1000.0
G01 F50.00
G00 X18.1543 Y10.3523
G01 F50.00
G01 Z-0.0500
G01 F50.00
G01 X18.1418 Y10.3600
G01 X18.1296 Y10.3683
G01 X18.1178 Y10.3771
G01 X18.1065 Y10.3866
G01 X18.0957 Y10.3965
G01 X18.0854 Y10.4070
G01 X18.0756 Y10.4180
G01 X18.0663 Y10.4295
G01 X18.0576 Y10.4414
G01 X18.0496 Y10.4537
G01 X18.0421 Y10.4664
G01 X18.0353 Y10.4794
G01 X18.0291 Y10.4928
G01 X18.0236 Y10.5064
G01 X18.0187 Y10.5203
G01 X18.0145 Y10.5345
G01 X18.0111 Y10.5488
G01 X18.0083 Y10.5632
G01 X18.0063 Y10.5778
G01 X18.0050 Y10.5925
G01 X18.0043 Y10.6146
G01 X18.0048 Y10.6293
G01 X18.0060 Y10.6440
G01 X18.0079 Y10.6586
G01 X18.0106 Y10.6730
G01 X18.0139 Y10.6874
G01 X18.0180 Y10.7015
G01 X18.0227 Y10.7155
G01 X18.0281 Y10.7292
G01 X18.0342 Y10.7426
G01 X18.0409 Y10.7557
G01 X21.3483 Y16.4842
G01 X21.3563 Y16.4966
G01 X21.3648 Y16.5086
G01 X21.3740 Y16.5201
G01 X21.3837 Y16.5312
G01 X21.3939 Y16.5417
G01 X21.4047 Y16.5518
G01 X21.4159 Y16.5613
G01 X21.4276 Y16.5703
G01 X21.4459 Y16.5826
G01 X21.4586 Y16.5901
G01 X21.4716 Y16.5969
G01 X21.4850 Y16.6031
G01 X21.4986 Y16.6087
G01 X21.5126 Y16.6135
G01 X21.5267 Y16.6177
G01 X21.5410 Y16.6211
G01 X21.5627 Y16.6250
G01 X21.5774 Y16.6267
G01 X21.5921 Y16.6276
G01 X21.6068 Y16.6279
G01 X21.6215 Y16.6274
G01 X21.6362 Y16.6262
G01 X21.6508 Y16.6243
G01 X21.6724 Y16.6200
G01 X21.6867 Y16.6164
G01 X21.7008 Y16.6120
G01 X21.7146 Y16.6069
G01 X21.7281 Y16.6011
G01 X21.7479 Y16.5913
G01 X23.7681 Y15.4251
G01 X26.2157 Y15.4251
G01 X28.2335 Y16.5900
G01 X28.2530 Y16.6004
G01 X28.2733 Y16.6092
G01 X28.2941 Y16.6166
G01 X28.3154 Y16.6224
G01 X28.3371 Y16.6266
G01 X28.3590 Y16.6292
G01 X28.3811 Y16.6302
G01 X28.3958 Y16.6300
G01 X28.4105 Y16.6290
G01 X28.4324 Y16.6262
G01 X28.4540 Y16.6218
G01 X28.4753 Y16.6158
G01 X28.4960 Y16.6083
G01 X28.5162 Y16.5993
G01 X28.5356 Y16.5888
G01 X28.5542 Y16.5769
G01 X28.5719 Y16.5637
G01 X28.5886 Y16.5492
G01 X28.6041 Y16.5335
G01 X28.6185 Y16.5167
G01 X28.6316 Y16.4989
G01 X28.6433 Y16.4802
G01 X31.9433 Y10.7645
G01 X31.9504 Y10.7515
G01 X31.9568 Y10.7383
G01 X31.9625 Y10.7247
G01 X31.9676 Y10.7109
G01 X31.9739 Y10.6897
G01 X31.9773 Y10.6754
G01 X31.9799 Y10.6609
G01 X31.9818 Y10.6463
G01 X31.9833 Y10.6243
G01 X31.9833 Y10.6022
G01 X31.9815 Y10.5802
G01 X31.9782 Y10.5583
G01 X31.9733 Y10.5368
G01 X31.9668 Y10.5157
G01 X31.9588 Y10.4951
G01 X31.9526 Y10.4818
G01 X31.9421 Y10.4623
G01 X31.9302 Y10.4437
G01 X31.9170 Y10.4260
G01 X31.9025 Y10.4094
G01 X31.8868 Y10.3938
G01 X31.8700 Y10.3795
G01 X31.8522 Y10.3664
G01 X31.8335 Y10.3547
G01 X29.6931 Y9.1189
G01 X30.1482 Y9.1864
G01 X31.4404 Y9.5101
G01 X32.6947 Y9.9589
G01 X33.8989 Y10.5284
G01 X35.0415 Y11.2133
G01 X36.1115 Y12.0068
G01 X37.0986 Y12.9014
G01 X37.9932 Y13.8885
G01 X38.7867 Y14.9585
G01 X39.4716 Y16.1011
G01 X40.0411 Y17.3053
G01 X40.4899 Y18.5596
G01 X40.8136 Y19.8518
G01 X40.9052 Y20.4691
G01 X40.8941 Y20.4651
G01 X40.8800 Y20.4609
G01 X40.8657 Y20.4573
G01 X40.8513 Y20.4544
G01 X40.8367 Y20.4523
G01 X40.8221 Y20.4508
G01 X40.8000 Y20.4500
G01 X37.7095 Y20.4500
G01 X37.6861 Y20.3443
G01 X37.6784 Y20.3147
G01 X37.5003 Y19.7495
G01 X37.4923 Y19.7269
G01 X37.4876 Y19.7147
G01 X37.2633 Y19.1733
G01 X37.2534 Y19.1514
G01 X37.2476 Y19.1396
G01 X36.9770 Y18.6198
G01 X36.9653 Y18.5989
G01 X36.9585 Y18.5877
G01 X36.6436 Y18.0934
G01 X36.6300 Y18.0736
G01 X36.6223 Y18.0630
G01 X36.2655 Y17.5981
G01 X36.2503 Y17.5795
G01 X36.2417 Y17.5697
G01 X35.8381 Y17.1294
G01 X35.1753 Y16.4665
G01 X36.8400 Y13.5830
G01 X36.8467 Y13.5699
G01 X36.8556 Y13.5497
G01 X36.8606 Y13.5359
G01 X36.8650 Y13.5218
G01 X36.8687 Y13.5076
G01 X36.8729 Y13.4859
G01 X36.8749 Y13.4713
G01 X36.8761 Y13.4566
G01 X36.8765 Y13.4419
G01 X36.8763 Y13.4272
G01 X36.8746 Y13.4052
G01 X36.8725 Y13.3906
G01 X36.8698 Y13.3761
G01 X36.8663 Y13.3618
G01 X36.8622 Y13.3477
G01 X36.8546 Y13.3269
G01 X36.8456 Y13.3068
G01 X36.8351 Y13.2873
G01 X36.8273 Y13.2748
G01 X36.8190 Y13.2627
G01 X36.8053 Y13.2454
G01 X36.7904 Y13.2291
G01 X36.7798 Y13.2188
G01 X36.7688 Y13.2091
G01 X36.7513 Y13.1956
G01 X36.7329 Y13.1834
G01 X34.2584 Y11.7547
G01 X34.2455 Y11.7476
G01 X34.2254 Y11.7382
G01 X34.2048 Y11.7304
G01 X34.1837 Y11.7241
G01 X34.1621 Y11.7193
G01 X34.1402 Y11.7162
G01 X34.1182 Y11.7146
G01 X34.1035 Y11.7145
G01 X34.0888 Y11.7151
G01 X34.0668 Y11.7174
G01 X34.0450 Y11.7212
G01 X34.0307 Y11.7247
G01 X34.0166 Y11.7288
G01 X33.9958 Y11.7364
G01 X33.9757 Y11.7454
G01 X33.9563 Y11.7559
G01 X33.9376 Y11.7678
G01 X33.9258 Y11.7765
G01 X33.9143 Y11.7857
G01 X33.8980 Y11.8006
G01 X33.8878 Y11.8112
G01 X33.8780 Y11.8222
G01 X33.8645 Y11.8397
G01 X33.8523 Y11.8581
G01 X30.5486 Y17.5802
G01 X30.5415 Y17.5932
G01 X30.5351 Y17.6064
G01 X30.5294 Y17.6200
G01 X30.5243 Y17.6338
G01 X30.5199 Y17.6478
G01 X30.5162 Y17.6621
G01 X30.5132 Y17.6765
G01 X30.5109 Y17.6911
G01 X30.5089 Y17.7131
G01 X30.5084 Y17.7351
G01 X30.5096 Y17.7572
G01 X30.5124 Y17.7791
G01 X30.5168 Y17.8007
G01 X30.5228 Y17.8220
G01 X30.5276 Y17.8359
G01 X30.5361 Y17.8563
G01 X30.5462 Y17.8760
G01 X30.5536 Y17.8886
G01 X30.5660 Y17.9070
G01 X30.5796 Y17.9243
G01 X30.5945 Y17.9406
G01 X30.6106 Y17.9558
G01 X30.6277 Y17.9697
G01 X30.6458 Y17.9824
G01 X30.6584 Y17.9900
G01 X33.1330 Y19.4186
G01 X33.1527 Y19.4285
G01 X33.1732 Y19.4369
G01 X33.1942 Y19.4437
G01 X33.2156 Y19.4490
G01 X33.2301 Y19.4516
G01 X33.2447 Y19.4535
G01 X33.2667 Y19.4551
G01 X33.2888 Y19.4550
G01 X33.3108 Y19.4533
G01 X33.3254 Y19.4512
G01 X33.3471 Y19.4468
G01 X33.3613 Y19.4430
G01 X33.3753 Y19.4385
G01 X33.3891 Y19.4333
G01 X33.4026 Y19.4275
G01 X33.4158 Y19.4210
G01 X33.4350 Y19.4100
G01 X33.4533 Y19.3976
G01 X33.4650 Y19.3887
G01 X33.4762 Y19.3792
G01 X33.4869 Y19.3691
G01 X33.4972 Y19.3585
G01 X33.5069 Y19.3474
G01 X33.5160 Y19.3359
G01 X33.5287 Y19.3178
G01 X33.5364 Y19.3052
G01 X34.7352 Y17.2287
G01 X35.2250 Y17.7185
G01 X35.6024 Y18.1303
G01 X35.9366 Y18.5658
G01 X36.2315 Y19.0288
G01 X36.4850 Y19.5157
G01 X36.6951 Y20.0229
G01 X36.8297 Y20.4500
G01 X34.2000 Y20.4500
G01 X34.1779 Y20.4508
G01 X34.1633 Y20.4523
G01 X34.1415 Y20.4558
G01 X34.1200 Y20.4609
G01 X34.0989 Y20.4675
G01 X34.0784 Y20.4757
G01 X34.0651 Y20.4820
G01 X34.0458 Y20.4927
G01 X34.0273 Y20.5047
G01 X34.0097 Y20.5181
G01 X33.9931 Y20.5327
G01 X33.9777 Y20.5485
G01 X33.9681 Y20.5597
G01 X33.9547 Y20.5773
G01 X33.9427 Y20.5958
G01 X33.9320 Y20.6151
G01 X33.9257 Y20.6284
G01 X33.9201 Y20.6420
G01 X33.9151 Y20.6559
G01 X33.9109 Y20.6700
G01 X33.9073 Y20.6843
G01 X33.9044 Y20.6987
G01 X33.9023 Y20.7133
G01 X33.9008 Y20.7279
G01 X33.9000 Y20.7500
G01 X33.9000 Y23.6000
G01 X33.9004 Y23.6147
G01 X33.9023 Y23.6367
G01 X33.9058 Y23.6585
G01 X33.9090 Y23.6729
G01 X33.9151 Y23.6941
G01 X33.9228 Y23.7148
G01 X33.9288 Y23.7283
G01 X33.9390 Y23.7479
G01 X33.9465 Y23.7605
G01 X33.9590 Y23.7787
G01 X33.9681 Y23.7903
G01 X33.9827 Y23.8069
G01 X33.9931 Y23.8173
G01 X34.0097 Y23.8319
G01 X34.0213 Y23.8410
G01 X34.0333 Y23.8494
G01 X34.0521 Y23.8610
G01 X34.0651 Y23.8680
G01 X34.0852 Y23.8772
G01 X34.1059 Y23.8849
G01 X34.1200 Y23.8891
G01 X34.1415 Y23.8942
G01 X34.1633 Y23.8977
G01 X34.1779 Y23.8992
G01 X34.2000 Y23.9000
G01 X40.8074 Y23.8999
G01 X40.8294 Y23.8986
G01 X40.8513 Y23.8956
G01 X40.8729 Y23.8910
G01 X40.8941 Y23.8849
G01 X40.9148 Y23.8772
G01 X40.9283 Y23.8712
G01 X40.9479 Y23.8610
G01 X40.9667 Y23.8494
G01 X40.9846 Y23.8365
G01 X41.0015 Y23.8223
G01 X41.0173 Y23.8069
G01 X41.0319 Y23.7903
G01 X41.0453 Y23.7727
G01 X41.0573 Y23.7542
G01 X41.0680 Y23.7349
G01 X41.0749 Y23.7200
G01 X41.0749 Y26.2800
G01 X41.0680 Y26.2651
G01 X41.0573 Y26.2458
G01 X41.0453 Y26.2273
G01 X41.0319 Y26.2097
G01 X41.0173 Y26.1931
G01 X41.0015 Y26.1777
G01 X40.9846 Y26.1635
G01 X40.9667 Y26.1506
G01 X40.9479 Y26.1390
G01 X40.9283 Y26.1288
G01 X40.9080 Y26.1201
G01 X40.8871 Y26.1129
G01 X40.8657 Y26.1073
G01 X40.8440 Y26.1032
G01 X40.8221 Y26.1008
G01 X40.8000 Y26.1000
G01 X34.1926 Y26.1001
G01 X34.1706 Y26.1014
G01 X34.1560 Y26.1032
G01 X34.1415 Y26.1058
G01 X34.1200 Y26.1109
G01 X34.1059 Y26.1151
G01 X34.0852 Y26.1228
G01 X34.0717 Y26.1288
G01 X34.0586 Y26.1354
G01 X34.0395 Y26.1465
G01 X34.0273 Y26.1547
G01 X34.0097 Y26.1681
G01 X33.9985 Y26.1777
G01 X33.9879 Y26.1879
G01 X33.9777 Y26.1985
G01 X33.9681 Y26.2097
G01 X33.9547 Y26.2273
G01 X33.9427 Y26.2458
G01 X33.9320 Y26.2651
G01 X33.9228 Y26.2852
G01 X33.9151 Y26.3059
G01 X33.9090 Y26.3271
G01 X33.9044 Y26.3487
G01 X33.9014 Y26.3706
G01 X33.9001 Y26.3926
G01 X33.9000 Y29.2500
G01 X33.9004 Y29.2647
G01 X33.9014 Y29.2794
G01 X33.9032 Y29.2940
G01 X33.9058 Y29.3085
G01 X33.9090 Y29.3229
G01 X33.9129 Y29.3371
G01 X33.9201 Y29.3580
G01 X33.9288 Y29.3783
G01 X33.9354 Y29.3914
G01 X33.9427 Y29.4042
G01 X33.9547 Y29.4227
G01 X33.9635 Y29.4346
G01 X33.9728 Y29.4460
G01 X33.9827 Y29.4569
G01 X33.9931 Y29.4673
G01 X34.0097 Y29.4819
G01 X34.0213 Y29.4910
G01 X34.0333 Y29.4994
G01 X34.0458 Y29.5073
G01 X34.0586 Y29.5146
G01 X34.0717 Y29.5212
G01 X34.0852 Y29.5272
G01 X34.0989 Y29.5325
G01 X34.1129 Y29.5371
G01 X34.1271 Y29.5410
G01 X34.1415 Y29.5442
G01 X34.1560 Y29.5468
G01 X34.1706 Y29.5486
G01 X34.1926 Y29.5499
G01 X36.8290 Y29.5500
G01 X36.8033 Y29.6528
G01 X36.5951 Y30.2345
G01 X36.3309 Y30.7931
G01 X36.0133 Y31.3231
G01 X35.6452 Y31.8194
G01 X35.2232 Y32.2850
G01 X34.7393 Y32.7689
G01 X33.5404 Y30.6924
G01 X33.5327 Y30.6799
G01 X33.5245 Y30.6677
G01 X33.5109 Y30.6502
G01 X33.5012 Y30.6392
G01 X33.4910 Y30.6286
G01 X33.4747 Y30.6137
G01 X33.4632 Y30.6044
G01 X33.4513 Y30.5958
G01 X33.4390 Y30.5877
G01 X33.4263 Y30.5802
G01 X33.4133 Y30.5734
G01 X33.3999 Y30.5672
G01 X33.3863 Y30.5617
G01 X33.3724 Y30.5568
G01 X33.3583 Y30.5527
G01 X33.3367 Y30.5477
G01 X33.3222 Y30.5453
G01 X33.3002 Y30.5431
G01 X33.2855 Y30.5425
G01 X33.2708 Y30.5426
G01 X33.2488 Y30.5441
G01 X33.2269 Y30.5473
G01 X33.2053 Y30.5520
G01 X33.1842 Y30.5584
G01 X33.1635 Y30.5662
G01 X33.1501 Y30.5723
G01 X33.1370 Y30.5790
G01 X30.6624 Y32.0076
G01 X30.6499 Y32.0153
G01 X30.6377 Y32.0236
G01 X30.6202 Y32.0371
G01 X30.6092 Y32.0468
G01 X30.5986 Y32.0570
G01 X30.5837 Y32.0733
G01 X30.5744 Y32.0848
G01 X30.5658 Y32.0967
G01 X30.5539 Y32.1153
G01 X30.5467 Y32.1282
G01 X30.5402 Y32.1414
G01 X30.5343 Y32.1549
G01 X30.5292 Y32.1687
G01 X30.5227 Y32.1898
G01 X30.5192 Y32.2041
G01 X30.5164 Y32.2186
G01 X30.5144 Y32.2331
G01 X30.5131 Y32.2478
G01 X30.5125 Y32.2625
G01 X30.5126 Y32.2772
G01 X30.5134 Y32.2920
G01 X30.5150 Y32.3066
G01 X30.5187 Y32.3284
G01 X30.5220 Y32.3427
G01 X30.5261 Y32.3569
G01 X30.5308 Y32.3708
G01 X30.5362 Y32.3845
G01 X30.5423 Y32.3979
G01 X30.5490 Y32.4110
G01 X33.8564 Y38.1395
G01 X33.8644 Y38.1519
G01 X33.8729 Y38.1639
G01 X33.8869 Y38.1810
G01 X33.9020 Y38.1971
G01 X33.9183 Y38.2120
G01 X33.9298 Y38.2212
G01 X33.9417 Y38.2299
G01 X33.9603 Y38.2418
G01 X33.9797 Y38.2523
G01 X33.9999 Y38.2613
G01 X34.0207 Y38.2688
G01 X34.0348 Y38.2730
G01 X34.0491 Y38.2764
G01 X34.0708 Y38.2803
G01 X34.0928 Y38.2826
G01 X34.1149 Y38.2832
G01 X34.1296 Y38.2827
G01 X34.1443 Y38.2815
G01 X34.1661 Y38.2784
G01 X34.1877 Y38.2736
G01 X34.2019 Y38.2696
G01 X34.2227 Y38.2622
G01 X34.2429 Y38.2533
G01 X34.2624 Y38.2430
G01 X36.7369 Y36.8142
G01 X36.7554 Y36.8021
G01 X36.7728 Y36.7885
G01 X36.7892 Y36.7738
G01 X36.7996 Y36.7633
G01 X36.8094 Y36.7523
G01 X36.8230 Y36.7349
G01 X36.8354 Y36.7166
G01 X36.8428 Y36.7039
G01 X36.8497 Y36.6909
G01 X36.8587 Y36.6707
G01 X36.8639 Y36.6570
G01 X36.8684 Y36.6429
G01 X36.8738 Y36.6215
G01 X36.8766 Y36.6071
G01 X36.8786 Y36.5925
G01 X36.8804 Y36.5705
G01 X36.8806 Y36.5557
G01 X36.8801 Y36.5410
G01 X36.8789 Y36.5264
G01 X36.8758 Y36.5045
G01 X36.8728 Y36.4901
G01 X36.8691 Y36.4758
G01 X36.8647 Y36.4618
G01 X36.8568 Y36.4411
G01 X36.8507 Y36.4277
G01 X36.8440 Y36.4146
G01 X35.1793 Y33.5311
G01 X35.8369 Y32.8735
G01 X36.2891 Y32.3748
G01 X36.3065 Y32.3542
G01 X36.3156 Y32.3426
G01 X36.7086 Y31.8127
G01 X36.7279 Y31.7843
G01 X37.0709 Y31.2122
G01 X37.0839 Y31.1886
G01 X37.0905 Y31.1755
G01 X37.3756 Y30.5724
G01 X37.3885 Y30.5406
G01 X37.6132 Y29.9125
G01 X37.6229 Y29.8796
G01 X37.7054 Y29.5500
G01 X40.8074 Y29.5499
G01 X40.8221 Y29.5492
G01 X40.8440 Y29.5468
G01 X40.8657 Y29.5427
G01 X40.8800 Y29.5391
G01 X40.8941 Y29.5349
G01 X40.9148 Y29.5272
G01 X40.9283 Y29.5212
G01 X40.9414 Y29.5146
G01 X40.9542 Y29.5073
G01 X40.9667 Y29.4994
G01 X40.9846 Y29.4865
G01 X40.9960 Y29.4772
G01 X41.0069 Y29.4673
G01 X41.0223 Y29.4515
G01 X41.0319 Y29.4403
G01 X41.0411 Y29.4285
G01 X41.0175 Y29.9090
G01 X40.8472 Y31.0568
G01 X40.5653 Y32.1824
G01 X40.1743 Y33.2750
G01 X39.6782 Y34.3240
G01 X39.0817 Y35.3193
G01 X38.3904 Y36.2513
G01 X37.6111 Y37.1111
G01 X36.7513 Y37.8904
G01 X35.8193 Y38.5817
G01 X34.8240 Y39.1782
G01 X33.7750 Y39.6743
G01 X32.6824 Y40.0653
G01 X31.5568 Y40.3472
G01 X30.4090 Y40.5175
G01 X30.3149 Y40.5221
G01 X31.8376 Y39.6430
G01 X31.8501 Y39.6353
G01 X31.8623 Y39.6271
G01 X31.8798 Y39.6135
G01 X31.8962 Y39.5988
G01 X31.9115 Y39.5828
G01 X31.9256 Y39.5658
G01 X31.9384 Y39.5478
G01 X31.9498 Y39.5289
G01 X31.9598 Y39.5092
G01 X31.9657 Y39.4957
G01 X31.9708 Y39.4820
G01 X31.9773 Y39.4608
G01 X31.9823 Y39.4393
G01 X31.9856 Y39.4175
G01 X31.9873 Y39.3955
G01 X31.9874 Y39.3734
G01 X31.9866 Y39.3587
G01 X31.9850 Y39.3440
G01 X31.9813 Y39.3223
G01 X31.9760 Y39.3008
G01 X31.9716 Y39.2868
G01 X31.9638 Y39.2661
G01 X31.9577 Y39.2527
G01 X31.9474 Y39.2332
G01 X28.6436 Y33.5111
G01 X28.6356 Y33.4987
G01 X28.6271 Y33.4868
G01 X28.6131 Y33.4696
G01 X28.5980 Y33.4536
G01 X28.5817 Y33.4387
G01 X28.5702 Y33.4294
G01 X28.5583 Y33.4208
G01 X28.5397 Y33.4089
G01 X28.5203 Y33.3984
G01 X28.5001 Y33.3893
G01 X28.4793 Y33.3818
G01 X28.4581 Y33.3758
G01 X28.4437 Y33.3727
G01 X28.4292 Y33.3703
G01 X28.4072 Y33.3681
G01 X28.3851 Y33.3674
G01 X28.3630 Y33.3684
G01 X28.3484 Y33.3700
G01 X28.3339 Y33.3723
G01 X28.3123 Y33.3770
G01 X28.2981 Y33.3811
G01 X28.2773 Y33.3884
G01 X28.2571 Y33.3973
G01 X28.2376 Y33.4076
G01 X25.7694 Y34.8326
G01 X25.7568 Y34.8403
G01 X25.7387 Y34.8529
G01 X25.7272 Y34.8621
G01 X25.7108 Y34.8769
G01 X25.7004 Y34.8874
G01 X25.6859 Y34.9040
G01 X25.6727 Y34.9217
G01 X25.6646 Y34.9340
G01 X25.6537 Y34.9532
G01 X25.6441 Y34.9731
G01 X25.6361 Y34.9937
G01 X25.6316 Y35.0077
G01 X25.6262 Y35.0291
G01 X25.6223 Y35.0508
G01 X25.6200 Y35.0728
G01 X25.6194 Y35.0875
G01 X25.6199 Y35.1096
G01 X25.6211 Y35.1243
G01 X25.6242 Y35.1461
G01 X25.6272 Y35.1606
G01 X25.6330 Y35.1819
G01 X25.6378 Y35.1958
G01 X25.6432 Y35.2095
G01 X25.6525 Y35.2295
G01 X25.6596 Y35.2424
G01 X28.7383 Y40.5749
G01 X22.5000 Y40.5749
G01 X22.4730 Y40.5759
G01 X22.4510 Y40.5778
G01 X22.4243 Y40.5818
G01 X22.4027 Y40.5863
G01 X22.3766 Y40.5932
G01 X22.3511 Y40.6020
G01 X22.3306 Y40.6102
G01 X22.3062 Y40.6217
G01 X22.2868 Y40.6324
G01 X22.2638 Y40.6466
G01 X22.2518 Y40.6551
G01 X22.2303 Y40.6714
G01 X22.2101 Y40.6893
G01 X22.1994 Y40.6994
G01 X21.9494 Y40.9494
G01 X21.9310 Y40.9692
G01 X21.9214 Y40.9803
G01 X21.9124 Y40.9920
G01 X21.9007 Y41.0078
G01 X21.8926 Y41.0200
G01 X21.8751 Y41.0496
G01 X21.8685 Y41.0628
G01 X21.8573 Y41.0873
G01 X21.8479 Y41.1126
G01 X21.8432 Y41.1266
G01 X21.8346 Y41.1599
G01 X21.8318 Y41.1743
G01 X21.8288 Y41.1937
G01 X21.8270 Y41.2083
G01 X21.8259 Y41.2230
G01 X21.8249 Y41.2500
G01 X21.8249 Y41.7500
G01 X21.8253 Y41.7647
G01 X21.8264 Y41.7843
G01 X21.8278 Y41.7990
G01 X21.8318 Y41.8257
G01 X21.8346 Y41.8401
G01 X21.8432 Y41.8734
G01 X21.8479 Y41.8874
G01 X21.8573 Y41.9127
G01 X21.8633 Y41.9261
G01 X21.8751 Y41.9504
G01 X21.8926 Y41.9800
G01 X21.9007 Y41.9922
G01 X21.9168 Y42.0139
G01 X21.9262 Y42.0253
G01 X21.9393 Y42.0399
G01 X21.9494 Y42.0506
G01 X22.2547 Y42.3557
G01 X22.2803 Y42.3786
G01 X22.2920 Y42.3876
G01 X22.3089 Y42.4000
G01 X21.2511 Y42.4000
G01 X21.1751 Y42.3239
G01 X21.1751 Y40.7156
G01 X24.3364 Y35.2401
G01 X24.3434 Y35.2272
G01 X24.3498 Y35.2139
G01 X24.3556 Y35.2003
G01 X24.3606 Y35.1865
G01 X24.3650 Y35.1725
G01 X24.3703 Y35.1510
G01 X24.3729 Y35.1365
G01 X24.3749 Y35.1219
G01 X24.3761 Y35.1073
G01 X24.3765 Y35.0925
G01 X24.3759 Y35.0705
G01 X24.3737 Y35.0485
G01 X24.3713 Y35.0340
G01 X24.3681 Y35.0196
G01 X24.3643 Y35.0054
G01 X24.3598 Y34.9913
G01 X24.3518 Y34.9708
G01 X24.3423 Y34.9508
G01 X24.3351 Y34.9380
G01 X24.3273 Y34.9255
G01 X24.3190 Y34.9134
G01 X24.3100 Y34.9017
G01 X24.2955 Y34.8850
G01 X24.2852 Y34.8745
G01 X24.2744 Y34.8645
G01 X24.2631 Y34.8551
G01 X24.2513 Y34.8462
G01 X24.2391 Y34.8380
G01 X24.2266 Y34.8303
G01 X21.7584 Y33.4053
G01 X21.7389 Y33.3950
G01 X21.7186 Y33.3861
G01 X21.7048 Y33.3810
G01 X21.6908 Y33.3766
G01 X21.6693 Y33.3713
G01 X21.6548 Y33.3687
G01 X21.6402 Y33.3668
G01 X21.6182 Y33.3653
G01 X21.6035 Y33.3651
G01 X21.5888 Y33.3657
G01 X21.5668 Y33.3680
G01 X21.5450 Y33.3719
G01 X21.5236 Y33.3773
G01 X21.5096 Y33.3818
G01 X21.4958 Y33.3870
G01 X21.4757 Y33.3960
G01 X21.4627 Y33.4029
G01 X21.4500 Y33.4103
G01 X21.4376 Y33.4184
G01 X21.4258 Y33.4271
G01 X21.4087 Y33.4412
G01 X21.3928 Y33.4565
G01 X21.3828 Y33.4673
G01 X21.3734 Y33.4786
G01 X21.3603 Y33.4964
G01 X21.3486 Y33.5151
G01 X18.0486 Y39.2309
G01 X18.0382 Y39.2504
G01 X18.0294 Y39.2706
G01 X18.0220 Y39.2914
G01 X18.0162 Y39.3127
G01 X18.0120 Y39.3344
G01 X18.0094 Y39.3563
G01 X18.0084 Y39.3784
G01 X18.0090 Y39.4005
G01 X18.0113 Y39.4225
G01 X18.0151 Y39.4442
G01 X18.0206 Y39.4656
G01 X18.0276 Y39.4865
G01 X18.0361 Y39.5069
G01 X18.0462 Y39.5266
G01 X18.0576 Y39.5455
G01 X18.0704 Y39.5635
G01 X18.0845 Y39.5805
G01 X18.0997 Y39.5964
G01 X18.1162 Y39.6112
G01 X18.1336 Y39.6247
G01 X18.1458 Y39.6330
G01 X18.1584 Y39.6407
G01 X19.6910 Y40.5255
G01 X19.6590 Y40.5240
G01 X18.5773 Y40.3731
G01 X17.5141 Y40.1231
G01 X16.4785 Y39.7760
G01 X15.4794 Y39.3348
G01 X14.5252 Y38.8034
G01 X13.6241 Y38.1861
G01 X12.7839 Y37.4884
G01 X12.0116 Y36.7161
G01 X11.3139 Y35.8758
G01 X10.6966 Y34.9748
G01 X10.1651 Y34.0206
G01 X9.7240 Y33.0215
G01 X9.3769 Y31.9859
G01 X9.1268 Y30.9227
G01 X8.9760 Y29.8410
G01 X8.9570 Y29.4320
G01 X8.9696 Y29.4468
G01 X8.9798 Y29.4574
G01 X8.9904 Y29.4676
G01 X9.0016 Y29.4772
G01 X9.0191 Y29.4906
G01 X9.0314 Y29.4988
G01 X9.0440 Y29.5063
G01 X9.0570 Y29.5133
G01 X9.0703 Y29.5196
G01 X9.0839 Y29.5252
G01 X9.0978 Y29.5302
G01 X9.1190 Y29.5363
G01 X9.1406 Y29.5409
G01 X9.1552 Y29.5431
G01 X9.1698 Y29.5445
G01 X9.1845 Y29.5452
G01 X12.2824 Y29.5453
G01 X12.3058 Y29.6510
G01 X12.3135 Y29.6806
G01 X12.4916 Y30.2458
G01 X12.4996 Y30.2684
G01 X12.5043 Y30.2806
G01 X12.7286 Y30.8221
G01 X12.7385 Y30.8439
G01 X12.7443 Y30.8557
G01 X13.0149 Y31.3755
G01 X13.0266 Y31.3964
G01 X13.0334 Y31.4076
G01 X13.3483 Y31.9019
G01 X13.3619 Y31.9217
G01 X13.3696 Y31.9323
G01 X13.7264 Y32.3972
G01 X13.7416 Y32.4158
G01 X13.7502 Y32.4256
G01 X14.1534 Y32.8654
G01 X14.8166 Y33.5288
G01 X13.1519 Y36.4123
G01 X13.1452 Y36.4254
G01 X13.1363 Y36.4456
G01 X13.1313 Y36.4594
G01 X13.1269 Y36.4735
G01 X13.1232 Y36.4877
G01 X13.1202 Y36.5022
G01 X13.1170 Y36.5240
G01 X13.1158 Y36.5387
G01 X13.1154 Y36.5608
G01 X13.1160 Y36.5755
G01 X13.1173 Y36.5901
G01 X13.1193 Y36.6047
G01 X13.1221 Y36.6192
G01 X13.1276 Y36.6406
G01 X13.1321 Y36.6546
G01 X13.1372 Y36.6684
G01 X13.1463 Y36.6885
G01 X13.1531 Y36.7016
G01 X13.1606 Y36.7143
G01 X13.1729 Y36.7326
G01 X13.1866 Y36.7499
G01 X13.2015 Y36.7663
G01 X13.2175 Y36.7814
G01 X13.2288 Y36.7908
G01 X13.2406 Y36.7997
G01 X13.2590 Y36.8119
G01 X15.7335 Y38.2407
G01 X15.7530 Y38.2510
G01 X15.7664 Y38.2571
G01 X15.7871 Y38.2649
G01 X15.8011 Y38.2693
G01 X15.8226 Y38.2746
G01 X15.8371 Y38.2772
G01 X15.8517 Y38.2792
G01 X15.8737 Y38.2807
G01 X15.8884 Y38.2808
G01 X15.9031 Y38.2802
G01 X15.9251 Y38.2780
G01 X15.9468 Y38.2741
G01 X15.9682 Y38.2686
G01 X15.9823 Y38.2641
G01 X15.9960 Y38.2590
G01 X16.0162 Y38.2499
G01 X16.0292 Y38.2431
G01 X16.0419 Y38.2356
G01 X16.0602 Y38.2233
G01 X16.0776 Y38.2096
G01 X16.0886 Y38.1998
G01 X16.0991 Y38.1895
G01 X16.1138 Y38.1731
G01 X16.1274 Y38.1556
G01 X16.1396 Y38.1372
G01 X19.4433 Y32.4151
G01 X19.4504 Y32.4022
G01 X19.4568 Y32.3889
G01 X19.4651 Y32.3685
G01 X19.4699 Y32.3545
G01 X19.4739 Y32.3404
G01 X19.4773 Y32.3260
G01 X19.4809 Y32.3043
G01 X19.4830 Y32.2823
G01 X19.4835 Y32.2602
G01 X19.4823 Y32.2381
G01 X19.4806 Y32.2235
G01 X19.4782 Y32.2090
G01 X19.4733 Y32.1874
G01 X19.4668 Y32.1663
G01 X19.4616 Y32.1526
G01 X19.4557 Y32.1390
G01 X19.4457 Y32.1194
G01 X19.4383 Y32.1067
G01 X19.4302 Y32.0944
G01 X19.4170 Y32.0767
G01 X19.4025 Y32.0600
G01 X19.3921 Y32.0495
G01 X19.3813 Y32.0395
G01 X19.3642 Y32.0256
G01 X19.3461 Y32.0130
G01 X19.3335 Y32.0053
G01 X16.8589 Y30.5767
G01 X16.8391 Y30.5668
G01 X16.8187 Y30.5585
G01 X16.7977 Y30.5516
G01 X16.7763 Y30.5463
G01 X16.7545 Y30.5427
G01 X16.7325 Y30.5406
G01 X16.7104 Y30.5401
G01 X16.6884 Y30.5413
G01 X16.6737 Y30.5430
G01 X16.6520 Y30.5469
G01 X16.6377 Y30.5503
G01 X16.6236 Y30.5545
G01 X16.6097 Y30.5593
G01 X16.5893 Y30.5679
G01 X16.5761 Y30.5744
G01 X16.5632 Y30.5815
G01 X16.5446 Y30.5934
G01 X16.5327 Y30.6021
G01 X16.5212 Y30.6113
G01 X16.5103 Y30.6211
G01 X16.4998 Y30.6315
G01 X16.4850 Y30.6479
G01 X16.4715 Y30.6654
G01 X16.4632 Y30.6775
G01 X16.4555 Y30.6901
G01 X15.2567 Y32.7666
G01 X14.7670 Y32.2770
G01 X14.3895 Y31.8650
G01 X14.0553 Y31.4295
G01 X13.7604 Y30.9665
G01 X13.5069 Y30.4796
G01 X13.2968 Y29.9724
G01 X13.1622 Y29.5453
G01 X15.7919 Y29.5453
G01 X15.8140 Y29.5445
G01 X15.8286 Y29.5431
G01 X15.8504 Y29.5396
G01 X15.8719 Y29.5345
G01 X15.8930 Y29.5278
G01 X15.9135 Y29.5196
G01 X15.9333 Y29.5099
G01 X15.9461 Y29.5026
G01 X15.9646 Y29.4906
G01 X15.9822 Y29.4772
G01 X15.9934 Y29.4676
G01 X16.0092 Y29.4522
G01 X16.0238 Y29.4356
G01 X16.0372 Y29.4181
G01 X16.0453 Y29.4058
G01 X16.0565 Y29.3867
G01 X16.0662 Y29.3669
G01 X16.0718 Y29.3533
G01 X16.0767 Y29.3394
G01 X16.0810 Y29.3253
G01 X16.0861 Y29.3038
G01 X16.0886 Y29.2893
G01 X16.0904 Y29.2747
G01 X16.0915 Y29.2600
G01 X16.0919 Y29.2453
G01 X16.0919 Y26.3953
G01 X16.0915 Y26.3806
G01 X16.0904 Y26.3659
G01 X16.0875 Y26.3440
G01 X16.0846 Y26.3296
G01 X16.0790 Y26.3082
G01 X16.0718 Y26.2873
G01 X16.0662 Y26.2737
G01 X16.0565 Y26.2539
G01 X16.0492 Y26.2411
G01 X16.0372 Y26.2226
G01 X16.0284 Y26.2107
G01 X16.0142 Y26.1939
G01 X16.0040 Y26.1832
G01 X15.9878 Y26.1682
G01 X15.9706 Y26.1544
G01 X15.9524 Y26.1419
G01 X15.9398 Y26.1343
G01 X15.9202 Y26.1241
G01 X15.8999 Y26.1154
G01 X15.8860 Y26.1105
G01 X15.8648 Y26.1043
G01 X15.8432 Y26.0997
G01 X15.8286 Y26.0976
G01 X15.8140 Y26.0961
G01 X15.7919 Y26.0953
G01 X9.1845 Y26.0954
G01 X9.1698 Y26.0961
G01 X9.1479 Y26.0986
G01 X9.1262 Y26.1026
G01 X9.1048 Y26.1082
G01 X9.0839 Y26.1154
G01 X9.0636 Y26.1241
G01 X9.0505 Y26.1307
G01 X9.0314 Y26.1419
G01 X9.0132 Y26.1544
G01 X9.0016 Y26.1634
G01 X8.9850 Y26.1780
G01 X8.9696 Y26.1939
G01 X8.9554 Y26.2107
G01 X8.9466 Y26.2226
G01 X8.9346 Y26.2411
G01 X8.9251 Y26.2582
G01 X8.9251 Y23.7324
G01 X8.9346 Y23.7495
G01 X8.9466 Y23.7681
G01 X8.9600 Y23.7856
G01 X8.9746 Y23.8022
G01 X8.9904 Y23.8176
G01 X9.0073 Y23.8318
G01 X9.0191 Y23.8406
G01 X9.0377 Y23.8526
G01 X9.0570 Y23.8633
G01 X9.0771 Y23.8725
G01 X9.0908 Y23.8778
G01 X9.1119 Y23.8845
G01 X9.1334 Y23.8896
G01 X9.1552 Y23.8931
G01 X9.1772 Y23.8950
G01 X9.1919 Y23.8953
G01 X15.7993 Y23.8952
G01 X15.8213 Y23.8939
G01 X15.8359 Y23.8921
G01 X15.8504 Y23.8896
G01 X15.8719 Y23.8845
G01 X15.8930 Y23.8778
G01 X15.9135 Y23.8696
G01 X15.9333 Y23.8599
G01 X15.9461 Y23.8526
G01 X15.9586 Y23.8448
G01 X15.9765 Y23.8318
G01 X15.9934 Y23.8176
G01 X16.0040 Y23.8074
G01 X16.0191 Y23.7913
G01 X16.0284 Y23.7799
G01 X16.0413 Y23.7620
G01 X16.0529 Y23.7432
G01 X16.0599 Y23.7302
G01 X16.0691 Y23.7101
G01 X16.0767 Y23.6894
G01 X16.0810 Y23.6753
G01 X16.0861 Y23.6538
G01 X16.0896 Y23.6320
G01 X16.0911 Y23.6174
G01 X16.0919 Y23.5953
G01 X16.0919 Y20.7453
G01 X16.0915 Y20.7306
G01 X16.0896 Y20.7086
G01 X16.0875 Y20.6940
G01 X16.0829 Y20.6724
G01 X16.0767 Y20.6512
G01 X16.0718 Y20.6373
G01 X16.0631 Y20.6171
G01 X16.0565 Y20.6039
G01 X16.0453 Y20.5848
G01 X16.0372 Y20.5726
G01 X16.0238 Y20.5550
G01 X16.0142 Y20.5439
G01 X15.9988 Y20.5280
G01 X15.9878 Y20.5182
G01 X15.9706 Y20.5044
G01 X15.9524 Y20.4919
G01 X15.9333 Y20.4807
G01 X15.9202 Y20.4741
G01 X15.8999 Y20.4654
G01 X15.8860 Y20.4605
G01 X15.8719 Y20.4562
G01 X15.8504 Y20.4511
G01 X15.8286 Y20.4476
G01 X15.8066 Y20.4457
G01 X15.7919 Y20.4453
G01 X13.1629 Y20.4453
G01 X13.1886 Y20.3426
G01 X13.3968 Y19.7608
G01 X13.6609 Y19.2022
G01 X13.9786 Y18.6722
G01 X14.3467 Y18.1759
G01 X14.7687 Y17.7103
G01 X15.2526 Y17.2264
G01 X16.4515 Y19.3029
G01 X16.4591 Y19.3155
G01 X16.4674 Y19.3276
G01 X16.4763 Y19.3394
G01 X16.4857 Y19.3507
G01 X16.5009 Y19.3667
G01 X16.5116 Y19.3768
G01 X16.5287 Y19.3909
G01 X16.5406 Y19.3996
G01 X16.5529 Y19.4076
G01 X16.5720 Y19.4186
G01 X16.5852 Y19.4251
G01 X16.5987 Y19.4310
G01 X16.6125 Y19.4362
G01 X16.6265 Y19.4407
G01 X16.6408 Y19.4445
G01 X16.6552 Y19.4476
G01 X16.6770 Y19.4509
G01 X16.6917 Y19.4522
G01 X16.7064 Y19.4528
G01 X16.7285 Y19.4524
G01 X16.7504 Y19.4503
G01 X16.7722 Y19.4466
G01 X16.7937 Y19.4414
G01 X16.8147 Y19.4345
G01 X16.8351 Y19.4261
G01 X16.8549 Y19.4163
G01 X19.3358 Y17.9839
G01 X19.3542 Y17.9717
G01 X19.3660 Y17.9629
G01 X19.3827 Y17.9485
G01 X19.3984 Y17.9330
G01 X19.4129 Y17.9163
G01 X19.4219 Y17.9046
G01 X19.4342 Y17.8863
G01 X19.4417 Y17.8736
G01 X19.4517 Y17.8539
G01 X19.4575 Y17.8404
G01 X19.4651 Y17.8197
G01 X19.4692 Y17.8055
G01 X19.4742 Y17.7840
G01 X19.4766 Y17.7695
G01 X19.4788 Y17.7475
G01 X19.4794 Y17.7254
G01 X19.4790 Y17.7107
G01 X19.4769 Y17.6887
G01 X19.4732 Y17.6670
G01 X19.4679 Y17.6455
G01 X19.4611 Y17.6245
G01 X19.4557 Y17.6108
G01 X19.4463 Y17.5908
G01 X19.4393 Y17.5779
G01 X16.1393 Y11.8621
G01 X16.1275 Y11.8434
G01 X16.1189 Y11.8314
G01 X16.1050 Y11.8143
G01 X16.0898 Y11.7983
G01 X16.0735 Y11.7834
G01 X16.0621 Y11.7741
G01 X16.0441 Y11.7613
G01 X16.0252 Y11.7499
G01 X16.0055 Y11.7399
G01 X15.9920 Y11.7340
G01 X15.9712 Y11.7265
G01 X15.9500 Y11.7205
G01 X15.9356 Y11.7174
G01 X15.9137 Y11.7141
G01 X15.8991 Y11.7128
G01 X15.8770 Y11.7121
G01 X15.8549 Y11.7131
G01 X15.8403 Y11.7147
G01 X15.8185 Y11.7184
G01 X15.8042 Y11.7217
G01 X15.7900 Y11.7258
G01 X15.7692 Y11.7331
G01 X15.7490 Y11.7420
G01 X15.7359 Y11.7487
G01 X13.2550 Y13.1811
G01 X13.2365 Y13.1933
G01 X13.2191 Y13.2068
G01 X13.2026 Y13.2215
G01 X13.1874 Y13.2375
G01 X13.1733 Y13.2545
G01 X13.1605 Y13.2725
G01 X13.1491 Y13.2914
G01 X13.1422 Y13.3044
G01 X13.1360 Y13.3178
G01 X13.1305 Y13.3314
G01 X13.1235 Y13.3524
G01 X13.1197 Y13.3666
G01 X13.1166 Y13.3810
G01 X13.1142 Y13.3955
G01 X13.1125 Y13.4102
G01 X13.1113 Y13.4322
G01 X13.1114 Y13.4469
G01 X13.1123 Y13.4616
G01 X13.1138 Y13.4763
G01 X13.1175 Y13.4980
G01 X13.1209 Y13.5124
G01 X13.1272 Y13.5335
G01 X13.1323 Y13.5474
G01 X13.1411 Y13.5676
G01 X13.1479 Y13.5807
G01 X14.8126 Y16.4642
G01 X14.1550 Y17.1219
G01 X13.7028 Y17.6205
G01 X13.6854 Y17.6411
G01 X13.6763 Y17.6527
G01 X13.2833 Y18.1826
G01 X13.2640 Y18.2110
G01 X12.9210 Y18.7831
G01 X12.9080 Y18.8067
G01 X12.9014 Y18.8199
G01 X12.6163 Y19.4229
G01 X12.6034 Y19.4547
G01 X12.3787 Y20.0828
G01 X12.3690 Y20.1157
G01 X12.2865 Y20.4453
G01 X9.1919 Y20.4453
G01 X9.1772 Y20.4457
G01 X9.1625 Y20.4468
G01 X9.1406 Y20.4497
G01 X9.1190 Y20.4543
G01 X9.0960 Y20.4611
G01 X9.1864 Y19.8518
G01 X9.5101 Y18.5596
G01 X9.9589 Y17.3053
G01 X10.5284 Y16.1011
G01 X11.2133 Y14.9585
G01 X12.0068 Y13.8885
G01 X12.9014 Y12.9014
G01 X13.8885 Y12.0068
G01 X14.9585 Y11.2133
G01 X16.1011 Y10.5284
G01 X17.3053 Y9.9589
G01 X18.5596 Y9.5101
G01 X19.8518 Y9.1864
G01 X20.2851 Y9.1221
G01 X18.1543 Y10.3523
G00 Z2.0000
G00 X18.2293 Y10.4822
G01 F50.00
G01 Z-0.0500
G01 F50.00
G01 X20.7007 Y9.0554
G01 X20.7106 Y9.0505
G01 X20.7208 Y9.0463
G01 X20.7313 Y9.0429
G01 X20.7420 Y9.0402
G01 X20.7529 Y9.0384
G01 X20.7639 Y9.0374
G01 X20.7750 Y9.0371
G01 X20.7823 Y9.0374
G01 X20.7933 Y9.0386
G01 X20.8042 Y9.0405
G01 X20.8149 Y9.0432
G01 X20.8219 Y9.0455
G01 X20.8322 Y9.0495
G01 X20.8421 Y9.0543
G01 X20.8517 Y9.0597
G01 X20.8609 Y9.0659
G01 X20.8695 Y9.0727
G01 X20.8750 Y9.0776
G01 X20.8853 Y9.0882
G01 X20.8944 Y9.0997
G01 X20.9024 Y9.1121
G01 X24.1430 Y14.7249
G01 X25.8462 Y14.7249
G01 X29.0854 Y9.1145
G01 X29.0913 Y9.1051
G01 X29.0978 Y9.0962
G01 X29.1050 Y9.0878
G01 X29.1128 Y9.0800
G01 X29.1183 Y9.0751
G01 X29.1270 Y9.0683
G01 X29.1361 Y9.0621
G01 X29.1457 Y9.0566
G01 X29.1557 Y9.0518
G01 X29.1625 Y9.0491
G01 X29.1695 Y9.0466
G01 X29.1801 Y9.0437
G01 X29.1909 Y9.0415
G01 X29.1982 Y9.0404
G01 X29.2055 Y9.0398
G01 X29.2166 Y9.0395
G01 X29.2239 Y9.0397
G01 X29.2349 Y9.0407
G01 X29.2458 Y9.0426
G01 X29.2530 Y9.0443
G01 X29.2636 Y9.0474
G01 X29.2705 Y9.0500
G01 X29.2806 Y9.0544
G01 X29.2871 Y9.0578
G01 X31.7585 Y10.4846
G01 X31.7679 Y10.4904
G01 X31.7768 Y10.4970
G01 X31.7824 Y10.5017
G01 X31.7904 Y10.5093
G01 X31.7979 Y10.5174
G01 X31.8025 Y10.5231
G01 X31.8089 Y10.5321
G01 X31.8146 Y10.5416
G01 X31.8196 Y10.5514
G01 X31.8239 Y10.5616
G01 X31.8263 Y10.5686
G01 X31.8293 Y10.5792
G01 X31.8315 Y10.5900
G01 X31.8325 Y10.5973
G01 X31.8332 Y10.6046
G01 X31.8335 Y10.6157
G01 X31.8333 Y10.6230
G01 X31.8322 Y10.6340
G01 X31.8304 Y10.6449
G01 X31.8287 Y10.6521
G01 X31.8267 Y10.6592
G01 X31.8230 Y10.6696
G01 X31.8186 Y10.6797
G01 X31.8134 Y10.6895
G01 X28.5134 Y16.4052
G01 X28.5075 Y16.4146
G01 X28.5033 Y16.4206
G01 X28.4963 Y16.4291
G01 X28.4887 Y16.4372
G01 X28.4806 Y16.4446
G01 X28.4748 Y16.4492
G01 X28.4689 Y16.4536
G01 X28.4596 Y16.4595
G01 X28.4531 Y16.4631
G01 X28.4432 Y16.4678
G01 X28.4329 Y16.4719
G01 X28.4223 Y16.4751
G01 X28.4152 Y16.4768
G01 X28.4043 Y16.4788
G01 X28.3933 Y16.4799
G01 X28.3860 Y16.4802
G01 X28.3749 Y16.4800
G01 X28.3676 Y16.4794
G01 X28.3567 Y16.4778
G01 X28.3494 Y16.4763
G01 X28.3388 Y16.4734
G01 X28.3318 Y16.4710
G01 X28.3216 Y16.4669
G01 X28.3117 Y16.4619
G01 X26.2559 Y15.2751
G01 X23.7279 Y15.2751
G01 X21.6793 Y16.4578
G01 X21.6729 Y16.4613
G01 X21.6629 Y16.4660
G01 X21.6525 Y16.4699
G01 X21.6420 Y16.4731
G01 X21.6312 Y16.4755
G01 X21.6239 Y16.4766
G01 X21.6129 Y16.4776
G01 X21.6019 Y16.4779
G01 X21.5945 Y16.4776
G01 X21.5835 Y16.4764
G01 X21.5763 Y16.4752
G01 X21.5655 Y16.4728
G01 X21.5549 Y16.4695
G01 X21.5447 Y16.4655
G01 X21.5380 Y16.4624
G01 X21.5283 Y16.4572
G01 X21.5190 Y16.4512
G01 X21.5101 Y16.4446
G01 X21.5018 Y16.4374
G01 X21.4965 Y16.4322
G01 X21.4892 Y16.4240
G01 X21.4846 Y16.4182
G01 X21.4803 Y16.4122
G01 X21.4744 Y16.4029
G01 X18.1744 Y10.6871
G01 X18.1677 Y10.6740
G01 X18.1623 Y10.6603
G01 X18.1582 Y10.6462
G01 X18.1556 Y10.6317
G01 X18.1544 Y10.6170
G01 X18.1546 Y10.6023
G01 X18.1563 Y10.5877
G01 X18.1594 Y10.5733
G01 X18.1639 Y10.5593
G01 X18.1698 Y10.5458
G01 X18.1769 Y10.5329
G01 X18.1853 Y10.5208
G01 X18.1948 Y10.5096
G01 X18.2054 Y10.4993
G01 X18.2170 Y10.4902
G01 X18.2293 Y10.4822
G00 Z2.0000
G00 X24.5749 Y11.7440
G01 F50.00
G01 Z-0.0500
G01 F50.00
G01 X24.5589 Y11.7569
G01 X24.5371 Y11.7767
G01 X24.5267 Y11.7871
G01 X24.5069 Y11.8089
G01 X24.4931 Y11.8261
G01 X24.4758 Y11.8500
G01 X24.4604 Y11.8751
G01 X24.4531 Y11.8879
G01 X24.4465 Y11.9010
G01 X24.4343 Y11.9278
G01 X24.4240 Y11.9554
G01 X24.4194 Y11.9694
G01 X24.4154 Y11.9836
G01 X24.4086 Y12.0122
G01 X24.4040 Y12.0413
G01 X24.4015 Y12.0632
G01 X24.4004 Y12.0853
G01 X24.4000 Y12.1000
G01 X24.4001 Y13.2824
G01 X24.4011 Y13.3044
G01 X24.4022 Y13.3191
G01 X24.4061 Y13.3483
G01 X24.4086 Y13.3628
G01 X24.4154 Y13.3914
G01 X24.4194 Y13.4056
G01 X24.4240 Y13.4196
G01 X24.4315 Y13.4404
G01 X24.4402 Y13.4607
G01 X24.4531 Y13.4871
G01 X24.4680 Y13.5126
G01 X24.4758 Y13.5250
G01 X24.4931 Y13.5489
G01 X24.5069 Y13.5661
G01 X24.5267 Y13.5879
G01 X24.5425 Y13.6034
G01 X24.5645 Y13.6229
G01 X24.5880 Y13.6407
G01 X24.6062 Y13.6532
G01 X24.6314 Y13.6683
G01 X24.6510 Y13.6785
G01 X24.6778 Y13.6907
G01 X24.7054 Y13.7010
G01 X24.7264 Y13.7077
G01 X24.7550 Y13.7148
G01 X24.7767 Y13.7189
G01 X24.8059 Y13.7228
G01 X24.8353 Y13.7246
G01 X24.8500 Y13.7250
G01 X25.1574 Y13.7249
G01 X25.1794 Y13.7239
G01 X25.1941 Y13.7228
G01 X25.2233 Y13.7189
G01 X25.2378 Y13.7164
G01 X25.2664 Y13.7096
G01 X25.2806 Y13.7056
G01 X25.2946 Y13.7010
G01 X25.3154 Y13.6935
G01 X25.3357 Y13.6848
G01 X25.3556 Y13.6753
G01 X25.3686 Y13.6683
G01 X25.3876 Y13.6570
G01 X25.4000 Y13.6492
G01 X25.4120 Y13.6407
G01 X25.4297 Y13.6275
G01 X25.4411 Y13.6181
G01 X25.4575 Y13.6034
G01 X25.4733 Y13.5879
G01 X25.4882 Y13.5716
G01 X25.4979 Y13.5605
G01 X25.5157 Y13.5370
G01 X25.5242 Y13.5250
G01 X25.5320 Y13.5126
G01 X25.5433 Y13.4936
G01 X25.5503 Y13.4806
G01 X25.5598 Y13.4607
G01 X25.5657 Y13.4472
G01 X25.5760 Y13.4196
G01 X25.5827 Y13.3986
G01 X25.5881 Y13.3772
G01 X25.5914 Y13.3628
G01 X25.5939 Y13.3483
G01 X25.5970 Y13.3264
G01 X25.5989 Y13.3044
G01 X25.6000 Y13.2750
G01 X25.6000 Y12.1000
G01 X25.5996 Y12.0853
G01 X25.5978 Y12.0559
G01 X25.5939 Y12.0267
G01 X25.5914 Y12.0122
G01 X25.5846 Y11.9836
G01 X25.5806 Y11.9694
G01 X25.5710 Y11.9415
G01 X25.5657 Y11.9278
G01 X25.5535 Y11.9010
G01 X25.5433 Y11.8814
G01 X25.5282 Y11.8562
G01 X25.5200 Y11.8439
G01 X25.5025 Y11.8203
G01 X25.4931 Y11.8089
G01 X25.4733 Y11.7871
G01 X25.4629 Y11.7767
G01 X25.4411 Y11.7569
G01 X25.4251 Y11.7440
G01 X25.4251 Y11.6488
G01 X25.4343 Y11.6620
G01 X25.4521 Y11.6855
G01 X25.4618 Y11.6966
G01 X25.4767 Y11.7129
G01 X25.4871 Y11.7233
G01 X25.5089 Y11.7431
G01 X25.5203 Y11.7525
G01 X25.5380 Y11.7657
G01 X25.5562 Y11.7782
G01 X25.5751 Y11.7896
G01 X25.5879 Y11.7969
G01 X25.6010 Y11.8035
G01 X25.6210 Y11.8128
G01 X25.6346 Y11.8185
G01 X25.6624 Y11.8284
G01 X25.6764 Y11.8327
G01 X25.6978 Y11.8381
G01 X25.7122 Y11.8414
G01 X25.7413 Y11.8460
G01 X25.7632 Y11.8485
G01 X25.7926 Y11.8499
G01 X26.1000 Y11.8500
G01 X26.1147 Y11.8496
G01 X26.1441 Y11.8478
G01 X26.1587 Y11.8460
G01 X26.1806 Y11.8427
G01 X26.1950 Y11.8398
G01 X26.2164 Y11.8346
G01 X26.2376 Y11.8284
G01 X26.2585 Y11.8210
G01 X26.2722 Y11.8157
G01 X26.2857 Y11.8098
G01 X26.3056 Y11.8003
G01 X26.3186 Y11.7933
G01 X26.3376 Y11.7820
G01 X26.3561 Y11.7700
G01 X26.3739 Y11.7569
G01 X26.3855 Y11.7479
G01 X26.3966 Y11.7382
G01 X26.4129 Y11.7233
G01 X26.4284 Y11.7075
G01 X26.4431 Y11.6911
G01 X26.4525 Y11.6797
G01 X26.4657 Y11.6620
G01 X26.4742 Y11.6500
G01 X26.4820 Y11.6376
G01 X26.4933 Y11.6186
G01 X26.5035 Y11.5990
G01 X26.5128 Y11.5790
G01 X26.5185 Y11.5654
G01 X26.5260 Y11.5446
G01 X26.5306 Y11.5306
G01 X26.5346 Y11.5164
G01 X26.5398 Y11.4950
G01 X26.5439 Y11.4733
G01 X26.5478 Y11.4441
G01 X26.5489 Y11.4294
G01 X26.5499 Y11.4074
G01 X26.5500 Y10.2250
G01 X26.5496 Y10.2103
G01 X26.5485 Y10.1882
G01 X26.5470 Y10.1736
G01 X26.5427 Y10.1444
G01 X26.5398 Y10.1300
G01 X26.5327 Y10.1014
G01 X26.5284 Y10.0874
G01 X26.5185 Y10.0596
G01 X26.5128 Y10.0460
G01 X26.5003 Y10.0194
G01 X26.4933 Y10.0064
G01 X26.4782 Y9.9812
G01 X26.4700 Y9.9689
G01 X26.4525 Y9.9453
G01 X26.4431 Y9.9339
G01 X26.4233 Y9.9121
G01 X26.4129 Y9.9017
G01 X26.3895 Y9.8805
G01 X26.3947 Y9.8434
G01 X26.4184 Y9.7423
G01 X26.4515 Y9.6438
G01 X26.4934 Y9.5488
G01 X26.5439 Y9.4580
G01 X26.6026 Y9.3723
G01 X26.6690 Y9.2924
G01 X26.7424 Y9.2190
G01 X26.8223 Y9.1526
G01 X26.9080 Y9.0939
G01 X26.9988 Y9.0434
G01 X27.0938 Y9.0015
G01 X27.1923 Y8.9684
G01 X27.2934 Y8.9447
G01 X27.3962 Y8.9303
G01 X27.4994 Y8.9255
G01 X28.8305 Y8.9909
G01 X28.9734 Y9.0121
G01 X28.9632 Y9.0269
G01 X28.9555 Y9.0395
G01 X25.7596 Y14.5749
G01 X24.2296 Y14.5749
G01 X21.0323 Y9.0371
G01 X21.0246 Y9.0245
G01 X21.0172 Y9.0135
G01 X21.1695 Y8.9909
G01 X22.5006 Y8.9255
G01 X22.6038 Y8.9303
G01 X22.7066 Y8.9447
G01 X22.8077 Y8.9684
G01 X22.9062 Y9.0015
G01 X23.0012 Y9.0434
G01 X23.0920 Y9.0939
G01 X23.1777 Y9.1526
G01 X23.2576 Y9.2190
G01 X23.3310 Y9.2924
G01 X23.3974 Y9.3723
G01 X23.4561 Y9.4580
G01 X23.5066 Y9.5488
G01 X23.5485 Y9.6438
G01 X23.5816 Y9.7423
G01 X23.6053 Y9.8434
G01 X23.6105 Y9.8805
G01 X23.5871 Y9.9017
G01 X23.5767 Y9.9121
G01 X23.5569 Y9.9339
G01 X23.5475 Y9.9453
G01 X23.5300 Y9.9689
G01 X23.5218 Y9.9812
G01 X23.5067 Y10.0064
G01 X23.4997 Y10.0194
G01 X23.4872 Y10.0460
G01 X23.4815 Y10.0596
G01 X23.4716 Y10.0874
G01 X23.4673 Y10.1014
G01 X23.4602 Y10.1300
G01 X23.4573 Y10.1444
G01 X23.4530 Y10.1736
G01 X23.4515 Y10.1882
G01 X23.4504 Y10.2103
G01 X23.4500 Y10.2250
G01 X23.4501 Y11.4074
G01 X23.4515 Y11.4368
G01 X23.4540 Y11.4587
G01 X23.4586 Y11.4878
G01 X23.4654 Y11.5164
G01 X23.4716 Y11.5376
G01 X23.4815 Y11.5654
G01 X23.4902 Y11.5857
G01 X23.5031 Y11.6121
G01 X23.5180 Y11.6376
G01 X23.5300 Y11.6561
G01 X23.5431 Y11.6739
G01 X23.5521 Y11.6855
G01 X23.5716 Y11.7075
G01 X23.5871 Y11.7233
G01 X23.6089 Y11.7431
G01 X23.6261 Y11.7569
G01 X23.6500 Y11.7742
G01 X23.6751 Y11.7896
G01 X23.6944 Y11.8003
G01 X23.7210 Y11.8128
G01 X23.7415 Y11.8210
G01 X23.7694 Y11.8306
G01 X23.7978 Y11.8381
G01 X23.8194 Y11.8427
G01 X23.8486 Y11.8470
G01 X23.8706 Y11.8489
G01 X23.9000 Y11.8500
G01 X24.2074 Y11.8499
G01 X24.2368 Y11.8485
G01 X24.2587 Y11.8460
G01 X24.2878 Y11.8414
G01 X24.3022 Y11.8381
G01 X24.3236 Y11.8327
G01 X24.3376 Y11.8284
G01 X24.3654 Y11.8185
G01 X24.3790 Y11.8128
G01 X24.3990 Y11.8035
G01 X24.4186 Y11.7933
G01 X24.4376 Y11.7820
G01 X24.4500 Y11.7742
G01 X24.4620 Y11.7657
G01 X24.4797 Y11.7525
G01 X24.4911 Y11.7431
G01 X24.5129 Y11.7233
G01 X24.5233 Y11.7129
G01 X24.5382 Y11.6966
G01 X24.5479 Y11.6855
G01 X24.5657 Y11.6620
G01 X24.5749 Y11.6488
G01 X24.5749 Y11.7440
G00 Z2.0000
G00 X24.7249 Y11.8275
G01 F50.00
G01 Z-0.0500
G01 F50.00
G01 X24.7249 Y8.2500
G01 X24.7263 Y8.2230
G01 X24.7302 Y8.1963
G01 X24.7348 Y8.1772
G01 X24.7379 Y8.1666
G01 X24.7459 Y8.1447
G01 X24.7574 Y8.1203
G01 X24.7674 Y8.1034
G01 X24.7755 Y8.0912
G01 X24.7897 Y8.0727
G01 X24.8055 Y8.0555
G01 X25.2700 Y7.5910
G01 X25.2700 Y6.1500
G01 X25.2707 Y6.1353
G01 X25.2729 Y6.1207
G01 X25.2765 Y6.1065
G01 X25.2814 Y6.0926
G01 X25.2860 Y6.0826
G01 X25.2913 Y6.0729
G01 X25.2974 Y6.0636
G01 X25.3040 Y6.0548
G01 X25.3114 Y6.0466
G01 X25.3193 Y6.0389
G01 X25.3277 Y6.0317
G01 X25.3336 Y6.0274
G01 X25.3429 Y6.0213
G01 X25.3493 Y6.0177
G01 X25.3592 Y6.0129
G01 X25.3695 Y6.0088
G01 X25.3800 Y6.0054
G01 X25.3907 Y6.0029
G01 X25.4016 Y6.0011
G01 X25.4126 Y6.0002
G01 X27.1200 Y6.0000
G01 X27.1347 Y6.0007
G01 X27.1493 Y6.0029
G01 X27.1635 Y6.0065
G01 X27.1774 Y6.0114
G01 X27.1874 Y6.0160
G01 X27.1971 Y6.0213
G01 X27.2064 Y6.0274
G01 X27.2152 Y6.0340
G01 X27.2207 Y6.0389
G01 X27.2286 Y6.0466
G01 X27.2360 Y6.0548
G01 X27.2426 Y6.0636
G01 X27.2487 Y6.0729
G01 X27.2540 Y6.0826
G01 X27.2586 Y6.0926
G01 X27.2624 Y6.1029
G01 X27.2655 Y6.1136
G01 X27.2678 Y6.1244
G01 X27.2693 Y6.1353
G01 X27.2700 Y6.1463
G01 X27.2700 Y7.8537
G01 X27.2689 Y7.8684
G01 X27.2671 Y7.8793
G01 X27.2635 Y7.8935
G01 X27.2599 Y7.9040
G01 X27.2540 Y7.9174
G01 X27.2487 Y7.9271
G01 X27.2426 Y7.9364
G01 X27.2360 Y7.9452
G01 X27.2261 Y7.9561
G01 X27.2207 Y7.9611
G01 X27.2123 Y7.9683
G01 X27.2002 Y7.9767
G01 X27.1874 Y7.9840
G01 X27.1808 Y7.9871
G01 X27.1705 Y7.9912
G01 X27.1564 Y7.9955
G01 X27.1420 Y7.9984
G01 X27.1347 Y7.9993
G01 X27.1237 Y8.0000
G01 X25.6390 Y8.0000
G01 X25.2751 Y8.3639
G01 X25.2751 Y11.8275
G01 X25.2914 Y11.8354
G01 X25.3136 Y11.8486
G01 X25.3227 Y11.8548
G01 X25.3403 Y11.8681
G01 X25.3595 Y11.8853
G01 X25.3672 Y11.8932
G01 X25.3819 Y11.9097
G01 X25.3952 Y11.9273
G01 X25.4014 Y11.9364
G01 X25.4146 Y11.9586
G01 X25.4242 Y11.9785
G01 X25.4285 Y11.9886
G01 X25.4360 Y12.0094
G01 X25.4390 Y12.0200
G01 X25.4442 Y12.0415
G01 X25.4481 Y12.0669
G01 X25.4491 Y12.0779
G01 X25.4500 Y12.1000
G01 X25.4500 Y13.2750
G01 X25.4486 Y13.3044
G01 X25.4455 Y13.3263
G01 X25.4426 Y13.3407
G01 X25.4360 Y13.3656
G01 X25.4272 Y13.3898
G01 X25.4163 Y13.4132
G01 X25.4034 Y13.4355
G01 X25.3952 Y13.4477
G01 X25.3819 Y13.4653
G01 X25.3621 Y13.4871
G01 X25.3403 Y13.5069
G01 X25.3227 Y13.5202
G01 X25.3105 Y13.5284
G01 X25.2882 Y13.5413
G01 X25.2648 Y13.5522
G01 X25.2371 Y13.5621
G01 X25.2121 Y13.5685
G01 X25.2013 Y13.5705
G01 X25.1794 Y13.5736
G01 X25.1537 Y13.5750
G01 X24.8500 Y13.5750
G01 X24.8243 Y13.5739
G01 X24.8133 Y13.5727
G01 X24.7915 Y13.5692
G01 X24.7629 Y13.5621
G01 X24.7421 Y13.5548
G01 X24.7318 Y13.5507
G01 X24.7118 Y13.5413
G01 X24.7022 Y13.5359
G01 X24.6833 Y13.5244
G01 X24.6655 Y13.5114
G01 X24.6569 Y13.5045
G01 X24.6379 Y13.4871
G01 X24.6205 Y13.4681
G01 X24.6136 Y13.4595
G01 X24.6006 Y13.4417
G01 X24.5891 Y13.4228
G01 X24.5837 Y13.4132
G01 X24.5743 Y13.3932
G01 X24.5702 Y13.3829
G01 X24.5629 Y13.3621
G01 X24.5558 Y13.3335
G01 X24.5523 Y13.3117
G01 X24.5511 Y13.3007
G01 X24.5500 Y13.2750
G01 X24.5500 Y12.1000
G01 X24.5514 Y12.0706
G01 X24.5551 Y12.0451
G01 X24.5574 Y12.0343
G01 X24.5629 Y12.0129
G01 X24.5702 Y11.9921
G01 X24.5743 Y11.9818
G01 X24.5854 Y11.9586
G01 X24.5966 Y11.9395
G01 X24.6026 Y11.9303
G01 X24.6181 Y11.9097
G01 X24.6328 Y11.8932
G01 X24.6405 Y11.8853
G01 X24.6597 Y11.8681
G01 X24.6773 Y11.8548
G01 X24.6864 Y11.8486
G01 X24.7086 Y11.8354
G01 X24.7249 Y11.8275
G00 Z2.0000
G00 X25.4251 Y9.9762
G01 F50.00
G01 Z-0.0500
G01 F50.00
G01 X25.4251 Y8.4261
G01 X25.7011 Y8.1500
G01 X26.9612 Y8.1500
G01 X26.9407 Y8.1561
G01 X26.8050 Y8.2016
G01 X26.7920 Y8.2063
G01 X26.7684 Y8.2158
G01 X26.6374 Y8.2737
G01 X26.6145 Y8.2847
G01 X26.6023 Y8.2912
G01 X26.4772 Y8.3608
G01 X26.4554 Y8.3739
G01 X26.4438 Y8.3815
G01 X26.3257 Y8.4624
G01 X26.3144 Y8.4705
G01 X26.2944 Y8.4861
G01 X26.1842 Y8.5775
G01 X26.1652 Y8.5944
G01 X26.1552 Y8.6040
G01 X26.0540 Y8.7052
G01 X26.0366 Y8.7238
G01 X26.0275 Y8.7342
G01 X25.9361 Y8.8444
G01 X25.9205 Y8.8644
G01 X25.9124 Y8.8757
G01 X25.8315 Y8.9938
G01 X25.8178 Y9.0152
G01 X25.8108 Y9.0272
G01 X25.7412 Y9.1523
G01 X25.7295 Y9.1749
G01 X25.7237 Y9.1874
G01 X25.6658 Y9.3184
G01 X25.6563 Y9.3420
G01 X25.6516 Y9.3550
G01 X25.6061 Y9.4907
G01 X25.5989 Y9.5151
G01 X25.5954 Y9.5285
G01 X25.5626 Y9.6679
G01 X25.5576 Y9.6928
G01 X25.5554 Y9.7065
G01 X25.5356 Y9.8483
G01 X25.5340 Y9.8622
G01 X25.5203 Y9.8725
G01 X25.5089 Y9.8819
G01 X25.4871 Y9.9017
G01 X25.4767 Y9.9121
G01 X25.4618 Y9.9284
G01 X25.4521 Y9.9395
G01 X25.4343 Y9.9630
G01 X25.4251 Y9.9762
G00 Z2.0000
G00 X27.3070 Y8.0846
G01 F50.00
G01 Z-0.0500
G01 F50.00
G01 X27.3215 Y8.0723
G01 X27.3321 Y8.0621
G01 X27.3423 Y8.0515
G01 X27.3519 Y8.0403
G01 X27.3653 Y8.0227
G01 X27.3735 Y8.0105
G01 X27.3810 Y7.9979
G01 X27.3880 Y7.9849
G01 X27.3943 Y7.9716
G01 X27.3999 Y7.9580
G01 X27.4049 Y7.9441
G01 X27.4110 Y7.9229
G01 X27.4142 Y7.9085
G01 X27.4168 Y7.8940
G01 X27.4186 Y7.8794
G01 X27.4196 Y7.8647
G01 X27.4200 Y7.8500
G01 X27.4200 Y6.1500
G01 X27.4196 Y6.1353
G01 X27.4186 Y6.1206
G01 X27.4155 Y6.0984
G01 X28.7212 Y6.2921
G01 X30.5370 Y6.7469
G01 X32.2995 Y7.3775
G01 X33.9916 Y8.1779
G01 X35.5972 Y9.1402
G01 X37.1007 Y10.2553
G01 X38.4877 Y11.5123
G01 X39.7447 Y12.8993
G01 X40.8598 Y14.4028
G01 X41.8221 Y16.0084
G01 X42.6225 Y17.7005
G01 X43.2531 Y19.4630
G01 X43.7079 Y21.2788
G01 X43.9826 Y23.1304
G01 X44.0745 Y25.0012
G01 X44.0027 Y26.6462
G01 X43.7876 Y28.2799
G01 X43.4309 Y29.8886
G01 X42.9354 Y31.4602
G01 X42.3049 Y32.9825
G01 X41.5440 Y34.4441
G01 X40.6586 Y35.8338
G01 X39.6555 Y37.1411
G01 X38.5422 Y38.3561
G01 X37.8245 Y39.0137
G01 X37.0522 Y39.6064
G01 X36.2311 Y40.1295
G01 X35.3676 Y40.5790
G01 X34.4681 Y40.9515
G01 X33.5397 Y41.2443
G01 X32.5892 Y41.4550
G01 X31.6240 Y41.5821
G01 X30.6421 Y41.6249
G01 X27.2560 Y41.6249
G01 X27.2431 Y41.6089
G01 X27.2233 Y41.5871
G01 X27.2129 Y41.5767
G01 X27.1911 Y41.5569
G01 X27.1797 Y41.5475
G01 X27.1561 Y41.5300
G01 X27.1438 Y41.5218
G01 X27.1186 Y41.5067
G01 X27.0990 Y41.4965
G01 X27.0722 Y41.4843
G01 X27.0446 Y41.4740
G01 X27.0306 Y41.4694
G01 X27.0164 Y41.4654
G01 X26.9878 Y41.4586
G01 X26.9733 Y41.4561
G01 X26.9441 Y41.4522
G01 X26.9147 Y41.4504
G01 X26.9000 Y41.4500
G01 X25.7250 Y41.4500
G01 X25.6956 Y41.4511
G01 X25.6736 Y41.4530
G01 X25.6444 Y41.4573
G01 X25.6228 Y41.4619
G01 X25.5944 Y41.4694
G01 X25.5665 Y41.4790
G01 X25.5460 Y41.4872
G01 X25.5194 Y41.4997
G01 X25.5001 Y41.5104
G01 X25.4750 Y41.5258
G01 X25.4511 Y41.5431
G01 X25.4339 Y41.5569
G01 X25.4121 Y41.5767
G01 X25.3966 Y41.5925
G01 X25.3771 Y41.6145
G01 X25.3593 Y41.6380
G01 X25.3468 Y41.6562
G01 X25.3317 Y41.6814
G01 X25.3247 Y41.6944
G01 X25.3122 Y41.7210
G01 X25.3065 Y41.7346
G01 X25.2966 Y41.7624
G01 X25.2923 Y41.7764
G01 X25.2852 Y41.8050
G01 X25.2823 Y41.8194
G01 X25.2780 Y41.8486
G01 X25.2761 Y41.8706
G01 X25.2750 Y41.9000
G01 X25.2750 Y42.1739
G01 X24.8506 Y41.7494
G01 X24.8308 Y41.7310
G01 X24.8197 Y41.7214
G01 X24.7982 Y41.7051
G01 X24.7800 Y41.6926
G01 X24.7568 Y41.6787
G01 X24.7372 Y41.6685
G01 X24.7127 Y41.6573
G01 X24.6874 Y41.6479
G01 X24.6663 Y41.6412
G01 X24.6379 Y41.6341
G01 X24.6275 Y41.6203
G01 X24.6181 Y41.6089
G01 X24.5983 Y41.5871
G01 X24.5879 Y41.5767
G01 X24.5716 Y41.5618
G01 X24.5605 Y41.5521
G01 X24.5489 Y41.5431
G01 X24.5311 Y41.5300
G01 X24.5188 Y41.5218
G01 X24.4999 Y41.5104
G01 X24.4871 Y41.5031
G01 X24.4740 Y41.4965
G01 X24.4540 Y41.4872
G01 X24.4404 Y41.4815
G01 X24.4126 Y41.4716
G01 X24.3986 Y41.4673
G01 X24.3772 Y41.4619
G01 X24.3628 Y41.4586
G01 X24.3337 Y41.4540
G01 X24.3118 Y41.4515
G01 X24.2897 Y41.4504
G01 X24.2750 Y41.4500
G01 X23.1000 Y41.4500
G01 X23.0853 Y41.4504
G01 X23.0559 Y41.4522
G01 X23.0267 Y41.4561
G01 X23.0122 Y41.4586
G01 X22.9836 Y41.4654
G01 X22.9694 Y41.4694
G01 X22.9415 Y41.4790
G01 X22.9278 Y41.4843
G01 X22.9143 Y41.4902
G01 X22.8879 Y41.5031
G01 X22.8624 Y41.5180
G01 X22.8500 Y41.5258
G01 X22.8261 Y41.5431
G01 X22.8089 Y41.5569
G01 X22.7871 Y41.5767
G01 X22.7767 Y41.5871
G01 X22.7569 Y41.6089
G01 X22.7440 Y41.6249
G01 X22.7261 Y41.6249
G01 X22.6751 Y41.5739
G01 X22.6751 Y41.4261
G01 X22.6761 Y41.4251
G01 X29.2635 Y41.4248
G01 X30.4716 Y41.3656
G01 X30.4863 Y41.3645
G01 X30.5131 Y41.3615
G01 X31.7022 Y41.1851
G01 X31.7288 Y41.1802
G01 X31.7431 Y41.1769
G01 X32.9093 Y40.8848
G01 X32.9235 Y40.8809
G01 X32.9492 Y40.8727
G01 X34.0811 Y40.4677
G01 X34.1061 Y40.4577
G01 X34.1196 Y40.4518
G01 X35.2063 Y39.9378
G01 X35.2303 Y39.9254
G01 X35.2431 Y39.9181
G01 X36.2743 Y39.3001
G01 X36.2969 Y39.2854
G01 X36.3089 Y39.2769
G01 X37.2745 Y38.5608
G01 X37.2956 Y38.5439
G01 X37.3068 Y38.5343
G01 X38.1975 Y37.7270
G01 X38.2169 Y37.7082
G01 X38.2270 Y37.6975
G01 X39.0343 Y36.8068
G01 X39.0517 Y36.7861
G01 X39.0608 Y36.7745
G01 X39.7769 Y35.8089
G01 X39.7922 Y35.7867
G01 X39.8001 Y35.7743
G01 X40.4181 Y34.7431
G01 X40.4312 Y34.7195
G01 X40.4378 Y34.7063
G01 X40.9518 Y33.6196
G01 X40.9577 Y33.6061
G01 X40.9677 Y33.5811
G01 X41.3727 Y32.4492
G01 X41.3809 Y32.4235
G01 X41.3848 Y32.4093
G01 X41.6769 Y31.2431
G01 X41.6826 Y31.2167
G01 X41.6851 Y31.2022
G01 X41.8615 Y30.0131
G01 X41.8645 Y29.9863
G01 X41.8656 Y29.9716
G01 X41.9246 Y28.7709
G01 X41.9251 Y28.7500
G01 X41.9250 Y22.4926
G01 X41.8571 Y21.1069
G01 X41.8561 Y21.0922
G01 X41.8530 Y21.0654
G01 X41.6515 Y19.7064
G01 X41.6465 Y19.6798
G01 X41.6433 Y19.6655
G01 X41.3095 Y18.3327
G01 X41.3056 Y18.3185
G01 X41.2974 Y18.2928
G01 X40.8345 Y16.9992
G01 X40.8292 Y16.9855
G01 X40.8186 Y16.9607
G01 X40.2311 Y15.7187
G01 X40.2245 Y15.7056
G01 X40.2115 Y15.6819
G01 X39.5052 Y14.5035
G01 X39.4973 Y14.4911
G01 X39.4820 Y14.4688
G01 X38.6636 Y13.3653
G01 X38.6467 Y13.3442
G01 X38.6371 Y13.3330
G01 X37.7144 Y12.3151
G01 X37.6956 Y12.2957
G01 X37.6849 Y12.2856
G01 X36.6670 Y11.3629
G01 X36.6463 Y11.3455
G01 X36.6347 Y11.3364
G01 X35.5312 Y10.5180
G01 X35.5089 Y10.5027
G01 X35.4965 Y10.4948
G01 X34.3181 Y9.7885
G01 X34.2944 Y9.7755
G01 X34.2813 Y9.7689
G01 X33.0393 Y9.1814
G01 X33.0145 Y9.1708
G01 X33.0008 Y9.1655
G01 X31.7072 Y8.7026
G01 X31.6815 Y8.6944
G01 X31.6673 Y8.6905
G01 X30.3345 Y8.3567
G01 X30.3081 Y8.3511
G01 X30.2936 Y8.3485
G01 X28.9346 Y8.1470
G01 X28.9078 Y8.1439
G01 X28.8931 Y8.1429
G01 X27.5209 Y8.0754
G01 X27.4951 Y8.0751
G01 X27.4804 Y8.0754
G01 X27.3374 Y8.0820
G01 X27.3070 Y8.0846
G00 Z2.0000
G00 X25.1200 Y6.4811
G01 F50.00
G01 Z-0.0500
G01 F50.00
G01 X25.1200 Y7.5289
G01 X24.6994 Y7.9494
G01 X24.6810 Y7.9692
G01 X24.6714 Y7.9803
G01 X24.6507 Y8.0078
G01 X24.6387 Y8.0263
G01 X24.6251 Y8.0496
G01 X24.6102 Y8.0806
G01 X24.6020 Y8.1011
G01 X24.5932 Y8.1266
G01 X24.5846 Y8.1599
G01 X24.5806 Y8.1816
G01 X24.5778 Y8.2010
G01 X24.5764 Y8.2157
G01 X24.5749 Y8.2500
G01 X24.5749 Y9.9762
G01 X24.5657 Y9.9630
G01 X24.5479 Y9.9395
G01 X24.5382 Y9.9284
G01 X24.5233 Y9.9121
G01 X24.5129 Y9.9017
G01 X24.4911 Y9.8819
G01 X24.4797 Y9.8725
G01 X24.4660 Y9.8622
G01 X24.4644 Y9.8483
G01 X24.4446 Y9.7065
G01 X24.4402 Y9.6814
G01 X24.4374 Y9.6679
G01 X24.4046 Y9.5285
G01 X24.3980 Y9.5040
G01 X24.3939 Y9.4907
G01 X24.3484 Y9.3550
G01 X24.3437 Y9.3420
G01 X24.3342 Y9.3184
G01 X24.2763 Y9.1874
G01 X24.2653 Y9.1645
G01 X24.2588 Y9.1523
G01 X24.1892 Y9.0272
G01 X24.1761 Y9.0054
G01 X24.1685 Y8.9938
G01 X24.0876 Y8.8757
G01 X24.0725 Y8.8552
G01 X24.0639 Y8.8444
G01 X23.9725 Y8.7342
G01 X23.9556 Y8.7152
G01 X23.9460 Y8.7052
G01 X23.8448 Y8.6040
G01 X23.8262 Y8.5866
G01 X23.8158 Y8.5775
G01 X23.7056 Y8.4861
G01 X23.6856 Y8.4705
G01 X23.6743 Y8.4624
G01 X23.5562 Y8.3815
G01 X23.5348 Y8.3678
G01 X23.5228 Y8.3608
G01 X23.3916 Y8.2879
G01 X23.3626 Y8.2737
G01 X23.2316 Y8.2158
G01 X23.2188 Y8.2105
G01 X23.1950 Y8.2016
G01 X23.0593 Y8.1561
G01 X23.0349 Y8.1489
G01 X23.0215 Y8.1454
G01 X22.8821 Y8.1126
G01 X22.8572 Y8.1076
G01 X22.8435 Y8.1054
G01 X22.7017 Y8.0856
G01 X22.6696 Y8.0824
G01 X22.5196 Y8.0754
G01 X22.4939 Y8.0751
G01 X22.4791 Y8.0754
G01 X21.1069 Y8.1429
G01 X21.0727 Y8.1460
G01 X19.7064 Y8.3485
G01 X19.6919 Y8.3511
G01 X19.6655 Y8.3567
G01 X18.3327 Y8.6905
G01 X18.3068 Y8.6980
G01 X18.2928 Y8.7026
G01 X16.9992 Y9.1655
G01 X16.9742 Y9.1755
G01 X16.9607 Y9.1814
G01 X15.7187 Y9.7689
G01 X15.7056 Y9.7755
G01 X15.6819 Y9.7885
G01 X14.5035 Y10.4948
G01 X14.4808 Y10.5095
G01 X14.4688 Y10.5180
G01 X13.3653 Y11.3364
G01 X13.3386 Y11.3580
G01 X12.3151 Y12.2856
G01 X12.2957 Y12.3044
G01 X12.2856 Y12.3151
G01 X11.3629 Y13.3330
G01 X11.3455 Y13.3537
G01 X11.3364 Y13.3653
G01 X10.5180 Y14.4688
G01 X10.5027 Y14.4911
G01 X10.4948 Y14.5035
G01 X9.7885 Y15.6819
G01 X9.7755 Y15.7056
G01 X9.7689 Y15.7187
G01 X9.1814 Y16.9607
G01 X9.1708 Y16.9855
G01 X9.1655 Y16.9992
G01 X8.7026 Y18.2928
G01 X8.6980 Y18.3068
G01 X8.6905 Y18.3327
G01 X8.3567 Y19.6655
G01 X8.3535 Y19.6798
G01 X8.3485 Y19.7064
G01 X8.1460 Y21.0727
G01 X8.1429 Y21.1069
G01 X8.0754 Y22.4791
G01 X8.0749 Y22.5000
G01 X8.0749 Y29.2500
G01 X8.0753 Y29.2647
G01 X8.0770 Y29.2916
G01 X8.0806 Y29.3184
G01 X8.0831 Y29.3329
G01 X8.0893 Y29.3592
G01 X8.0932 Y29.3734
G01 X8.0979 Y29.3873
G01 X8.1048 Y29.4065
G01 X8.1276 Y29.8999
G01 X8.1304 Y29.9321
G01 X8.2876 Y31.0596
G01 X8.2919 Y31.0847
G01 X8.2948 Y31.0982
G01 X8.5539 Y32.1997
G01 X8.5605 Y32.2242
G01 X8.5646 Y32.2374
G01 X8.9242 Y33.3103
G01 X8.9331 Y33.3341
G01 X8.9384 Y33.3469
G01 X9.3954 Y34.3820
G01 X9.4064 Y34.4049
G01 X9.4129 Y34.4171
G01 X9.9635 Y35.4056
G01 X9.9766 Y35.4274
G01 X9.9842 Y35.4390
G01 X10.6236 Y36.3725
G01 X10.6387 Y36.3929
G01 X10.6473 Y36.4038
G01 X11.3701 Y37.2743
G01 X11.3870 Y37.2933
G01 X11.3966 Y37.3033
G01 X12.1967 Y38.1034
G01 X12.2152 Y38.1208
G01 X12.2257 Y38.1299
G01 X13.0962 Y38.8527
G01 X13.1163 Y38.8683
G01 X13.1275 Y38.8764
G01 X14.0610 Y39.5158
G01 X14.0883 Y39.5331
G01 X15.0829 Y40.0871
G01 X15.1055 Y40.0987
G01 X15.1180 Y40.1046
G01 X16.1531 Y40.5616
G01 X16.1767 Y40.5711
G01 X16.1897 Y40.5758
G01 X17.2691 Y40.9375
G01 X17.3003 Y40.9461
G01 X18.4017 Y41.2052
G01 X18.4335 Y41.2114
G01 X19.5610 Y41.3687
G01 X19.5748 Y41.3703
G01 X19.6001 Y41.3724
G01 X20.3249 Y41.4059
G01 X20.3249 Y42.5000
G01 X20.3259 Y42.5270
G01 X20.3278 Y42.5490
G01 X20.3318 Y42.5757
G01 X20.3363 Y42.5973
G01 X20.3432 Y42.6234
G01 X20.3520 Y42.6489
G01 X20.3602 Y42.6694
G01 X20.3717 Y42.6938
G01 X20.3824 Y42.7132
G01 X20.3966 Y42.7362
G01 X20.4051 Y42.7482
G01 X20.4214 Y42.7697
G01 X20.4393 Y42.7899
G01 X20.4494 Y42.8006
G01 X20.7750 Y43.1261
G01 X20.7751 Y43.1574
G01 X20.7761 Y43.1794
G01 X20.7772 Y43.1941
G01 X20.7790 Y43.2087
G01 X20.7823 Y43.2306
G01 X20.7852 Y43.2450
G01 X20.7889 Y43.2602
G01 X20.3617 Y43.1969
G01 X18.7389 Y42.7904
G01 X17.1638 Y42.2268
G01 X15.6515 Y41.5115
G01 X14.2165 Y40.6514
G01 X12.8728 Y39.6549
G01 X11.6255 Y38.5244
G01 X11.4640 Y38.3629
G01 X10.3445 Y37.1411
G01 X9.3414 Y35.8338
G01 X8.4560 Y34.4441
G01 X7.6951 Y32.9825
G01 X7.0646 Y31.4602
G01 X6.5691 Y29.8886
G01 X6.2124 Y28.2799
G01 X5.9973 Y26.6462
G01 X5.9255 Y25.0012
G01 X6.0174 Y23.1304
G01 X6.2921 Y21.2788
G01 X6.7469 Y19.4630
G01 X7.3775 Y17.7005
G01 X8.1779 Y16.0084
G01 X9.1402 Y14.4028
G01 X10.2553 Y12.8993
G01 X11.5123 Y11.5123
G01 X12.8993 Y10.2553
G01 X14.4028 Y9.1402
G01 X16.0084 Y8.1779
G01 X17.7005 Y7.3775
G01 X19.4630 Y6.7469
G01 X21.2788 Y6.2921
G01 X23.1304 Y6.0174
G01 X23.1348 Y6.0172
G01 X23.0973 Y6.0398
G01 X23.0850 Y6.0480
G01 X23.0121 Y6.1020
G01 X22.9948 Y6.1158
G01 X22.9275 Y6.1767
G01 X22.9168 Y6.1868
G01 X22.9067 Y6.1975
G01 X22.8458 Y6.2648
G01 X22.8320 Y6.2821
G01 X22.7823 Y6.3491
G01 X22.7738 Y6.3611
G01 X22.7659 Y6.3735
G01 X22.7230 Y6.4451
G01 X22.7158 Y6.4579
G01 X22.7092 Y6.4710
G01 X22.6735 Y6.5465
G01 X22.6648 Y6.5668
G01 X22.6341 Y6.6522
G01 X22.6295 Y6.6662
G01 X22.6256 Y6.6804
G01 X22.6053 Y6.7613
G01 X22.6021 Y6.7756
G01 X22.5996 Y6.7902
G01 X22.5873 Y6.8727
G01 X22.5855 Y6.8873
G01 X22.5845 Y6.9020
G01 X22.5804 Y6.9853
G01 X22.5801 Y7.0074
G01 X22.5845 Y7.0980
G01 X22.5855 Y7.1127
G01 X22.5873 Y7.1273
G01 X22.5996 Y7.2098
G01 X22.6021 Y7.2244
G01 X22.6053 Y7.2387
G01 X22.6275 Y7.3268
G01 X22.6341 Y7.3478
G01 X22.6622 Y7.4263
G01 X22.6675 Y7.4401
G01 X22.6735 Y7.4535
G01 X22.7092 Y7.5290
G01 X22.7158 Y7.5421
G01 X22.7230 Y7.5549
G01 X22.7698 Y7.6327
G01 X22.7823 Y7.6509
G01 X22.8320 Y7.7179
G01 X22.8410 Y7.7296
G01 X22.8507 Y7.7407
G01 X22.9067 Y7.8025
G01 X22.9168 Y7.8132
G01 X22.9275 Y7.8233
G01 X22.9893 Y7.8793
G01 X23.0004 Y7.8890
G01 X23.0121 Y7.8980
G01 X23.0791 Y7.9477
G01 X23.0973 Y7.9602
G01 X23.1751 Y8.0070
G01 X23.1879 Y8.0142
G01 X23.2010 Y8.0208
G01 X23.2765 Y8.0565
G01 X23.2899 Y8.0625
G01 X23.3037 Y8.0678
G01 X23.3822 Y8.0959
G01 X23.3962 Y8.1005
G01 X23.4104 Y8.1044
G01 X23.4913 Y8.1247
G01 X23.5056 Y8.1279
G01 X23.5202 Y8.1304
G01 X23.6027 Y8.1427
G01 X23.6246 Y8.1451
G01 X23.7153 Y8.1496
G01 X23.7300 Y8.1500
G01 X23.7447 Y8.1496
G01 X23.8280 Y8.1455
G01 X23.8427 Y8.1445
G01 X23.8573 Y8.1427
G01 X23.9398 Y8.1304
G01 X23.9616 Y8.1264
G01 X24.0496 Y8.1044
G01 X24.0638 Y8.1005
G01 X24.0778 Y8.0959
G01 X24.1632 Y8.0652
G01 X24.1835 Y8.0565
G01 X24.2590 Y8.0208
G01 X24.2721 Y8.0142
G01 X24.2849 Y8.0070
G01 X24.3565 Y7.9641
G01 X24.3689 Y7.9562
G01 X24.3809 Y7.9477
G01 X24.4479 Y7.8980
G01 X24.4596 Y7.8890
G01 X24.4707 Y7.8793
G01 X24.5325 Y7.8233
G01 X24.5432 Y7.8132
G01 X24.5533 Y7.8025
G01 X24.6093 Y7.7407
G01 X24.6190 Y7.7296
G01 X24.6280 Y7.7179
G01 X24.6777 Y7.6509
G01 X24.6862 Y7.6389
G01 X24.6941 Y7.6265
G01 X24.7370 Y7.5549
G01 X24.7442 Y7.5421
G01 X24.7508 Y7.5290
G01 X24.7865 Y7.4535
G01 X24.7925 Y7.4401
G01 X24.7978 Y7.4263
G01 X24.8259 Y7.3478
G01 X24.8305 Y7.3338
G01 X24.8344 Y7.3196
G01 X24.8564 Y7.2316
G01 X24.8604 Y7.2098
G01 X24.8727 Y7.1273
G01 X24.8745 Y7.1127
G01 X24.8755 Y7.0980
G01 X24.8796 Y7.0147
G01 X24.8800 Y7.0000
G01 X24.8796 Y6.9853
G01 X24.8755 Y6.9020
G01 X24.8737 Y6.8800
G01 X24.8593 Y6.7829
G01 X24.8564 Y6.7684
G01 X24.8517 Y6.7494
G01 X25.1200 Y6.4811
G00 Z2.0000
G00 X24.2260 Y5.9636
G01 F50.00
G01 Z-0.0500
G01 F50.00
G01 X24.4461 Y5.9528
G01 X24.3605 Y6.0384
G01 X24.2786 Y5.9893
G01 X24.2656 Y5.9824
G01 X24.2260 Y5.9636
G00 Z2.0000
G00 X30.6785 Y17.6552
G01 F50.00
G01 Z-0.0500
G01 F50.00
G01 X33.9785 Y11.9395
G01 X33.9865 Y11.9271
G01 X33.9909 Y11.9212
G01 X33.9981 Y11.9128
G01 X34.0086 Y11.9025
G01 X34.0200 Y11.8933
G01 X34.0292 Y11.8871
G01 X34.0388 Y11.8816
G01 X34.0487 Y11.8768
G01 X34.0590 Y11.8728
G01 X34.0696 Y11.8696
G01 X34.0803 Y11.8671
G01 X34.0912 Y11.8654
G01 X34.0986 Y11.8648
G01 X34.1096 Y11.8645
G01 X34.1206 Y11.8650
G01 X34.1316 Y11.8663
G01 X34.1424 Y11.8684
G01 X34.1496 Y11.8702
G01 X34.1601 Y11.8736
G01 X34.1703 Y11.8778
G01 X34.1802 Y11.8828
G01 X36.6516 Y13.3096
G01 X36.6639 Y13.3175
G01 X36.6755 Y13.3267
G01 X36.6860 Y13.3369
G01 X36.6933 Y13.3453
G01 X36.7020 Y13.3571
G01 X36.7094 Y13.3698
G01 X36.7156 Y13.3832
G01 X36.7204 Y13.3971
G01 X36.7239 Y13.4114
G01 X36.7259 Y13.4260
G01 X36.7265 Y13.4370
G01 X36.7261 Y13.4517
G01 X36.7241 Y13.4663
G01 X36.7208 Y13.4806
G01 X36.7161 Y13.4946
G01 X36.7100 Y13.5080
G01 X34.9878 Y16.4912
G01 X35.7295 Y17.2329
G01 X36.1354 Y17.6759
G01 X36.1465 Y17.6894
G01 X36.5072 Y18.1596
G01 X36.5171 Y18.1740
G01 X36.8320 Y18.6683
G01 X36.8440 Y18.6891
G01 X37.1175 Y19.2148
G01 X37.1247 Y19.2307
G01 X37.3502 Y19.7751
G01 X37.3572 Y19.7946
G01 X37.5344 Y20.3567
G01 X37.5396 Y20.3768
G01 X37.5891 Y20.6000
G01 X40.8037 Y20.6000
G01 X40.8110 Y20.6004
G01 X40.8220 Y20.6016
G01 X40.8364 Y20.6045
G01 X40.8505 Y20.6088
G01 X40.8641 Y20.6144
G01 X40.8739 Y20.6195
G01 X40.8802 Y20.6233
G01 X40.8923 Y20.6317
G01 X40.9034 Y20.6414
G01 X40.9111 Y20.6493
G01 X40.9160 Y20.6548
G01 X40.9247 Y20.6667
G01 X40.9305 Y20.6761
G01 X40.9356 Y20.6859
G01 X40.9412 Y20.6995
G01 X40.9455 Y20.7136
G01 X40.9478 Y20.7244
G01 X40.9493 Y20.7353
G01 X40.9500 Y20.7500
G01 X40.9500 Y23.6000
G01 X40.9496 Y23.6110
G01 X40.9484 Y23.6220
G01 X40.9471 Y23.6293
G01 X40.9446 Y23.6400
G01 X40.9412 Y23.6505
G01 X40.9386 Y23.6574
G01 X40.9340 Y23.6674
G01 X40.9287 Y23.6771
G01 X40.9247 Y23.6833
G01 X40.9183 Y23.6923
G01 X40.9111 Y23.7007
G01 X40.9034 Y23.7086
G01 X40.8952 Y23.7160
G01 X40.8894 Y23.7205
G01 X40.8833 Y23.7247
G01 X40.8739 Y23.7305
G01 X40.8641 Y23.7356
G01 X40.8574 Y23.7386
G01 X40.8471 Y23.7424
G01 X40.8400 Y23.7446
G01 X40.8293 Y23.7471
G01 X40.8184 Y23.7489
G01 X40.8110 Y23.7496
G01 X40.8000 Y23.7500
G01 X34.2000 Y23.7500
G01 X34.1890 Y23.7496
G01 X34.1780 Y23.7484
G01 X34.1707 Y23.7471
G01 X34.1600 Y23.7446
G01 X34.1495 Y23.7412
G01 X34.1426 Y23.7386
G01 X34.1326 Y23.7340
G01 X34.1229 Y23.7287
G01 X34.1136 Y23.7226
G01 X34.1077 Y23.7183
G01 X34.0993 Y23.7111
G01 X34.0939 Y23.7061
G01 X34.0889 Y23.7007
G01 X34.0817 Y23.6923
G01 X34.0774 Y23.6864
G01 X34.0713 Y23.6771
G01 X34.0660 Y23.6674
G01 X34.0614 Y23.6574
G01 X34.0588 Y23.6505
G01 X34.0554 Y23.6400
G01 X34.0536 Y23.6329
G01 X34.0516 Y23.6220
G01 X34.0504 Y23.6110
G01 X34.0500 Y23.6037
G01 X34.0500 Y20.7500
G01 X34.0507 Y20.7353
G01 X34.0516 Y20.7280
G01 X34.0536 Y20.7171
G01 X34.0565 Y20.7065
G01 X34.0588 Y20.6995
G01 X34.0644 Y20.6859
G01 X34.0695 Y20.6761
G01 X34.0753 Y20.6667
G01 X34.0817 Y20.6577
G01 X34.0889 Y20.6493
G01 X34.0966 Y20.6414
G01 X34.1048 Y20.6340
G01 X34.1136 Y20.6274
G01 X34.1198 Y20.6233
G01 X34.1293 Y20.6177
G01 X34.1392 Y20.6129
G01 X34.1495 Y20.6088
G01 X34.1565 Y20.6065
G01 X34.1671 Y20.6036
G01 X34.1744 Y20.6022
G01 X34.1853 Y20.6007
G01 X34.1963 Y20.6000
G01 X37.0256 Y20.6000
G01 X37.0052 Y20.5076
G01 X36.8361 Y19.9715
G01 X36.6211 Y19.4523
G01 X36.3615 Y18.9537
G01 X36.0596 Y18.4797
G01 X35.7174 Y18.0338
G01 X35.3334 Y17.6148
G01 X34.7031 Y16.9844
G01 X33.4046 Y19.2334
G01 X33.3985 Y19.2426
G01 X33.3940 Y19.2485
G01 X33.3843 Y19.2595
G01 X33.3736 Y19.2696
G01 X33.3679 Y19.2742
G01 X33.3589 Y19.2806
G01 X33.3494 Y19.2863
G01 X33.3429 Y19.2898
G01 X33.3294 Y19.2956
G01 X33.3154 Y19.3001
G01 X33.3010 Y19.3032
G01 X33.2864 Y19.3049
G01 X33.2753 Y19.3052
G01 X33.2643 Y19.3047
G01 X33.2497 Y19.3028
G01 X33.2389 Y19.3004
G01 X33.2249 Y19.2960
G01 X33.2113 Y19.2903
G01 X33.2016 Y19.2851
G01 X30.7271 Y17.8563
G01 X30.7151 Y17.8477
G01 X30.7041 Y17.8380
G01 X30.6940 Y17.8273
G01 X30.6850 Y17.8156
G01 X30.6773 Y17.8031
G01 X30.6708 Y17.7899
G01 X30.6656 Y17.7761
G01 X30.6626 Y17.7655
G01 X30.6598 Y17.7510
G01 X30.6585 Y17.7364
G01 X30.6586 Y17.7216
G01 X30.6602 Y17.7070
G01 X30.6632 Y17.6926
G01 X30.6663 Y17.6820
G01 X30.6718 Y17.6683
G01 X30.6785 Y17.6552
G00 Z2.0000
G00 X30.7374 Y32.1375
G01 F50.00
G01 Z-0.0500
G01 F50.00
G01 X33.2088 Y30.7107
G01 X33.2187 Y30.7058
G01 X33.2324 Y30.7004
G01 X33.2430 Y30.6972
G01 X33.2574 Y30.6942
G01 X33.2684 Y30.6929
G01 X33.2831 Y30.6925
G01 X33.2978 Y30.6934
G01 X33.3123 Y30.6958
G01 X33.3265 Y30.6996
G01 X33.3403 Y30.7048
G01 X33.3535 Y30.7113
G01 X33.3660 Y30.7191
G01 X33.3777 Y30.7281
G01 X33.3858 Y30.7355
G01 X33.3909 Y30.7408
G01 X33.4004 Y30.7521
G01 X33.4086 Y30.7643
G01 X34.7071 Y33.0132
G01 X35.3319 Y32.3884
G01 X35.7613 Y31.9147
G01 X36.1382 Y31.4065
G01 X36.4634 Y30.8639
G01 X36.7339 Y30.2920
G01 X36.9470 Y29.6963
G01 X37.0212 Y29.4000
G01 X34.1963 Y29.4000
G01 X34.1890 Y29.3996
G01 X34.1780 Y29.3984
G01 X34.1671 Y29.3964
G01 X34.1565 Y29.3935
G01 X34.1495 Y29.3912
G01 X34.1392 Y29.3871
G01 X34.1293 Y29.3823
G01 X34.1198 Y29.3767
G01 X34.1106 Y29.3705
G01 X34.1020 Y29.3636
G01 X34.0966 Y29.3586
G01 X34.0889 Y29.3507
G01 X34.0817 Y29.3423
G01 X34.0753 Y29.3333
G01 X34.0713 Y29.3271
G01 X34.0660 Y29.3174
G01 X34.0601 Y29.3040
G01 X34.0565 Y29.2935
G01 X34.0545 Y29.2864
G01 X34.0522 Y29.2756
G01 X34.0511 Y29.2684
G01 X34.0502 Y29.2574
G01 X34.0500 Y29.2500
G01 X34.0500 Y26.3963
G01 X34.0507 Y26.3853
G01 X34.0516 Y26.3780
G01 X34.0529 Y26.3707
G01 X34.0554 Y26.3600
G01 X34.0588 Y26.3495
G01 X34.0614 Y26.3426
G01 X34.0660 Y26.3326
G01 X34.0713 Y26.3229
G01 X34.0753 Y26.3167
G01 X34.0817 Y26.3077
G01 X34.0889 Y26.2993
G01 X34.0966 Y26.2914
G01 X34.1048 Y26.2840
G01 X34.1106 Y26.2795
G01 X34.1198 Y26.2733
G01 X34.1261 Y26.2695
G01 X34.1359 Y26.2644
G01 X34.1426 Y26.2614
G01 X34.1529 Y26.2576
G01 X34.1600 Y26.2554
G01 X34.1707 Y26.2529
G01 X34.1816 Y26.2511
G01 X34.1890 Y26.2504
G01 X34.2000 Y26.2500
G01 X40.8000 Y26.2500
G01 X40.8110 Y26.2504
G01 X40.8184 Y26.2511
G01 X40.8293 Y26.2529
G01 X40.8364 Y26.2545
G01 X40.8471 Y26.2576
G01 X40.8574 Y26.2614
G01 X40.8641 Y26.2644
G01 X40.8739 Y26.2695
G01 X40.8802 Y26.2733
G01 X40.8894 Y26.2795
G01 X40.8980 Y26.2864
G01 X40.9061 Y26.2939
G01 X40.9136 Y26.3020
G01 X40.9205 Y26.3106
G01 X40.9247 Y26.3167
G01 X40.9305 Y26.3261
G01 X40.9340 Y26.3326
G01 X40.9386 Y26.3426
G01 X40.9412 Y26.3495
G01 X40.9446 Y26.3600
G01 X40.9471 Y26.3707
G01 X40.9489 Y26.3816
G01 X40.9496 Y26.3890
G01 X40.9500 Y26.4000
G01 X40.9500 Y29.2500
G01 X40.9493 Y29.2647
G01 X40.9478 Y29.2756
G01 X40.9455 Y29.2864
G01 X40.9412 Y29.3005
G01 X40.9356 Y29.3141
G01 X40.9305 Y29.3239
G01 X40.9247 Y29.3333
G01 X40.9160 Y29.3452
G01 X40.9111 Y29.3507
G01 X40.9034 Y29.3586
G01 X40.8923 Y29.3683
G01 X40.8802 Y29.3767
G01 X40.8674 Y29.3840
G01 X40.8574 Y29.3886
G01 X40.8505 Y29.3912
G01 X40.8364 Y29.3955
G01 X40.8256 Y29.3978
G01 X40.8184 Y29.3989
G01 X40.8037 Y29.4000
G01 X37.5884 Y29.4000
G01 X37.4774 Y29.8431
G01 X37.4718 Y29.8620
G01 X37.2473 Y30.4901
G01 X37.2400 Y30.5083
G01 X36.9516 Y31.1179
G01 X36.9422 Y31.1351
G01 X36.6011 Y31.7041
G01 X36.5881 Y31.7234
G01 X36.1951 Y32.2532
G01 X36.1780 Y32.2741
G01 X35.7282 Y32.7700
G01 X34.9919 Y33.5065
G01 X36.7105 Y36.4832
G01 X36.7172 Y36.4963
G01 X36.7214 Y36.5065
G01 X36.7248 Y36.5170
G01 X36.7282 Y36.5313
G01 X36.7301 Y36.5459
G01 X36.7306 Y36.5570
G01 X36.7303 Y36.5680
G01 X36.7286 Y36.5826
G01 X36.7255 Y36.5970
G01 X36.7234 Y36.6041
G01 X36.7197 Y36.6145
G01 X36.7151 Y36.6245
G01 X36.7117 Y36.6311
G01 X36.7039 Y36.6436
G01 X36.6950 Y36.6552
G01 X36.6849 Y36.6660
G01 X36.6767 Y36.6734
G01 X36.6709 Y36.6779
G01 X36.6588 Y36.6862
G01 X34.1874 Y38.1131
G01 X34.1743 Y38.1198
G01 X34.1607 Y38.1252
G01 X34.1465 Y38.1293
G01 X34.1320 Y38.1319
G01 X34.1173 Y38.1331
G01 X34.1026 Y38.1329
G01 X34.0916 Y38.1318
G01 X34.0772 Y38.1290
G01 X34.0631 Y38.1248
G01 X34.0494 Y38.1193
G01 X34.0364 Y38.1125
G01 X34.0241 Y38.1044
G01 X34.0126 Y38.0952
G01 X34.0021 Y38.0848
G01 X33.9927 Y38.0735
G01 X33.9844 Y38.0614
G01 X30.6825 Y32.3424
G01 X30.6758 Y32.3293
G01 X30.6704 Y32.3157
G01 X30.6664 Y32.3015
G01 X30.6637 Y32.2870
G01 X30.6625 Y32.2723
G01 X30.6628 Y32.2576
G01 X30.6644 Y32.2430
G01 X30.6675 Y32.2286
G01 X30.6721 Y32.2146
G01 X30.6779 Y32.2011
G01 X30.6851 Y32.1882
G01 X30.6934 Y32.1761
G01 X30.7030 Y32.1649
G01 X30.7135 Y32.1547
G01 X30.7251 Y32.1455
G01 X30.7374 Y32.1375
G00 Z2.0000
G00 X27.1488 Y42.5749
G01 F50.00
G01 Z-0.0500
G01 F50.00
G01 X27.1620 Y42.5657
G01 X27.1855 Y42.5479
G01 X27.1966 Y42.5382
G01 X27.2129 Y42.5233
G01 X27.2233 Y42.5129
G01 X27.2382 Y42.4966
G01 X27.2479 Y42.4855
G01 X27.2560 Y42.4751
G01 X27.3512 Y42.4751
G01 X27.3380 Y42.4843
G01 X27.3145 Y42.5021
G01 X27.3034 Y42.5118
G01 X27.2871 Y42.5267
G01 X27.2767 Y42.5371
G01 X27.2618 Y42.5534
G01 X27.2521 Y42.5645
G01 X27.2440 Y42.5749
G01 X27.1488 Y42.5749
G00 Z2.0000
G00 X22.8512 Y43.4251
G01 F50.00
G01 Z-0.0500
G01 F50.00
G01 X22.8380 Y43.4343
G01 X22.8145 Y43.4521
G01 X22.8034 Y43.4618
G01 X22.7836 Y43.4800
G01 X22.7097 Y43.4764
G01 X22.7233 Y43.4629
G01 X22.7382 Y43.4466
G01 X22.7479 Y43.4355
G01 X22.7560 Y43.4251
G01 X22.8512 Y43.4251
G00 Z2.0000
G00 X22.6488 Y42.4751
G01 F50.00
G01 Z-0.0500
G01 F50.00
G01 X22.7440 Y42.4751
G01 X22.7521 Y42.4855
G01 X22.7618 Y42.4966
G01 X22.7767 Y42.5129
G01 X22.7871 Y42.5233
G01 X22.8034 Y42.5382
G01 X22.8145 Y42.5479
G01 X22.8380 Y42.5657
G01 X22.8512 Y42.5749
G01 X22.7560 Y42.5749
G01 X22.7479 Y42.5645
G01 X22.7382 Y42.5534
G01 X22.7233 Y42.5371
G01 X22.7129 Y42.5267
G01 X22.6966 Y42.5118
G01 X22.6855 Y42.5021
G01 X22.6620 Y42.4843
G01 X22.6488 Y42.4751
G00 Z2.0000
G00 X21.9751 Y41.2426
G01 F50.00
G01 Z-0.0500
G01 F50.00
G01 X21.9767 Y41.2194
G01 X21.9795 Y41.2000
G01 X21.9810 Y41.1927
G01 X21.9868 Y41.1702
G01 X21.9959 Y41.1447
G01 X22.0074 Y41.1203
G01 X22.0213 Y41.0972
G01 X22.0374 Y41.0755
G01 X22.0529 Y41.0581
G01 X22.3055 Y40.8055
G01 X22.3199 Y40.7922
G01 X22.3284 Y40.7851
G01 X22.3472 Y40.7713
G01 X22.3671 Y40.7592
G01 X22.3880 Y40.7489
G01 X22.3982 Y40.7445
G01 X22.4202 Y40.7368
G01 X22.4427 Y40.7310
G01 X22.4536 Y40.7290
G01 X22.4767 Y40.7259
G01 X22.5000 Y40.7249
G01 X28.9749 Y40.7249
G01 X28.9749 Y40.6848
G01 X25.7895 Y35.1674
G01 X25.7860 Y35.1610
G01 X25.7813 Y35.1510
G01 X25.7762 Y35.1371
G01 X25.7725 Y35.1229
G01 X25.7707 Y35.1120
G01 X25.7699 Y35.1047
G01 X25.7695 Y35.0973
G01 X25.7695 Y35.0863
G01 X25.7704 Y35.0753
G01 X25.7720 Y35.0644
G01 X25.7745 Y35.0536
G01 X25.7778 Y35.0431
G01 X25.7818 Y35.0328
G01 X25.7865 Y35.0228
G01 X25.7920 Y35.0132
G01 X25.7961 Y35.0071
G01 X25.8027 Y34.9982
G01 X25.8099 Y34.9899
G01 X25.8178 Y34.9821
G01 X25.8233 Y34.9773
G01 X25.8320 Y34.9705
G01 X25.8412 Y34.9644
G01 X28.3126 Y33.5375
G01 X28.3223 Y33.5324
G01 X28.3359 Y33.5266
G01 X28.3499 Y33.5222
G01 X28.3607 Y33.5199
G01 X28.3753 Y33.5179
G01 X28.3863 Y33.5174
G01 X28.4010 Y33.5180
G01 X28.4156 Y33.5201
G01 X28.4299 Y33.5235
G01 X28.4438 Y33.5284
G01 X28.4572 Y33.5346
G01 X28.4668 Y33.5401
G01 X28.4789 Y33.5484
G01 X28.4901 Y33.5580
G01 X28.5003 Y33.5685
G01 X28.5073 Y33.5771
G01 X28.5156 Y33.5893
G01 X31.8175 Y39.3082
G01 X31.8210 Y39.3147
G01 X31.8257 Y39.3247
G01 X31.8284 Y39.3315
G01 X31.8318 Y39.3420
G01 X31.8351 Y39.3563
G01 X31.8367 Y39.3673
G01 X31.8375 Y39.3783
G01 X31.8374 Y39.3893
G01 X31.8366 Y39.4003
G01 X31.8342 Y39.4149
G01 X31.8315 Y39.4256
G01 X31.8279 Y39.4360
G01 X31.8237 Y39.4462
G01 X31.8168 Y39.4593
G01 X31.8109 Y39.4686
G01 X31.8043 Y39.4774
G01 X31.7970 Y39.4857
G01 X31.7892 Y39.4935
G01 X31.7779 Y39.5029
G01 X31.7688 Y39.5093
G01 X29.7027 Y40.7024
G01 X30.4237 Y40.6669
G01 X31.5861 Y40.4945
G01 X32.7260 Y40.2090
G01 X33.8325 Y39.8131
G01 X34.8948 Y39.3107
G01 X35.9027 Y38.7065
G01 X36.8466 Y38.0065
G01 X37.7173 Y37.2173
G01 X38.5065 Y36.3466
G01 X39.2065 Y35.4027
G01 X39.8107 Y34.3948
G01 X40.3131 Y33.3325
G01 X40.7090 Y32.2260
G01 X40.9945 Y31.0861
G01 X41.1669 Y29.9237
G01 X41.2249 Y28.7432
G01 X41.2249 Y22.5068
G01 X41.1585 Y21.1548
G01 X40.9609 Y19.8225
G01 X40.6336 Y18.5160
G01 X40.1799 Y17.2478
G01 X39.6040 Y16.0303
G01 X38.9116 Y14.8750
G01 X38.1093 Y13.7932
G01 X37.2048 Y12.7952
G01 X36.2068 Y11.8907
G01 X35.1250 Y11.0884
G01 X33.9697 Y10.3960
G01 X32.7522 Y9.8201
G01 X31.4840 Y9.3664
G01 X30.1775 Y9.0391
G01 X28.8452 Y8.8415
G01 X27.4996 Y8.7754
G01 X27.3824 Y8.7808
G01 X27.2658 Y8.7971
G01 X27.1512 Y8.8240
G01 X27.0395 Y8.8614
G01 X26.9318 Y8.9090
G01 X26.8290 Y8.9663
G01 X26.7319 Y9.0328
G01 X26.6413 Y9.1080
G01 X26.5580 Y9.1913
G01 X26.4828 Y9.2819
G01 X26.4163 Y9.3790
G01 X26.3590 Y9.4818
G01 X26.3114 Y9.5895
G01 X26.2740 Y9.7012
G01 X26.2471 Y9.8158
G01 X26.2308 Y9.9324
G01 X26.2298 Y9.9547
G01 X26.2446 Y9.9622
G01 X26.2636 Y9.9736
G01 X26.2845 Y9.9886
G01 X26.2931 Y9.9955
G01 X26.3121 Y10.0129
G01 X26.3295 Y10.0319
G01 X26.3452 Y10.0523
G01 X26.3514 Y10.0614
G01 X26.3646 Y10.0836
G01 X26.3742 Y10.1035
G01 X26.3785 Y10.1136
G01 X26.3871 Y10.1379
G01 X26.3935 Y10.1629
G01 X26.3955 Y10.1737
G01 X26.3986 Y10.1956
G01 X26.3998 Y10.2176
G01 X26.4000 Y11.4037
G01 X26.3989 Y11.4257
G01 X26.3977 Y11.4367
G01 X26.3942 Y11.4585
G01 X26.3890 Y11.4800
G01 X26.3860 Y11.4906
G01 X26.3772 Y11.5148
G01 X26.3679 Y11.5348
G01 X26.3628 Y11.5446
G01 X26.3514 Y11.5636
G01 X26.3474 Y11.5697
G01 X26.3342 Y11.5874
G01 X26.3295 Y11.5931
G01 X26.3147 Y11.6095
G01 X26.3095 Y11.6147
G01 X26.2931 Y11.6295
G01 X26.2874 Y11.6342
G01 X26.2697 Y11.6474
G01 X26.2636 Y11.6514
G01 X26.2446 Y11.6628
G01 X26.2382 Y11.6663
G01 X26.2182 Y11.6757
G01 X26.2114 Y11.6785
G01 X26.1906 Y11.6860
G01 X26.1835 Y11.6881
G01 X26.1585 Y11.6942
G01 X26.1367 Y11.6977
G01 X26.1257 Y11.6989
G01 X26.1037 Y11.7000
G01 X25.7926 Y11.6998
G01 X25.7706 Y11.6986
G01 X25.7451 Y11.6949
G01 X25.7200 Y11.6890
G01 X25.7094 Y11.6860
G01 X25.6852 Y11.6772
G01 X25.6618 Y11.6663
G01 X25.6522 Y11.6609
G01 X25.6303 Y11.6474
G01 X25.6097 Y11.6319
G01 X25.5905 Y11.6147
G01 X25.5828 Y11.6068
G01 X25.5658 Y11.5874
G01 X25.5506 Y11.5667
G01 X25.5372 Y11.5446
G01 X25.5258 Y11.5215
G01 X25.5215 Y11.5114
G01 X25.5129 Y11.4871
G01 X25.5058 Y11.4585
G01 X25.5014 Y11.4294
G01 X25.5000 Y11.4037
G01 X25.5000 Y10.2250
G01 X25.5009 Y10.2029
G01 X25.5019 Y10.1919
G01 X25.5058 Y10.1665
G01 X25.5110 Y10.1450
G01 X25.5140 Y10.1344
G01 X25.5215 Y10.1136
G01 X25.5258 Y10.1035
G01 X25.5354 Y10.0836
G01 X25.5486 Y10.0614
G01 X25.5548 Y10.0523
G01 X25.5681 Y10.0347
G01 X25.5828 Y10.0182
G01 X25.5905 Y10.0103
G01 X25.6097 Y9.9931
G01 X25.6303 Y9.9776
G01 X25.6395 Y9.9716
G01 X25.6586 Y9.9604
G01 X25.6792 Y9.9505
G01 X25.6818 Y9.8943
G01 X25.6837 Y9.8724
G01 X25.7040 Y9.7272
G01 X25.7079 Y9.7056
G01 X25.7414 Y9.5628
G01 X25.7463 Y9.5450
G01 X25.7939 Y9.4027
G01 X25.8017 Y9.3822
G01 X25.8609 Y9.2480
G01 X25.8690 Y9.2314
G01 X25.9419 Y9.1002
G01 X25.9515 Y9.0844
G01 X26.0361 Y8.9605
G01 X26.0472 Y8.9456
G01 X26.1429 Y8.8300
G01 X26.1600 Y8.8113
G01 X26.2663 Y8.7053
G01 X26.2800 Y8.6929
G01 X26.3902 Y8.6015
G01 X26.4105 Y8.5861
G01 X26.5286 Y8.5052
G01 X26.5502 Y8.4919
G01 X26.6814 Y8.4190
G01 X26.6980 Y8.4109
G01 X26.8290 Y8.3530
G01 X26.8527 Y8.3439
G01 X26.9950 Y8.2963
G01 X27.0128 Y8.2914
G01 X27.1590 Y8.2572
G01 X27.1772 Y8.2540
G01 X27.3259 Y8.2334
G01 X27.3443 Y8.2318
G01 X27.4910 Y8.2251
G01 X27.5135 Y8.2253
G01 X28.8857 Y8.2927
G01 X28.9053 Y8.2944
G01 X30.2789 Y8.4982
G01 X30.2981 Y8.5022
G01 X31.6379 Y8.8380
G01 X31.6567 Y8.8439
G01 X32.9502 Y9.3067
G01 X32.9684 Y9.3140
G01 X34.2172 Y9.9044
G01 X34.2410 Y9.9172
G01 X35.4256 Y10.6274
G01 X35.4418 Y10.6385
G01 X36.5454 Y11.4569
G01 X36.5662 Y11.4740
G01 X37.5842 Y12.3967
G01 X37.6033 Y12.4158
G01 X38.5308 Y13.4393
G01 X38.5431 Y13.4546
G01 X39.3657 Y14.5642
G01 X39.3765 Y14.5806
G01 X40.0865 Y15.7654
G01 X40.0956 Y15.7828
G01 X40.6830 Y17.0248
G01 X40.6906 Y17.0429
G01 X41.1585 Y18.3503
G01 X41.1640 Y18.3692
G01 X41.4994 Y19.7091
G01 X41.5031 Y19.7284
G01 X41.7056 Y21.0947
G01 X41.7073 Y21.1143
G01 X41.7749 Y22.4902
G01 X41.7751 Y28.7500
G01 X41.7747 Y28.7635
G01 X41.7157 Y29.9642
G01 X41.7131 Y29.9911
G01 X41.5354 Y31.1875
G01 X41.5314 Y31.2067
G01 X41.2374 Y32.3799
G01 X41.2315 Y32.3987
G01 X40.8239 Y33.5374
G01 X40.8162 Y33.5555
G01 X40.2989 Y34.6488
G01 X40.2895 Y34.6660
G01 X39.6675 Y35.7034
G01 X39.6564 Y35.7196
G01 X38.9403 Y36.6852
G01 X38.9280 Y36.7005
G01 X38.1159 Y37.5968
G01 X38.1021 Y37.6108
G01 X37.2060 Y38.4232
G01 X37.1910 Y38.4358
G01 X36.2196 Y39.1564
G01 X36.2034 Y39.1675
G01 X35.1660 Y39.7895
G01 X35.1422 Y39.8022
G01 X34.0555 Y40.3162
G01 X34.0374 Y40.3239
G01 X32.8987 Y40.7315
G01 X32.8799 Y40.7374
G01 X31.6995 Y41.0331
G01 X31.6802 Y41.0367
G01 X30.4874 Y41.2136
G01 X30.4642 Y41.2157
G01 X29.2635 Y41.2747
G01 X29.2500 Y41.2751
G01 X22.6139 Y41.2751
G01 X22.5251 Y41.3639
G01 X22.5251 Y41.6361
G01 X22.6639 Y41.7749
G01 X22.8275 Y41.7749
G01 X22.8354 Y41.7586
G01 X22.8486 Y41.7364
G01 X22.8548 Y41.7273
G01 X22.8681 Y41.7097
G01 X22.8853 Y41.6905
G01 X22.8932 Y41.6828
G01 X22.9097 Y41.6681
G01 X22.9303 Y41.6526
G01 X22.9395 Y41.6466
G01 X22.9586 Y41.6354
G01 X22.9818 Y41.6243
G01 X22.9921 Y41.6202
G01 X23.0129 Y41.6129
G01 X23.0343 Y41.6074
G01 X23.0451 Y41.6051
G01 X23.0706 Y41.6014
G01 X23.1000 Y41.6000
G01 X24.2787 Y41.6000
G01 X24.3007 Y41.6011
G01 X24.3081 Y41.6019
G01 X24.3299 Y41.6051
G01 X24.3371 Y41.6065
G01 X24.3585 Y41.6119
G01 X24.3656 Y41.6140
G01 X24.3864 Y41.6215
G01 X24.3932 Y41.6243
G01 X24.4164 Y41.6354
G01 X24.4417 Y41.6506
G01 X24.4653 Y41.6681
G01 X24.4871 Y41.6879
G01 X24.5069 Y41.7097
G01 X24.5224 Y41.7303
G01 X24.5264 Y41.7364
G01 X24.5378 Y41.7554
G01 X24.5475 Y41.7749
G01 X24.5574 Y41.7751
G01 X24.5770 Y41.7763
G01 X24.6000 Y41.7795
G01 X24.6073 Y41.7810
G01 X24.6263 Y41.7858
G01 X24.6484 Y41.7932
G01 X24.6586 Y41.7973
G01 X24.6731 Y41.8041
G01 X24.6861 Y41.8110
G01 X24.7059 Y41.8234
G01 X24.7216 Y41.8351
G01 X24.7301 Y41.8422
G01 X24.7445 Y41.8555
G01 X25.6139 Y42.7249
G01 X27.3275 Y42.7249
G01 X27.3354 Y42.7086
G01 X27.3486 Y42.6864
G01 X27.3548 Y42.6773
G01 X27.3681 Y42.6597
G01 X27.3853 Y42.6405
G01 X27.3932 Y42.6328
G01 X27.4097 Y42.6181
G01 X27.4303 Y42.6026
G01 X27.4395 Y42.5966
G01 X27.4586 Y42.5854
G01 X27.4818 Y42.5743
G01 X27.4921 Y42.5702
G01 X27.5129 Y42.5629
G01 X27.5343 Y42.5574
G01 X27.5451 Y42.5551
G01 X27.5706 Y42.5514
G01 X27.6000 Y42.5500
G01 X28.7750 Y42.5500
G01 X28.8044 Y42.5514
G01 X28.8263 Y42.5545
G01 X28.8407 Y42.5574
G01 X28.8656 Y42.5640
G01 X28.8898 Y42.5728
G01 X28.9132 Y42.5837
G01 X28.9355 Y42.5966
G01 X28.9477 Y42.6048
G01 X28.9653 Y42.6181
G01 X28.9871 Y42.6379
G01 X29.0069 Y42.6597
G01 X29.0202 Y42.6773
G01 X29.0284 Y42.6895
G01 X29.0413 Y42.7118
G01 X29.0522 Y42.7352
G01 X29.0610 Y42.7594
G01 X29.0640 Y42.7700
G01 X29.0699 Y42.7951
G01 X29.0736 Y42.8206
G01 X29.0750 Y42.8463
G01 X29.0750 Y43.1537
G01 X29.0736 Y43.1794
G01 X29.0705 Y43.2013
G01 X29.0685 Y43.2121
G01 X29.0621 Y43.2371
G01 X29.0522 Y43.2648
G01 X29.0429 Y43.2848
G01 X29.0378 Y43.2946
G01 X29.0264 Y43.3136
G01 X29.0224 Y43.3197
G01 X29.0092 Y43.3374
G01 X29.0021 Y43.3459
G01 X28.9897 Y43.3595
G01 X28.9818 Y43.3672
G01 X28.9653 Y43.3819
G01 X28.9477 Y43.3952
G01 X28.9386 Y43.4014
G01 X28.9196 Y43.4128
G01 X28.8965 Y43.4242
G01 X28.8864 Y43.4285
G01 X28.8656 Y43.4360
G01 X28.8585 Y43.4381
G01 X28.8371 Y43.4435
G01 X28.8299 Y43.4449
G01 X28.8081 Y43.4481
G01 X28.8007 Y43.4489
G01 X28.7787 Y43.4500
G01 X27.5926 Y43.4498
G01 X27.5706 Y43.4486
G01 X27.5487 Y43.4455
G01 X27.5379 Y43.4435
G01 X27.5129 Y43.4371
G01 X27.4852 Y43.4272
G01 X27.4652 Y43.4179
G01 X27.4554 Y43.4128
G01 X27.4333 Y43.3994
G01 X27.4126 Y43.3842
G01 X27.4041 Y43.3771
G01 X27.3879 Y43.3621
G01 X27.3705 Y43.3431
G01 X27.3548 Y43.3227
G01 X27.3486 Y43.3136
G01 X27.3354 Y43.2914
G01 X27.3275 Y43.2751
G01 X25.5000 Y43.2751
G01 X25.4767 Y43.2741
G01 X25.4657 Y43.2728
G01 X25.4463 Y43.2698
G01 X25.4202 Y43.2632
G01 X25.4016 Y43.2568
G01 X25.3914 Y43.2527
G01 X25.3736 Y43.2443
G01 X25.3639 Y43.2390
G01 X25.3472 Y43.2287
G01 X25.3313 Y43.2172
G01 X25.3227 Y43.2103
G01 X25.3081 Y43.1971
G01 X24.5043 Y42.3933
G01 X24.4897 Y42.4095
G01 X24.4845 Y42.4147
G01 X24.4681 Y42.4295
G01 X24.4624 Y42.4342
G01 X24.4447 Y42.4474
G01 X24.4386 Y42.4514
G01 X24.4196 Y42.4628
G01 X24.4132 Y42.4663
G01 X24.3932 Y42.4757
G01 X24.3864 Y42.4785
G01 X24.3656 Y42.4860
G01 X24.3585 Y42.4881
G01 X24.3371 Y42.4935
G01 X24.3299 Y42.4949
G01 X24.3081 Y42.4981
G01 X24.3007 Y42.4989
G01 X24.2750 Y42.5000
G01 X23.1000 Y42.5000
G01 X23.0779 Y42.4991
G01 X23.0669 Y42.4981
G01 X23.0415 Y42.4942
G01 X23.0165 Y42.4881
G01 X23.0059 Y42.4848
G01 X22.9852 Y42.4772
G01 X22.9618 Y42.4663
G01 X22.9522 Y42.4609
G01 X22.9303 Y42.4474
G01 X22.9097 Y42.4319
G01 X22.8932 Y42.4172
G01 X22.8853 Y42.4095
G01 X22.8681 Y42.3903
G01 X22.8548 Y42.3727
G01 X22.8486 Y42.3636
G01 X22.8354 Y42.3414
G01 X22.8275 Y42.3251
G01 X22.5500 Y42.3251
G01 X22.5230 Y42.3237
G01 X22.4963 Y42.3198
G01 X22.4772 Y42.3152
G01 X22.4666 Y42.3121
G01 X22.4482 Y42.3055
G01 X22.4414 Y42.3027
G01 X22.4236 Y42.2943
G01 X22.4139 Y42.2890
G01 X22.3972 Y42.2787
G01 X22.3813 Y42.2672
G01 X22.3727 Y42.2603
G01 X22.3581 Y42.2471
G01 X22.0529 Y41.9419
G01 X22.0374 Y41.9245
G01 X22.0213 Y41.9028
G01 X22.0074 Y41.8797
G01 X21.9959 Y41.8553
G01 X21.9868 Y41.8298
G01 X21.9802 Y41.8037
G01 X21.9763 Y41.7770
G01 X21.9750 Y41.7537
G01 X21.9751 Y41.2426
G00 Z2.0000
G00 X9.1919 Y26.2453
G01 F50.00
G01 Z-0.0500
G01 F50.00
G01 X15.7919 Y26.2453
G01 X15.8029 Y26.2457
G01 X15.8139 Y26.2469
G01 X15.8248 Y26.2490
G01 X15.8319 Y26.2508
G01 X15.8389 Y26.2529
G01 X15.8493 Y26.2567
G01 X15.8593 Y26.2613
G01 X15.8690 Y26.2667
G01 X15.8752 Y26.2706
G01 X15.8842 Y26.2771
G01 X15.8926 Y26.2842
G01 X15.8980 Y26.2893
G01 X15.9055 Y26.2973
G01 X15.9101 Y26.3030
G01 X15.9166 Y26.3120
G01 X15.9205 Y26.3182
G01 X15.9259 Y26.3279
G01 X15.9290 Y26.3345
G01 X15.9331 Y26.3448
G01 X15.9354 Y26.3518
G01 X15.9382 Y26.3625
G01 X15.9403 Y26.3733
G01 X15.9415 Y26.3843
G01 X15.9418 Y26.3916
G01 X15.9419 Y29.2453
G01 X15.9412 Y29.2600
G01 X15.9397 Y29.2710
G01 X15.9382 Y29.2782
G01 X15.9343 Y29.2924
G01 X15.9305 Y29.3027
G01 X15.9275 Y29.3095
G01 X15.9224 Y29.3193
G01 X15.9186 Y29.3256
G01 X15.9124 Y29.3347
G01 X15.9055 Y29.3433
G01 X15.8980 Y29.3514
G01 X15.8899 Y29.3589
G01 X15.8842 Y29.3636
G01 X15.8752 Y29.3700
G01 X15.8658 Y29.3758
G01 X15.8560 Y29.3809
G01 X15.8459 Y29.3853
G01 X15.8354 Y29.3889
G01 X15.8248 Y29.3917
G01 X15.8175 Y29.3931
G01 X15.8066 Y29.3946
G01 X15.7956 Y29.3953
G01 X12.9662 Y29.3953
G01 X12.9867 Y29.4878
G01 X13.1558 Y30.0238
G01 X13.3708 Y30.5430
G01 X13.6304 Y31.0416
G01 X13.9323 Y31.5156
G01 X14.2745 Y31.9615
G01 X14.6587 Y32.3807
G01 X15.2888 Y33.0109
G01 X16.5873 Y30.7619
G01 X16.5956 Y30.7498
G01 X16.6002 Y30.7440
G01 X16.6075 Y30.7358
G01 X16.6183 Y30.7257
G01 X16.6300 Y30.7168
G01 X16.6425 Y30.7090
G01 X16.6557 Y30.7025
G01 X16.6695 Y30.6973
G01 X16.6837 Y30.6935
G01 X16.6945 Y30.6915
G01 X16.7092 Y30.6902
G01 X16.7239 Y30.6903
G01 X16.7386 Y30.6919
G01 X16.7494 Y30.6940
G01 X16.7636 Y30.6981
G01 X16.7772 Y30.7035
G01 X16.7903 Y30.7102
G01 X19.2585 Y32.1352
G01 X19.2648 Y32.1390
G01 X19.2738 Y32.1453
G01 X19.2824 Y32.1523
G01 X19.2904 Y32.1599
G01 X19.2979 Y32.1680
G01 X19.3047 Y32.1767
G01 X19.3109 Y32.1859
G01 X19.3146 Y32.1922
G01 X19.3196 Y32.2021
G01 X19.3226 Y32.2088
G01 X19.3263 Y32.2192
G01 X19.3293 Y32.2298
G01 X19.3315 Y32.2407
G01 X19.3325 Y32.2480
G01 X19.3332 Y32.2553
G01 X19.3335 Y32.2663
G01 X19.3333 Y32.2737
G01 X19.3322 Y32.2847
G01 X19.3304 Y32.2956
G01 X19.3287 Y32.3027
G01 X19.3267 Y32.3098
G01 X19.3230 Y32.3202
G01 X19.3186 Y32.3303
G01 X19.3134 Y32.3401
G01 X16.0134 Y38.0559
G01 X16.0075 Y38.0652
G01 X16.0010 Y38.0741
G01 X15.9938 Y38.0825
G01 X15.9887 Y38.0878
G01 X15.9833 Y38.0928
G01 X15.9748 Y38.0999
G01 X15.9658 Y38.1063
G01 X15.9564 Y38.1120
G01 X15.9465 Y38.1170
G01 X15.9363 Y38.1212
G01 X15.9259 Y38.1248
G01 X15.9188 Y38.1267
G01 X15.9116 Y38.1282
G01 X15.9007 Y38.1299
G01 X15.8896 Y38.1307
G01 X15.8823 Y38.1309
G01 X15.8749 Y38.1306
G01 X15.8639 Y38.1296
G01 X15.8567 Y38.1284
G01 X15.8459 Y38.1261
G01 X15.8388 Y38.1240
G01 X15.8284 Y38.1204
G01 X15.8183 Y38.1159
G01 X15.8117 Y38.1126
G01 X13.3403 Y36.6858
G01 X13.3310 Y36.6799
G01 X13.3221 Y36.6734
G01 X13.3110 Y36.6636
G01 X13.3034 Y36.6557
G01 X13.2963 Y36.6472
G01 X13.2880 Y36.6351
G01 X13.2808 Y36.6222
G01 X13.2763 Y36.6121
G01 X13.2725 Y36.6017
G01 X13.2704 Y36.5947
G01 X13.2673 Y36.5803
G01 X13.2657 Y36.5657
G01 X13.2653 Y36.5546
G01 X13.2656 Y36.5473
G01 X13.2662 Y36.5399
G01 X13.2678 Y36.5290
G01 X13.2711 Y36.5147
G01 X13.2745 Y36.5042
G01 X13.2772 Y36.4973
G01 X13.2836 Y36.4841
G01 X15.0041 Y33.5041
G01 X14.2624 Y32.7624
G01 X13.8565 Y32.3194
G01 X13.8454 Y32.3059
G01 X13.4847 Y31.8357
G01 X13.4748 Y31.8213
G01 X13.1599 Y31.3270
G01 X13.1479 Y31.3062
G01 X12.8744 Y30.7805
G01 X12.8672 Y30.7647
G01 X12.6417 Y30.2202
G01 X12.6347 Y30.2007
G01 X12.4575 Y29.6386
G01 X12.4523 Y29.6186
G01 X12.4028 Y29.3953
G01 X9.1882 Y29.3953
G01 X9.1809 Y29.3949
G01 X9.1699 Y29.3937
G01 X9.1590 Y29.3917
G01 X9.1483 Y29.3889
G01 X9.1414 Y29.3865
G01 X9.1311 Y29.3824
G01 X9.1244 Y29.3793
G01 X9.1148 Y29.3740
G01 X9.1086 Y29.3700
G01 X9.0996 Y29.3636
G01 X9.0939 Y29.3589
G01 X9.0858 Y29.3514
G01 X9.0783 Y29.3433
G01 X9.0714 Y29.3347
G01 X9.0672 Y29.3287
G01 X9.0614 Y29.3193
G01 X9.0579 Y29.3128
G01 X9.0533 Y29.3027
G01 X9.0507 Y29.2959
G01 X9.0473 Y29.2853
G01 X9.0455 Y29.2782
G01 X9.0435 Y29.2673
G01 X9.0423 Y29.2564
G01 X9.0419 Y29.2453
G01 X9.0421 Y26.3880
G01 X9.0435 Y26.3733
G01 X9.0464 Y26.3589
G01 X9.0507 Y26.3448
G01 X9.0563 Y26.3312
G01 X9.0632 Y26.3182
G01 X9.0714 Y26.3060
G01 X9.0783 Y26.2973
G01 X9.0885 Y26.2867
G01 X9.0996 Y26.2771
G01 X9.1086 Y26.2706
G01 X9.1212 Y26.2630
G01 X9.1345 Y26.2567
G01 X9.1483 Y26.2518
G01 X9.1626 Y26.2482
G01 X9.1772 Y26.2460
G01 X9.1919 Y26.2453
G00 Z2.0000
G00 X8.2251 Y22.4933
G01 F50.00
G01 Z-0.0500
G01 F50.00
G01 X8.2927 Y21.1143
G01 X8.2944 Y21.0947
G01 X8.4969 Y19.7284
G01 X8.5006 Y19.7091
G01 X8.8360 Y18.3692
G01 X8.8415 Y18.3503
G01 X9.3067 Y17.0498
G01 X9.3170 Y17.0248
G01 X9.9078 Y15.7763
G01 X9.9172 Y15.7590
G01 X10.6235 Y14.5806
G01 X10.6385 Y14.5582
G01 X11.4569 Y13.4546
G01 X11.4740 Y13.4338
G01 X12.4018 Y12.4105
G01 X12.4158 Y12.3967
G01 X13.4365 Y11.4716
G01 X13.4546 Y11.4569
G01 X14.5642 Y10.6343
G01 X14.5806 Y10.6235
G01 X15.7590 Y9.9172
G01 X15.7763 Y9.9078
G01 X17.0248 Y9.3170
G01 X17.0429 Y9.3094
G01 X18.3433 Y8.8439
G01 X18.3692 Y8.8360
G01 X19.7091 Y8.5006
G01 X19.7284 Y8.4969
G01 X21.0874 Y8.2953
G01 X21.1143 Y8.2927
G01 X22.4939 Y8.2251
G01 X22.5127 Y8.2252
G01 X22.6557 Y8.2318
G01 X22.6741 Y8.2334
G01 X22.8228 Y8.2540
G01 X22.8478 Y8.2586
G01 X22.9939 Y8.2932
G01 X23.0116 Y8.2984
G01 X23.1473 Y8.3439
G01 X23.1710 Y8.3530
G01 X23.3020 Y8.4109
G01 X23.3247 Y8.4222
G01 X23.4558 Y8.4954
G01 X23.4714 Y8.5052
G01 X23.5952 Y8.5902
G01 X23.6098 Y8.6015
G01 X23.7200 Y8.6929
G01 X23.7337 Y8.7053
G01 X23.8400 Y8.8113
G01 X23.8548 Y8.8274
G01 X23.9528 Y8.9456
G01 X23.9639 Y8.9605
G01 X24.0448 Y9.0786
G01 X24.0581 Y9.1002
G01 X24.1278 Y9.2253
G01 X24.1377 Y9.2448
G01 X24.1970 Y9.3790
G01 X24.2038 Y9.3961
G01 X24.2516 Y9.5384
G01 X24.2578 Y9.5595
G01 X24.2914 Y9.7022
G01 X24.2955 Y9.7238
G01 X24.3163 Y9.8724
G01 X24.3182 Y9.8943
G01 X24.3208 Y9.9505
G01 X24.3414 Y9.9604
G01 X24.3605 Y9.9716
G01 X24.3697 Y9.9776
G01 X24.3874 Y9.9908
G01 X24.3959 Y9.9979
G01 X24.4121 Y10.0129
G01 X24.4271 Y10.0291
G01 X24.4342 Y10.0376
G01 X24.4494 Y10.0583
G01 X24.4609 Y10.0772
G01 X24.4663 Y10.0868
G01 X24.4757 Y10.1068
G01 X24.4798 Y10.1171
G01 X24.4871 Y10.1379
G01 X24.4926 Y10.1593
G01 X24.4949 Y10.1701
G01 X24.4986 Y10.1956
G01 X24.5000 Y10.2250
G01 X24.5000 Y11.4000
G01 X24.4986 Y11.4294
G01 X24.4949 Y11.4549
G01 X24.4926 Y11.4657
G01 X24.4871 Y11.4871
G01 X24.4798 Y11.5079
G01 X24.4757 Y11.5182
G01 X24.4646 Y11.5414
G01 X24.4534 Y11.5605
G01 X24.4474 Y11.5697
G01 X24.4319 Y11.5903
G01 X24.4172 Y11.6068
G01 X24.4095 Y11.6147
G01 X24.3931 Y11.6295
G01 X24.3845 Y11.6364
G01 X24.3667 Y11.6494
G01 X24.3446 Y11.6628
G01 X24.3348 Y11.6679
G01 X24.3114 Y11.6785
G01 X24.2906 Y11.6860
G01 X24.2835 Y11.6881
G01 X24.2621 Y11.6935
G01 X24.2549 Y11.6949
G01 X24.2331 Y11.6981
G01 X24.2221 Y11.6991
G01 X24.2000 Y11.7000
G01 X23.8963 Y11.7000
G01 X23.8706 Y11.6986
G01 X23.8415 Y11.6942
G01 X23.8165 Y11.6881
G01 X23.8059 Y11.6848
G01 X23.7852 Y11.6772
G01 X23.7652 Y11.6679
G01 X23.7554 Y11.6628
G01 X23.7364 Y11.6514
G01 X23.7273 Y11.6452
G01 X23.7097 Y11.6319
G01 X23.6932 Y11.6172
G01 X23.6853 Y11.6095
G01 X23.6705 Y11.5931
G01 X23.6636 Y11.5845
G01 X23.6506 Y11.5667
G01 X23.6391 Y11.5478
G01 X23.6337 Y11.5382
G01 X23.6243 Y11.5182
G01 X23.6215 Y11.5114
G01 X23.6140 Y11.4906
G01 X23.6119 Y11.4835
G01 X23.6065 Y11.4621
G01 X23.6051 Y11.4549
G01 X23.6019 Y11.4331
G01 X23.6011 Y11.4257
G01 X23.6000 Y11.4037
G01 X23.6000 Y10.2250
G01 X23.6011 Y10.1993
G01 X23.6023 Y10.1883
G01 X23.6058 Y10.1665
G01 X23.6119 Y10.1415
G01 X23.6152 Y10.1309
G01 X23.6228 Y10.1102
G01 X23.6337 Y10.0868
G01 X23.6391 Y10.0772
G01 X23.6526 Y10.0553
G01 X23.6681 Y10.0347
G01 X23.6828 Y10.0182
G01 X23.6905 Y10.0103
G01 X23.7069 Y9.9955
G01 X23.7273 Y9.9798
G01 X23.7364 Y9.9736
G01 X23.7554 Y9.9622
G01 X23.7702 Y9.9547
G01 X23.7692 Y9.9324
G01 X23.7529 Y9.8158
G01 X23.7260 Y9.7012
G01 X23.6886 Y9.5895
G01 X23.6410 Y9.4818
G01 X23.5837 Y9.3790
G01 X23.5172 Y9.2819
G01 X23.4420 Y9.1913
G01 X23.3587 Y9.1080
G01 X23.2681 Y9.0328
G01 X23.1710 Y8.9663
G01 X23.0682 Y8.9090
G01 X22.9605 Y8.8614
G01 X22.8488 Y8.8240
G01 X22.7342 Y8.7971
G01 X22.6176 Y8.7808
G01 X22.5004 Y8.7754
G01 X21.1548 Y8.8415
G01 X19.8225 Y9.0391
G01 X18.5160 Y9.3664
G01 X17.2478 Y9.8201
G01 X16.0303 Y10.3960
G01 X14.8750 Y11.0884
G01 X13.7932 Y11.8907
G01 X12.7952 Y12.7952
G01 X11.8907 Y13.7932
G01 X11.0884 Y14.8750
G01 X10.3960 Y16.0303
G01 X9.8201 Y17.2478
G01 X9.3664 Y18.5160
G01 X9.0391 Y19.8225
G01 X8.8415 Y21.1548
G01 X8.7751 Y22.5068
G01 X8.7751 Y28.7436
G01 X8.8264 Y29.8549
G01 X8.9792 Y30.9503
G01 X9.2325 Y32.0270
G01 X9.5840 Y33.0757
G01 X10.0307 Y34.0875
G01 X10.5689 Y35.0538
G01 X11.1940 Y35.9663
G01 X11.9006 Y36.8173
G01 X12.6827 Y37.5994
G01 X13.5337 Y38.3060
G01 X14.4462 Y38.9310
G01 X15.4124 Y39.4693
G01 X16.4243 Y39.9160
G01 X17.4730 Y40.2675
G01 X18.5497 Y40.5208
G01 X19.6451 Y40.6736
G01 X20.2998 Y40.7038
G01 X18.2271 Y39.5069
G01 X18.2180 Y39.5006
G01 X18.2095 Y39.4936
G01 X18.2014 Y39.4861
G01 X18.1940 Y39.4779
G01 X18.1872 Y39.4692
G01 X18.1810 Y39.4601
G01 X18.1755 Y39.4505
G01 X18.1708 Y39.4405
G01 X18.1667 Y39.4302
G01 X18.1635 Y39.4197
G01 X18.1610 Y39.4089
G01 X18.1594 Y39.3980
G01 X18.1585 Y39.3870
G01 X18.1585 Y39.3760
G01 X18.1592 Y39.3649
G01 X18.1608 Y39.3540
G01 X18.1641 Y39.3397
G01 X18.1676 Y39.3292
G01 X18.1718 Y39.3190
G01 X18.1785 Y39.3059
G01 X21.4785 Y33.5901
G01 X21.4843 Y33.5807
G01 X21.4932 Y33.5690
G01 X21.5032 Y33.5582
G01 X21.5142 Y33.5484
G01 X21.5230 Y33.5418
G01 X21.5323 Y33.5358
G01 X21.5420 Y33.5306
G01 X21.5521 Y33.5260
G01 X21.5625 Y33.5223
G01 X21.5731 Y33.5193
G01 X21.5839 Y33.5171
G01 X21.5949 Y33.5157
G01 X21.6059 Y33.5151
G01 X21.6170 Y33.5153
G01 X21.6280 Y33.5164
G01 X21.6388 Y33.5182
G01 X21.6496 Y33.5209
G01 X21.6601 Y33.5243
G01 X21.6703 Y33.5285
G01 X21.6802 Y33.5334
G01 X24.1516 Y34.9602
G01 X24.1609 Y34.9661
G01 X24.1698 Y34.9726
G01 X24.1809 Y34.9823
G01 X24.1909 Y34.9930
G01 X24.1999 Y35.0047
G01 X24.2058 Y35.0140
G01 X24.2127 Y35.0271
G01 X24.2169 Y35.0373
G01 X24.2204 Y35.0477
G01 X24.2239 Y35.0620
G01 X24.2259 Y35.0766
G01 X24.2265 Y35.0876
G01 X24.2263 Y35.0987
G01 X24.2247 Y35.1133
G01 X24.2218 Y35.1277
G01 X24.2186 Y35.1383
G01 X24.2132 Y35.1520
G01 X24.2083 Y35.1619
G01 X21.0251 Y40.6754
G01 X21.0251 Y42.3861
G01 X21.1910 Y42.5520
G01 X21.2029 Y42.5509
G01 X21.2250 Y42.5500
G01 X22.4000 Y42.5500
G01 X22.4221 Y42.5509
G01 X22.4331 Y42.5519
G01 X22.4585 Y42.5558
G01 X22.4800 Y42.5610
G01 X22.4906 Y42.5640
G01 X22.5114 Y42.5715
G01 X22.5215 Y42.5758
G01 X22.5414 Y42.5854
G01 X22.5636 Y42.5986
G01 X22.5727 Y42.6048
G01 X22.5903 Y42.6181
G01 X22.6068 Y42.6328
G01 X22.6147 Y42.6405
G01 X22.6319 Y42.6597
G01 X22.6452 Y42.6773
G01 X22.6514 Y42.6864
G01 X22.6646 Y42.7086
G01 X22.6725 Y42.7249
G01 X24.5000 Y42.7249
G01 X24.5270 Y42.7263
G01 X24.5464 Y42.7290
G01 X24.5608 Y42.7318
G01 X24.5834 Y42.7379
G01 X24.6018 Y42.7445
G01 X24.6086 Y42.7473
G01 X24.6264 Y42.7557
G01 X24.6361 Y42.7610
G01 X24.6528 Y42.7713
G01 X24.6687 Y42.7828
G01 X24.6773 Y42.7897
G01 X24.6919 Y42.8029
G01 X25.4957 Y43.6067
G01 X25.5103 Y43.5905
G01 X25.5155 Y43.5853
G01 X25.5319 Y43.5705
G01 X25.5376 Y43.5658
G01 X25.5553 Y43.5526
G01 X25.5614 Y43.5486
G01 X25.5804 Y43.5372
G01 X25.5902 Y43.5321
G01 X25.6068 Y43.5243
G01 X25.6171 Y43.5202
G01 X25.6379 Y43.5129
G01 X25.6593 Y43.5074
G01 X25.6701 Y43.5051
G01 X25.6919 Y43.5019
G01 X25.7176 Y43.5002
G01 X26.9037 Y43.5000
G01 X26.9294 Y43.5014
G01 X26.9513 Y43.5045
G01 X26.9621 Y43.5065
G01 X26.9871 Y43.5129
G01 X27.0114 Y43.5215
G01 X27.0215 Y43.5258
G01 X27.0414 Y43.5354
G01 X27.0636 Y43.5486
G01 X27.0727 Y43.5548
G01 X27.0903 Y43.5681
G01 X27.1068 Y43.5828
G01 X27.1147 Y43.5905
G01 X27.1319 Y43.6097
G01 X27.1452 Y43.6273
G01 X27.1514 Y43.6364
G01 X27.1628 Y43.6554
G01 X27.1679 Y43.6652
G01 X27.1772 Y43.6852
G01 X27.1848 Y43.7059
G01 X27.1881 Y43.7165
G01 X27.1935 Y43.7379
G01 X27.1955 Y43.7487
G01 X27.1986 Y43.7706
G01 X27.1998 Y43.7926
G01 X27.2000 Y44.1037
G01 X27.1986 Y44.1294
G01 X27.1942 Y44.1585
G01 X27.1871 Y44.1871
G01 X27.1785 Y44.2114
G01 X27.1679 Y44.2348
G01 X27.1609 Y44.2478
G01 X27.1494 Y44.2667
G01 X27.1319 Y44.2903
G01 X27.1121 Y44.3121
G01 X27.0931 Y44.3295
G01 X27.0727 Y44.3452
G01 X27.0605 Y44.3534
G01 X27.0382 Y44.3663
G01 X27.0182 Y44.3757
G01 X27.0114 Y44.3785
G01 X26.9871 Y44.3871
G01 X26.9585 Y44.3942
G01 X26.9294 Y44.3986
G01 X26.9037 Y44.4000
G01 X25.7213 Y44.4000
G01 X25.6956 Y44.3986
G01 X25.6665 Y44.3942
G01 X25.6379 Y44.3871
G01 X25.6136 Y44.3785
G01 X25.6068 Y44.3757
G01 X25.5868 Y44.3663
G01 X25.5804 Y44.3628
G01 X25.5614 Y44.3514
G01 X25.5553 Y44.3474
G01 X25.5376 Y44.3342
G01 X25.5319 Y44.3295
G01 X25.5155 Y44.3147
G01 X25.5103 Y44.3095
G01 X25.4955 Y44.2931
G01 X25.4908 Y44.2874
G01 X25.4776 Y44.2697
G01 X25.4736 Y44.2636
G01 X25.4622 Y44.2446
G01 X25.4525 Y44.2251
G01 X25.4426 Y44.2249
G01 X25.4230 Y44.2237
G01 X25.4000 Y44.2205
G01 X25.3927 Y44.2190
G01 X25.3737 Y44.2142
G01 X25.3516 Y44.2068
G01 X25.3414 Y44.2027
G01 X25.3269 Y44.1959
G01 X25.3139 Y44.1890
G01 X25.2941 Y44.1766
G01 X25.2784 Y44.1649
G01 X25.2699 Y44.1578
G01 X25.2555 Y44.1445
G01 X24.3861 Y43.2751
G01 X22.6725 Y43.2751
G01 X22.6646 Y43.2914
G01 X22.6514 Y43.3136
G01 X22.6364 Y43.3345
G01 X22.6295 Y43.3431
G01 X22.6121 Y43.3621
G01 X22.5959 Y43.3771
G01 X22.5874 Y43.3842
G01 X22.5667 Y43.3994
G01 X22.5414 Y43.4146
G01 X22.5215 Y43.4242
G01 X22.5114 Y43.4285
G01 X22.4871 Y43.4371
G01 X22.4621 Y43.4435
G01 X22.4513 Y43.4455
G01 X22.4294 Y43.4486
G01 X22.4074 Y43.4498
G01 X21.2213 Y43.4500
G01 X21.1993 Y43.4489
G01 X21.1919 Y43.4481
G01 X21.1701 Y43.4449
G01 X21.1629 Y43.4435
G01 X21.1415 Y43.4381
G01 X21.1344 Y43.4360
G01 X21.1136 Y43.4285
G01 X21.1035 Y43.4242
G01 X21.0836 Y43.4146
G01 X21.0583 Y43.3994
G01 X21.0347 Y43.3819
G01 X21.0155 Y43.3647
G01 X21.0103 Y43.3595
G01 X20.9955 Y43.3431
G01 X20.9798 Y43.3227
G01 X20.9716 Y43.3105
G01 X20.9587 Y43.2882
G01 X20.9478 Y43.2648
G01 X20.9390 Y43.2406
G01 X20.9324 Y43.2157
G01 X20.9295 Y43.2013
G01 X20.9264 Y43.1794
G01 X20.9250 Y43.1537
G01 X20.9250 Y43.0640
G01 X20.5555 Y42.6945
G01 X20.5422 Y42.6801
G01 X20.5351 Y42.6716
G01 X20.5234 Y42.6559
G01 X20.5193 Y42.6497
G01 X20.5092 Y42.6329
G01 X20.5041 Y42.6231
G01 X20.4959 Y42.6053
G01 X20.4868 Y42.5798
G01 X20.4810 Y42.5573
G01 X20.4790 Y42.5464
G01 X20.4763 Y42.5270
G01 X20.4749 Y42.5000
G01 X20.4749 Y41.2626
G01 X19.6070 Y41.2225
G01 X19.5886 Y41.2210
G01 X18.4611 Y41.0638
G01 X18.4361 Y41.0592
G01 X17.3346 Y40.8001
G01 X17.3102 Y40.7932
G01 X16.2309 Y40.4312
G01 X16.2137 Y40.4244
G01 X15.1786 Y39.9674
G01 X15.1559 Y39.9560
G01 X14.1614 Y39.4019
G01 X14.1458 Y39.3921
G01 X13.2066 Y38.7486
G01 X13.1920 Y38.7373
G01 X12.3215 Y38.0145
G01 X12.3077 Y38.0021
G01 X11.5026 Y37.1973
G01 X11.4878 Y37.1811
G01 X10.7584 Y36.3026
G01 X10.7474 Y36.2877
G01 X10.1079 Y35.3542
G01 X10.0945 Y35.3326
G01 X9.5407 Y34.3380
G01 X9.5326 Y34.3214
G01 X9.0756 Y33.2863
G01 X9.0664 Y33.2626
G01 X8.7068 Y32.1898
G01 X8.7016 Y32.1720
G01 X8.4401 Y31.0605
G01 X8.4362 Y31.0389
G01 X8.2794 Y29.9148
G01 X8.2775 Y29.8930
G01 X8.2534 Y29.3715
G01 X8.2459 Y29.3552
G01 X8.2391 Y29.3368
G01 X8.2358 Y29.3263
G01 X8.2318 Y29.3108
G01 X8.2295 Y29.3000
G01 X8.2267 Y29.2806
G01 X8.2259 Y29.2733
G01 X8.2250 Y29.2537
G01 X8.2251 Y22.4933
G00 Z2.0000
G00 X9.1919 Y20.5953
G01 F50.00
G01 Z-0.0500
G01 F50.00
G01 X12.4035 Y20.5953
G01 X12.5145 Y20.1522
G01 X12.5201 Y20.1334
G01 X12.7446 Y19.5053
G01 X12.7519 Y19.4871
G01 X13.0403 Y18.8774
G01 X13.0497 Y18.8602
G01 X13.3908 Y18.2912
G01 X13.4038 Y18.2719
G01 X13.7968 Y17.7421
G01 X13.8139 Y17.7212
G01 X14.2636 Y17.2253
G01 X15.0000 Y16.4889
G01 X13.2796 Y13.5089
G01 X13.2747 Y13.4990
G01 X13.2718 Y13.4922
G01 X13.2670 Y13.4783
G01 X13.2652 Y13.4712
G01 X13.2631 Y13.4603
G01 X13.2615 Y13.4457
G01 X13.2613 Y13.4383
G01 X13.2616 Y13.4273
G01 X13.2633 Y13.4127
G01 X13.2664 Y13.3983
G01 X13.2696 Y13.3877
G01 X13.2722 Y13.3808
G01 X13.2784 Y13.3675
G01 X13.2839 Y13.3579
G01 X13.2923 Y13.3458
G01 X13.2993 Y13.3373
G01 X13.3096 Y13.3268
G01 X13.3180 Y13.3196
G01 X13.3269 Y13.3131
G01 X13.3363 Y13.3072
G01 X15.8077 Y11.8804
G01 X15.8175 Y11.8755
G01 X15.8278 Y11.8713
G01 X15.8383 Y11.8679
G01 X15.8490 Y11.8652
G01 X15.8599 Y11.8634
G01 X15.8709 Y11.8624
G01 X15.8819 Y11.8621
G01 X15.8929 Y11.8627
G01 X15.9039 Y11.8641
G01 X15.9111 Y11.8655
G01 X15.9218 Y11.8682
G01 X15.9323 Y11.8717
G01 X15.9425 Y11.8760
G01 X15.9523 Y11.8810
G01 X15.9618 Y11.8867
G01 X15.9708 Y11.8931
G01 X15.9820 Y11.9026
G01 X15.9922 Y11.9132
G01 X16.0014 Y11.9247
G01 X16.0094 Y11.9371
G01 X19.3094 Y17.6529
G01 X19.3145 Y17.6626
G01 X19.3190 Y17.6728
G01 X19.3226 Y17.6832
G01 X19.3247 Y17.6902
G01 X19.3263 Y17.6974
G01 X19.3282 Y17.7083
G01 X19.3292 Y17.7193
G01 X19.3294 Y17.7303
G01 X19.3288 Y17.7414
G01 X19.3274 Y17.7523
G01 X19.3261 Y17.7596
G01 X19.3233 Y17.7703
G01 X19.3198 Y17.7807
G01 X19.3171 Y17.7875
G01 X19.3140 Y17.7942
G01 X19.3087 Y17.8039
G01 X19.3028 Y17.8132
G01 X19.2985 Y17.8192
G01 X19.2914 Y17.8277
G01 X19.2864 Y17.8331
G01 X19.2811 Y17.8382
G01 X19.2727 Y17.8454
G01 X19.2638 Y17.8519
G01 X19.2545 Y17.8578
G01 X16.7831 Y19.2846
G01 X16.7698 Y19.2910
G01 X16.7595 Y19.2949
G01 X16.7489 Y19.2981
G01 X16.7345 Y19.3011
G01 X16.7235 Y19.3024
G01 X16.7088 Y19.3029
G01 X16.6978 Y19.3023
G01 X16.6832 Y19.3002
G01 X16.6725 Y19.2978
G01 X16.6654 Y19.2957
G01 X16.6516 Y19.2905
G01 X16.6384 Y19.2840
G01 X16.6259 Y19.2762
G01 X16.6171 Y19.2696
G01 X16.6115 Y19.2648
G01 X16.6010 Y19.2545
G01 X16.5915 Y19.2432
G01 X16.5833 Y19.2310
G01 X15.2848 Y16.9821
G01 X14.6600 Y17.6069
G01 X14.2306 Y18.0806
G01 X13.8537 Y18.5888
G01 X13.5285 Y19.1314
G01 X13.2580 Y19.7033
G01 X13.0449 Y20.2990
G01 X12.9707 Y20.5953
G01 X15.7956 Y20.5954
G01 X15.8029 Y20.5957
G01 X15.8139 Y20.5969
G01 X15.8248 Y20.5990
G01 X15.8354 Y20.6018
G01 X15.8459 Y20.6054
G01 X15.8527 Y20.6082
G01 X15.8626 Y20.6130
G01 X15.8721 Y20.6186
G01 X15.8783 Y20.6227
G01 X15.8870 Y20.6294
G01 X15.8953 Y20.6367
G01 X15.9030 Y20.6446
G01 X15.9101 Y20.6530
G01 X15.9145 Y20.6589
G01 X15.9186 Y20.6651
G01 X15.9242 Y20.6746
G01 X15.9290 Y20.6845
G01 X15.9318 Y20.6913
G01 X15.9354 Y20.7018
G01 X15.9374 Y20.7089
G01 X15.9397 Y20.7197
G01 X15.9408 Y20.7270
G01 X15.9415 Y20.7343
G01 X15.9419 Y20.7453
G01 X15.9419 Y23.5953
G01 X15.9412 Y23.6100
G01 X15.9397 Y23.6210
G01 X15.9374 Y23.6318
G01 X15.9343 Y23.6424
G01 X15.9305 Y23.6527
G01 X15.9242 Y23.6660
G01 X15.9166 Y23.6787
G01 X15.9101 Y23.6876
G01 X15.9005 Y23.6987
G01 X15.8953 Y23.7040
